;Generated with Cura_SteamEngine 15.05
M82
M190 S110
M104 S235
G28
G90
G1 F210 Z5
G32 S1
M109 S235
G90
G92 E0
;Layer count: 142
;LAYER:0
M107
G0 F3360 X87.625 Y76.170 Z0.300
;TYPE:SKIRT
G1 F1320 X132.375 Y76.170 E2.67910
G1 X146.203 Y89.999 E3.84991
G1 X146.203 Y119.991 E5.64548
G1 X132.365 Y133.829 E6.81710
G1 X87.635 Y133.829 E9.49500
G1 X73.796 Y119.991 E10.66666
G1 X73.796 Y106.024 E11.50284
G1 X79.369 Y106.024 E11.83649
G1 X79.370 Y103.965 E11.95976
G1 X73.796 Y103.965 E12.29346
G1 X73.796 Y89.999 E13.12958
G1 X87.625 Y76.170 E14.30043
G0 F3360 X87.824 Y76.650
G1 F1320 X132.176 Y76.650 E16.95571
G1 X145.723 Y90.198 E18.10273
G1 X145.723 Y119.792 E19.87447
G1 X132.166 Y133.349 E21.02229
G1 X87.834 Y133.349 E23.67637
G1 X74.276 Y119.792 E24.82424
G1 X74.276 Y106.504 E25.61977
G1 X79.849 Y106.504 E25.95341
G1 X79.851 Y103.485 E26.13416
G1 X74.276 Y103.485 E26.46792
G1 X74.276 Y90.198 E27.26339
G1 X87.824 Y76.650 E28.41045
G0 F3360 X88.023 Y77.130
G1 F1320 X131.977 Y77.130 E31.04190
G1 X145.243 Y90.397 E32.16513
G1 X145.243 Y119.593 E33.91304
G1 X131.967 Y132.869 E35.03707
G1 X88.033 Y132.869 E37.66732
G1 X74.756 Y119.593 E38.79140
G1 X74.756 Y106.984 E39.54628
G1 X80.329 Y106.984 E39.87992
G1 X80.331 Y103.005 E40.11814
G1 X74.756 Y103.005 E40.45191
G1 X74.756 Y90.397 E41.20672
G1 X88.023 Y77.130 E42.32999
G1 F2400 E40.82999
G1 Z0.400
G0 F3360 X89.663 Y81.090
;TYPE:WALL-INNER
G1 Z0.300
G1 F2400 E42.32999
G1 F1320 X129.704 Y81.090 E44.72718
G1 X129.222 Y81.336 E44.75958
G1 X128.673 Y81.886 E44.80610
G1 X128.321 Y82.578 E44.85258
G1 X128.199 Y83.344 E44.89902
G1 X128.321 Y84.112 E44.94557
G1 X128.673 Y84.803 E44.99200
G1 X129.222 Y85.352 E45.03848
G1 X129.913 Y85.704 E45.08491
G1 X130.681 Y85.826 E45.13146
G1 X131.447 Y85.704 E45.17790
G1 X132.139 Y85.352 E45.22438
G1 X132.689 Y84.802 E45.27095
G1 X133.040 Y84.111 E45.31735
G1 X133.084 Y83.837 E45.33396
G1 X141.283 Y92.037 E46.02819
G1 X141.283 Y117.953 E47.57973
G1 X133.053 Y126.183 E48.27654
G1 X133.009 Y125.905 E48.29339
G1 X132.657 Y125.214 E48.33981
G1 X132.108 Y124.665 E48.38630
G1 X131.417 Y124.313 E48.43272
G1 X130.649 Y124.191 E48.47928
G1 X129.883 Y124.313 E48.52572
G1 X129.191 Y124.665 E48.57220
G1 X128.641 Y125.214 E48.61872
G1 X128.288 Y125.906 E48.66523
G1 X128.168 Y126.673 E48.71171
G1 X128.288 Y127.439 E48.75812
G1 X128.641 Y128.131 E48.80463
G1 X129.191 Y128.681 E48.85120
G1 X129.641 Y128.909 E48.88140
G1 X89.673 Y128.909 E51.27421
G1 X82.793 Y122.029 E51.85672
G1 X82.965 Y122.002 E51.86714
G1 X83.657 Y121.650 E51.91362
G1 X84.206 Y121.101 E51.96011
G1 X84.558 Y120.409 E52.00659
G1 X84.680 Y119.642 E52.05308
G1 X84.558 Y118.876 E52.09952
G1 X84.206 Y118.184 E52.14600
G1 X83.657 Y117.635 E52.19248
G1 X82.965 Y117.283 E52.23896
G1 X82.199 Y117.161 E52.28540
G1 X81.431 Y117.283 E52.33195
G1 X80.741 Y117.635 E52.37833
G1 X80.191 Y118.183 E52.42481
G1 X79.839 Y118.876 E52.47134
G1 X79.812 Y119.048 E52.48177
G1 X78.716 Y117.953 E52.57452
G1 X78.716 Y110.944 E52.99414
G1 X83.526 Y110.944 E53.28210
G1 X83.757 Y110.900 E53.29618
G1 X84.039 Y110.712 E53.31647
G1 X84.215 Y110.432 E53.33627
G1 X84.287 Y110.181 E53.35190
G1 X84.292 Y99.910 E53.96681
G1 X84.238 Y99.607 E53.98524
G1 X84.122 Y99.397 E53.99960
G1 X84.004 Y99.255 E54.01065
G1 X83.808 Y99.116 E54.02504
G1 X83.559 Y99.045 E54.04054
G1 X78.716 Y99.045 E54.33048
G1 X78.716 Y92.037 E54.75004
G1 X79.837 Y90.916 E54.84495
G1 X79.871 Y91.129 E54.85786
G1 X80.222 Y91.821 E54.90432
G1 X80.772 Y92.371 E54.95088
G1 X81.464 Y92.722 E54.99734
G1 X82.230 Y92.844 E55.04377
G1 X82.997 Y92.722 E55.09027
G1 X83.688 Y92.371 E55.13667
G1 X84.238 Y91.821 E55.18324
G1 X84.590 Y91.129 E55.22972
G1 X84.712 Y90.363 E55.27615
G1 X84.590 Y89.595 E55.32271
G1 X84.238 Y88.904 E55.36914
G1 X83.689 Y88.355 E55.41562
G1 X82.998 Y88.003 E55.46205
G1 X82.784 Y87.969 E55.47502
G1 X89.663 Y81.090 E56.05744
G0 F3360 X89.465 Y80.610
;TYPE:WALL-OUTER
G1 F1320 X130.535 Y80.610 E58.51623
G1 X131.447 Y81.522 E58.59344
G1 X131.297 Y81.446 E58.60351
G1 X130.681 Y81.349 E58.64084
G1 X130.064 Y81.446 E58.67824
G1 X129.508 Y81.729 E58.71559
G1 X129.066 Y82.171 E58.75301
G1 X128.783 Y82.728 E58.79041
G1 X128.685 Y83.344 E58.82776
G1 X128.783 Y83.961 E58.86516
G1 X129.066 Y84.517 E58.90251
G1 X129.508 Y84.959 E58.93993
G1 X130.064 Y85.242 E58.97728
G1 X130.681 Y85.340 E59.01468
G1 X131.297 Y85.242 E59.05203
G1 X131.854 Y84.959 E59.08943
G1 X132.296 Y84.517 E59.12685
G1 X132.578 Y83.961 E59.16418
G1 X132.676 Y83.344 E59.20158
G1 X132.578 Y82.728 E59.23892
G1 X132.501 Y82.576 E59.24912
G1 X141.763 Y91.839 E60.03334
G1 X141.763 Y118.151 E61.60860
G1 X132.466 Y127.448 E62.39574
G1 X132.547 Y127.289 E62.40643
G1 X132.645 Y126.673 E62.44377
G1 X132.547 Y126.056 E62.48117
G1 X132.264 Y125.500 E62.51852
G1 X131.822 Y125.058 E62.55594
G1 X131.266 Y124.775 E62.59329
G1 X130.649 Y124.677 E62.63070
G1 X130.033 Y124.775 E62.66804
G1 X129.476 Y125.058 E62.70544
G1 X129.034 Y125.500 E62.74286
G1 X128.751 Y126.056 E62.78021
G1 X128.654 Y126.673 E62.81761
G1 X128.751 Y127.289 E62.85494
G1 X129.034 Y127.846 E62.89234
G1 X129.476 Y128.288 E62.92977
G1 X130.033 Y128.570 E62.96714
G1 X130.649 Y128.668 E63.00449
G1 X131.266 Y128.570 E63.04189
G1 X131.424 Y128.490 E63.05249
G1 X130.525 Y129.389 E63.12861
G1 X89.475 Y129.389 E65.58620
G1 X81.633 Y121.548 E66.25011
G1 X82.199 Y121.638 E66.28442
G1 X82.815 Y121.540 E66.32176
G1 X83.372 Y121.257 E66.35917
G1 X83.813 Y120.816 E66.39650
G1 X84.096 Y120.259 E66.43391
G1 X84.194 Y119.642 E66.47131
G1 X84.096 Y119.026 E66.50865
G1 X83.813 Y118.469 E66.54606
G1 X83.372 Y118.028 E66.58340
G1 X82.815 Y117.745 E66.62080
G1 X82.199 Y117.647 E66.65814
G1 X81.582 Y117.745 E66.69554
G1 X81.026 Y118.028 E66.73289
G1 X80.584 Y118.469 E66.77027
G1 X80.301 Y119.026 E66.80768
G1 X80.203 Y119.642 E66.84502
G1 X80.293 Y120.208 E66.87933
G1 X78.236 Y118.151 E67.05349
G1 X78.236 Y110.464 E67.51370
G1 X83.481 Y110.464 E67.82771
G1 X83.572 Y110.447 E67.83325
G1 X83.688 Y110.369 E67.84162
G1 X83.772 Y110.235 E67.85109
G1 X83.807 Y110.114 E67.85863
G1 X83.812 Y99.953 E68.46695
G1 X83.779 Y99.770 E68.47808
G1 X83.723 Y99.668 E68.48505
G1 X83.675 Y99.610 E68.48955
G1 X83.598 Y99.555 E68.49522
G1 X83.492 Y99.525 E68.50181
G1 X78.236 Y99.525 E68.81648
G1 X78.236 Y91.839 E69.27663
G1 X80.337 Y89.738 E69.45451
G1 X80.235 Y90.363 E69.49243
G1 X80.333 Y90.979 E69.52977
G1 X80.615 Y91.536 E69.56715
G1 X81.057 Y91.978 E69.60457
G1 X81.614 Y92.260 E69.64195
G1 X82.230 Y92.358 E69.67929
G1 X82.847 Y92.260 E69.71669
G1 X83.403 Y91.978 E69.75401
G1 X83.845 Y91.536 E69.79144
G1 X84.128 Y90.979 E69.82884
G1 X84.226 Y90.363 E69.86618
G1 X84.128 Y89.746 E69.90358
G1 X83.845 Y89.190 E69.94093
G1 X83.403 Y88.748 E69.97836
G1 X82.847 Y88.465 E70.01571
G1 X82.230 Y88.367 E70.05311
G1 X81.614 Y88.465 E70.09045
G1 X89.465 Y80.610 E70.75534
G0 F3360 X89.743 Y81.257
;TYPE:SKIN
G1 F1320 X133.741 Y125.256 E74.48054
G0 F3360 X133.402 Y125.595
G1 F1320 X89.398 Y81.591 E78.20620
G0 F3360 X89.058 Y81.931
G1 F1320 X131.242 Y124.114 E81.77773
G0 F3360 X130.493 Y124.044
G1 F1320 X88.719 Y82.270 E85.31459
G0 F3360 X88.379 Y82.609
G1 F1320 X129.908 Y124.138 E88.83070
G0 F3360 X129.440 Y124.348
G1 F1320 X88.040 Y82.949 E92.33585
G0 F3360 X87.701 Y83.288
G1 F1320 X129.015 Y124.602 E95.83376
G0 F3360 X128.675 Y124.942
G1 F1320 X87.361 Y83.628 E99.33167
G0 F3360 X87.022 Y83.967
G1 F1320 X128.390 Y125.336 E102.83420
G0 F3360 X128.160 Y125.785
G1 F1320 X86.682 Y84.306 E106.34604
G0 F3360 X86.343 Y84.646
G1 F1320 X128.047 Y126.350 E109.87697
G0 F3360 X128.054 Y127.035
G1 F1320 X86.003 Y84.985 E113.43724
G0 F3360 X85.664 Y85.325
G1 F1320 X128.432 Y128.093 E117.05825
G0 F3360 X128.400 Y128.740
G1 F1320 X85.325 Y85.664 E120.70530
G0 F3360 X84.985 Y86.003
G1 F1320 X127.721 Y128.740 E124.32365
G0 F3360 X127.043 Y128.740
G1 F1320 X84.646 Y86.343 E127.91326
G0 F3360 X84.306 Y86.682
G1 F1320 X126.364 Y128.740 E131.47416
G0 F3360 X125.685 Y128.740
G1 F1320 X83.967 Y87.022 E135.00628
G0 F3360 X83.628 Y87.361
G1 F1320 X125.006 Y128.740 E138.50965
G0 F3360 X124.327 Y128.740
G1 F1320 X83.288 Y87.701 E141.98428
G0 F3360 X84.808 Y89.899
G1 F1320 X123.648 Y128.740 E145.27276
G0 F3360 X122.970 Y128.740
G1 F1320 X84.842 Y90.612 E148.50093
G0 F3360 X84.744 Y91.193
G1 F1320 X122.291 Y128.740 E151.67990
G0 F3360 X121.612 Y128.740
G1 F1320 X84.516 Y91.643 E154.82073
G0 F3360 X84.244 Y92.051
G1 F1320 X120.933 Y128.740 E157.92706
G0 F3360 X120.254 Y128.740
G1 F1320 X83.905 Y92.390 E161.00464
G0 F3360 X83.493 Y92.657
G1 F1320 X119.575 Y128.740 E164.05962
G0 F3360 X118.897 Y128.740
G1 F1320 X83.041 Y92.884 E167.09542
G0 F3360 X82.456 Y92.978
G1 F1320 X118.218 Y128.740 E170.12326
G0 F3360 X117.539 Y128.740
G1 F1320 X81.733 Y92.934 E173.15483
G0 F3360 X78.883 Y94.156
G1 F1320 X83.609 Y98.883 E173.55501
G0 F3360 X82.923 Y98.876
G1 F1320 X78.883 Y94.835 E173.89710
G0 F3360 X78.883 Y95.514
G1 F1320 X82.245 Y98.876 E174.18175
G0 F3360 X81.566 Y98.876
G1 F1320 X78.883 Y96.193 E174.40891
G0 F3360 X78.883 Y96.872
G1 F1320 X80.887 Y98.876 E174.57858
G0 F3360 X80.208 Y98.876
G1 F1320 X78.883 Y97.551 E174.69077
G0 F3360 X78.883 Y98.229
G1 F1320 X79.529 Y98.876 E174.74550
G0 F3360 X78.883 Y93.478
G1 F1320 X114.145 Y128.740 E177.73101
G0 F3360 X113.466 Y128.740
G1 F1320 X84.424 Y99.697 E180.18994
G0 F3360 X90.421 Y81.257
G1 F1320 X134.080 Y124.916 E183.88639
G0 F3360 X134.420 Y124.577
G1 F1320 X91.100 Y81.257 E187.55415
G0 F3360 X91.779 Y81.257
G1 F1320 X134.759 Y124.237 E191.19311
G0 F3360 X135.099 Y123.898
G1 F1320 X92.458 Y81.257 E194.80337
G0 F3360 X93.137 Y81.257
G1 F1320 X135.438 Y123.559 E198.38489
G0 F3360 X135.777 Y123.219
G1 F1320 X93.816 Y81.257 E201.93763
G0 F3360 X94.494 Y81.257
G1 F1320 X136.117 Y122.880 E205.46170
G0 F3360 X136.456 Y122.540
G1 F1320 X95.173 Y81.257 E208.95699
G0 F3360 X95.852 Y81.257
G1 F1320 X136.796 Y122.201 E212.42357
G0 F3360 X137.135 Y121.862
G1 F1320 X96.531 Y81.257 E215.86141
G0 F3360 X97.210 Y81.257
G1 F1320 X137.474 Y121.522 E219.27046
G0 F3360 X137.814 Y121.183
G1 F1320 X97.889 Y81.257 E222.65082
G0 F3360 X98.567 Y81.257
G1 F1320 X138.153 Y120.843 E226.00242
G0 F3360 X138.493 Y120.504
G1 F1320 X99.246 Y81.257 E229.32533
G0 F3360 X99.925 Y81.257
G1 F1320 X138.832 Y120.165 E232.61949
G0 F3360 X139.172 Y119.825
G1 F1320 X100.604 Y81.257 E235.88491
G0 F3360 X101.283 Y81.257
G1 F1320 X139.511 Y119.486 E239.12158
G0 F3360 X139.850 Y119.146
G1 F1320 X101.961 Y81.257 E242.32951
G0 F3360 X102.640 Y81.257
G1 F1320 X140.190 Y118.807 E245.50873
G0 F3360 X140.529 Y118.467
G1 F1320 X103.319 Y81.257 E248.65917
G0 F3360 X103.998 Y81.257
G1 F1320 X140.869 Y118.128 E251.78091
G0 F3360 X141.114 Y117.695
G1 F1320 X104.677 Y81.257 E254.86595
G0 F3360 X105.356 Y81.257
G1 F1320 X141.114 Y117.016 E257.89349
G0 F3360 X141.114 Y116.337
G1 F1320 X106.034 Y81.257 E260.86359
G0 F3360 X106.713 Y81.257
G1 F1320 X141.114 Y115.658 E263.77620
G0 F3360 X141.114 Y114.979
G1 F1320 X107.392 Y81.257 E266.63133
G0 F3360 X108.071 Y81.257
G1 F1320 X141.114 Y114.300 E269.42896
G0 F3360 X141.114 Y113.622
G1 F1320 X108.750 Y81.257 E272.16915
G0 F3360 X109.429 Y81.257
G1 F1320 X141.114 Y112.943 E274.85185
G0 F3360 X141.114 Y112.264
G1 F1320 X110.107 Y81.257 E277.47710
G0 F3360 X110.786 Y81.257
G1 F1320 X141.114 Y111.585 E280.04487
G0 F3360 X141.114 Y110.906
G1 F1320 X111.465 Y81.257 E282.55515
G0 F3360 X112.144 Y81.257
G1 F1320 X141.114 Y110.228 E285.00798
G0 F3360 X141.114 Y109.549
G1 F1320 X112.823 Y81.257 E287.40332
G0 F3360 X113.501 Y81.257
G1 F1320 X141.114 Y108.870 E289.74121
G0 F3360 X141.114 Y108.191
G1 F1320 X114.180 Y81.257 E292.02162
G0 F3360 X114.859 Y81.257
G1 F1320 X141.114 Y107.512 E294.24454
G0 F3360 X141.114 Y106.833
G1 F1320 X115.538 Y81.257 E296.40997
G0 F3360 X116.217 Y81.257
G1 F1320 X141.114 Y106.155 E298.51795
G0 F3360 X141.114 Y105.476
G1 F1320 X116.896 Y81.257 E300.56845
G0 F3360 X117.574 Y81.257
G1 F1320 X141.114 Y104.797 E302.56150
G0 F3360 X141.114 Y104.118
G1 F1320 X118.253 Y81.257 E304.49706
G0 F3360 X118.932 Y81.257
G1 F1320 X141.114 Y103.439 E306.37513
G0 F3360 X141.114 Y102.761
G1 F1320 X119.611 Y81.257 E308.19575
G0 F3360 X120.290 Y81.257
G1 F1320 X141.114 Y102.082 E309.95889
G0 F3360 X141.114 Y101.403
G1 F1320 X120.968 Y81.257 E311.66458
G0 F3360 X121.647 Y81.257
G1 F1320 X141.114 Y100.724 E313.31278
G0 F3360 X141.114 Y100.045
G1 F1320 X122.326 Y81.257 E314.90350
G0 F3360 X123.005 Y81.257
G1 F1320 X141.114 Y99.366 E316.43672
G0 F3360 X141.114 Y98.688
G1 F1320 X123.684 Y81.257 E317.91250
G0 F3360 X124.363 Y81.257
G1 F1320 X141.114 Y98.009 E319.33079
G0 F3360 X141.114 Y97.330
G1 F1320 X129.432 Y85.648 E320.31987
G0 F3360 X130.417 Y85.954
G1 F1320 X141.114 Y96.651 E321.22554
G0 F3360 X141.114 Y95.972
G1 F1320 X131.074 Y85.933 E322.07555
G0 F3360 X131.623 Y85.803
G1 F1320 X141.114 Y95.293 E322.87908
G0 F3360 X141.114 Y94.615
G1 F1320 X132.073 Y85.574 E323.64455
G0 F3360 X132.453 Y85.274
G1 F1320 X141.114 Y93.936 E324.37789
G0 F3360 X141.114 Y93.257
G1 F1320 X132.792 Y84.935 E325.08248
G0 F3360 X133.032 Y84.496
G1 F1320 X141.114 Y92.578 E325.76676
G0 F3360 X128.376 Y84.592
G1 F1320 X125.041 Y81.257 E326.04912
G0 F3360 X125.720 Y81.257
G1 F1320 X128.071 Y83.608 E326.24817
G0 F3360 X128.091 Y82.949
G1 F1320 X126.399 Y81.257 E326.39143
G0 F3360 X127.078 Y81.257
G1 F1320 X128.221 Y82.401 E326.48824
G0 F3360 X128.450 Y81.951
G1 F1320 X127.757 Y81.257 E326.54696
G0 F3360 X128.436 Y81.257
G1 F1320 X128.749 Y81.571 E326.57350
G0 F3360 X84.459 Y100.411
G1 F1320 X112.787 Y128.740 E328.97198
G0 F3360 X112.108 Y128.740
G1 F1320 X84.459 Y101.090 E331.31296
G0 F3360 X84.458 Y101.768
G1 F1320 X111.430 Y128.740 E333.59659
G0 F3360 X110.751 Y128.740
G1 F1320 X84.458 Y102.447 E335.82272
G0 F3360 X84.458 Y103.125
G1 F1320 X110.072 Y128.740 E337.99141
G0 F3360 X109.393 Y128.740
G1 F1320 X84.458 Y103.804 E340.10261
G0 F3360 X84.457 Y104.482
G1 F1320 X108.714 Y128.740 E342.15641
G0 F3360 X108.036 Y128.740
G1 F1320 X84.457 Y105.161 E344.15276
G0 F3360 X84.456 Y105.839
G1 F1320 X107.357 Y128.740 E346.09171
G0 F3360 X106.678 Y128.740
G1 F1320 X84.456 Y106.518 E347.97317
G0 F3360 X84.456 Y107.197
G1 F1320 X105.999 Y128.740 E349.79714
G0 F3360 X105.320 Y128.740
G1 F1320 X84.456 Y107.875 E351.56366
G0 F3360 X84.456 Y108.554
G1 F1320 X104.641 Y128.740 E353.27270
G0 F3360 X103.963 Y128.740
G1 F1320 X84.455 Y109.232 E354.92437
G0 F3360 X84.455 Y109.911
G1 F1320 X103.284 Y128.740 E356.51856
G0 F3360 X102.605 Y128.740
G1 F1320 X84.367 Y110.502 E358.06270
G0 F3360 X84.075 Y110.889
G1 F1320 X101.926 Y128.740 E359.57408
G0 F3360 X101.247 Y128.740
G1 F1320 X83.606 Y111.099 E361.06769
G0 F3360 X82.940 Y111.111
G1 F1320 X100.568 Y128.740 E362.56023
G0 F3360 X114.824 Y128.740
G1 F1320 X78.883 Y92.799 E365.60323
G0 F3360 X78.883 Y92.120
G1 F1320 X115.503 Y128.740 E368.70371
G0 F3360 X116.181 Y128.740
G1 F1320 X79.215 Y91.773 E371.83354
G0 F3360 X79.555 Y91.434
G1 F1320 X116.860 Y128.740 E374.99206
G0 F3360 X99.890 Y128.740
G1 F1320 X82.261 Y111.111 E376.48465
G0 F3360 X81.582 Y111.111
G1 F1320 X99.211 Y128.740 E377.97723
G0 F3360 X98.532 Y128.740
G1 F1320 X80.903 Y111.111 E379.46982
G0 F3360 X80.224 Y111.111
G1 F1320 X97.853 Y128.740 E380.96240
G0 F3360 X97.174 Y128.740
G1 F1320 X79.545 Y111.111 E382.45499
G0 F3360 X78.884 Y111.128
G1 F1320 X96.496 Y128.740 E383.94614
G0 F3360 X95.817 Y128.740
G1 F1320 X78.884 Y111.807 E385.37979
G0 F3360 X78.884 Y112.485
G1 F1320 X95.138 Y128.740 E386.75600
G0 F3360 X94.459 Y128.740
G1 F1320 X84.753 Y119.033 E387.57782
G0 F3360 X84.826 Y119.786
G1 F1320 X93.780 Y128.740 E388.33592
G0 F3360 X93.101 Y128.740
G1 F1320 X84.733 Y120.371 E389.04445
G0 F3360 X84.525 Y120.842
G1 F1320 X92.423 Y128.740 E389.71315
G0 F3360 X91.744 Y128.740
G1 F1320 X84.274 Y121.270 E390.34561
G0 F3360 X83.934 Y121.609
G1 F1320 X91.065 Y128.740 E390.94937
G0 F3360 X90.386 Y128.740
G1 F1320 X83.543 Y121.896 E391.52878
G0 F3360 X84.517 Y120.395
G0 X84.517 Y118.890
G0 X83.632 Y117.671
G0 X82.805 Y117.086
G1 F1320 X78.884 Y113.164 E391.86080
G0 F3360 X78.884 Y113.843
G1 F1320 X82.053 Y117.012 E392.12911
