;Generated with Cura_SteamEngine 15.05
M82
M190 S110
M104 S235
G28
G90
G1 F210 Z5
G32 S1
M109 S235
G90
G92 E0
;Layer count: 98
;LAYER:0
M107
G0 F3360 X89.622 Y74.178 Z0.300
;TYPE:SKIRT
G1 F1320 X130.378 Y74.178 E2.43999
G1 X146.203 Y90.004 E3.77988
G1 X146.203 Y119.996 E5.57545
G1 X130.379 Y135.821 E6.91525
G1 X89.621 Y135.821 E9.35536
G1 X73.796 Y119.997 E10.69517
G1 X73.796 Y90.004 E12.49080
G1 X89.622 Y74.178 E13.83073
G0 F3360 X89.821 Y74.658
G1 F1320 X130.179 Y74.658 E16.24689
G1 X145.723 Y90.203 E17.56299
G1 X145.723 Y119.797 E19.33473
G1 X130.180 Y135.341 E20.65074
G1 X89.820 Y135.341 E23.06702
G1 X74.276 Y119.798 E24.38304
G1 X74.276 Y90.203 E26.15484
G1 X89.821 Y74.658 E27.47098
G0 F3360 X90.020 Y75.138
G1 F1320 X129.980 Y75.138 E29.86331
G1 X145.243 Y90.402 E31.15562
G1 X145.243 Y119.598 E32.90353
G1 X129.981 Y134.861 E34.19576
G1 X90.019 Y134.861 E36.58821
G1 X74.756 Y119.599 E37.88043
G1 X74.756 Y90.402 E39.62841
G1 X90.020 Y75.138 E40.92076
G1 F2400 E39.42076
G1 Z0.400
G0 F3360 X91.660 Y79.098
;TYPE:WALL-INNER
G1 Z0.300
G1 F2400 E40.92076
G1 F1320 X128.340 Y79.098 E43.11672
G1 X141.283 Y92.042 E44.21260
G1 X141.283 Y117.958 E45.76415
G1 X128.341 Y130.901 E46.85994
G1 X91.659 Y130.901 E49.05603
G1 X78.716 Y117.959 E50.15183
G1 X78.716 Y92.042 E51.70343
G1 X91.660 Y79.098 E52.79936
G0 F3360 X90.820 Y82.153
G1 F1320 X90.300 Y82.070 E52.83088
G1 X89.775 Y82.154 E52.86271
G1 X89.296 Y82.407 E52.89514
G1 X88.940 Y82.763 E52.92528
G1 X88.702 Y83.230 E52.95666
G1 X88.619 Y83.750 E52.98819
G1 X88.702 Y84.268 E53.01960
G1 X88.939 Y84.736 E53.05100
G1 X89.312 Y85.111 E53.08267
G1 X89.781 Y85.347 E53.11410
G1 X90.300 Y85.432 E53.14559
G1 X90.820 Y85.347 E53.17713
G1 X91.287 Y85.110 E53.20848
G1 X91.660 Y84.736 E53.24011
G1 X91.897 Y84.268 E53.27151
G1 X91.980 Y83.750 E53.30292
G1 X91.897 Y83.230 E53.33445
G1 X91.659 Y82.763 E53.36583
G1 X91.287 Y82.391 E53.39732
G1 X90.820 Y82.153 E53.42870
G0 F3360 X89.322 Y82.441
G0 X88.662 Y83.750
G0 X83.700 Y96.970
G1 F1320 X83.124 Y96.992 E53.46321
G1 X82.363 Y97.115 E53.50936
G1 X82.109 Y97.194 E53.52529
G1 X81.878 Y97.292 E53.54031
G1 X81.649 Y97.443 E53.55673
G1 X81.414 Y97.690 E53.57714
G1 X81.317 Y98.026 E53.59808
G1 X81.317 Y111.990 E54.43408
G1 X81.430 Y112.324 E54.45519
G1 X81.658 Y112.568 E54.47518
G1 X81.906 Y112.723 E54.49269
G1 X82.357 Y112.882 E54.52132
G1 X82.855 Y112.977 E54.55167
G1 X83.422 Y113.025 E54.58574
G1 X136.300 Y113.030 E57.75145
G1 X136.875 Y113.007 E57.78590
G1 X137.632 Y112.884 E57.83182
G1 X137.912 Y112.801 E57.84930
G1 X138.326 Y112.588 E57.87718
G1 X138.583 Y112.306 E57.90002
G1 X138.683 Y111.981 E57.92038
G1 X138.683 Y98.007 E58.75697
G1 X138.567 Y97.673 E58.77814
G1 X138.344 Y97.434 E58.79771
G1 X138.098 Y97.278 E58.81515
G1 X137.661 Y97.121 E58.84295
G1 X137.146 Y97.023 E58.87434
G1 X136.578 Y96.974 E58.90847
G1 X83.700 Y96.970 E62.07418
G0 F3360 X137.650 Y97.162
G0 X138.528 Y97.697
G0 X138.542 Y112.283
G0 X136.870 Y112.966
G0 X89.775 Y124.534
G1 F1320 X89.296 Y124.787 E62.10661
G1 X88.940 Y125.141 E62.13667
G1 X88.702 Y125.611 E62.16821
G1 X88.619 Y126.130 E62.19967
G1 X88.703 Y126.655 E62.23151
G1 X88.956 Y127.134 E62.26394
G1 X89.312 Y127.490 E62.29408
G1 X89.781 Y127.728 E62.32556
G1 X90.300 Y127.811 E62.35703
G1 X90.820 Y127.728 E62.38856
G1 X91.287 Y127.490 E62.41994
G1 X91.659 Y127.118 E62.45143
G1 X91.897 Y126.649 E62.48292
G1 X91.980 Y126.130 E62.51439
G1 X91.897 Y125.611 E62.54585
G1 X91.659 Y125.141 E62.57739
G1 X91.287 Y124.771 E62.60880
G1 X90.820 Y124.533 E62.64018
G1 X90.300 Y124.450 E62.67171
G1 X89.775 Y124.534 E62.70354
G0 F3360 X117.687 Y126.130
G1 F1320 X117.768 Y126.648 E62.73493
G1 X118.007 Y127.119 E62.76655
G1 X118.380 Y127.490 E62.79804
G1 X118.847 Y127.728 E62.82942
G1 X119.367 Y127.811 E62.86095
G1 X119.893 Y127.727 E62.89284
G1 X120.370 Y127.474 E62.92517
G1 X120.727 Y127.119 E62.95531
G1 X120.966 Y126.648 E62.98693
G1 X121.047 Y126.130 E63.01832
G1 X120.966 Y125.612 E63.04970
G1 X120.726 Y125.140 E63.08141
G1 X120.353 Y124.770 E63.11286
G1 X119.887 Y124.533 E63.14416
G1 X119.367 Y124.450 E63.17568
G1 X118.841 Y124.534 E63.20757
G1 X118.365 Y124.787 E63.23985
G1 X118.008 Y125.140 E63.26990
G1 X117.768 Y125.612 E63.30160
G1 X117.687 Y126.130 E63.33299
G0 F3360 X118.229 Y112.987
G0 X137.622 Y112.844
G0 X138.542 Y112.283
G0 X138.528 Y97.697
G0 X137.140 Y97.063
G0 X119.367 Y85.432
G1 F1320 X119.887 Y85.347 E63.36454
G1 X120.354 Y85.111 E63.39586
G1 X120.727 Y84.737 E63.42749
G1 X120.966 Y84.267 E63.45905
G1 X121.047 Y83.750 E63.49038
G1 X120.966 Y83.231 E63.52183
G1 X120.726 Y82.762 E63.55337
G1 X120.354 Y82.391 E63.58483
G1 X119.887 Y82.153 E63.61621
G1 X119.367 Y82.070 E63.64773
G1 X118.841 Y82.154 E63.67962
G1 X118.364 Y82.407 E63.71195
G1 X118.008 Y82.762 E63.74205
G1 X117.768 Y83.231 E63.77359
G1 X117.687 Y83.750 E63.80503
G1 X117.769 Y84.273 E63.83673
G1 X118.023 Y84.753 E63.86924
G1 X118.380 Y85.111 E63.89951
G1 X118.847 Y85.347 E63.93083
G1 X119.367 Y85.432 E63.96238
G0 F3360 X119.367 Y84.945
;TYPE:WALL-OUTER
G1 F1320 X119.736 Y84.885 E63.98476
G1 X120.069 Y84.717 E64.00709
G1 X120.334 Y84.452 E64.02953
G1 X120.503 Y84.118 E64.05194
G1 X120.561 Y83.750 E64.07424
G1 X120.503 Y83.381 E64.09660
G1 X120.333 Y83.048 E64.11899
G1 X120.069 Y82.784 E64.14134
G1 X119.736 Y82.615 E64.16369
G1 X119.367 Y82.556 E64.18607
G1 X118.996 Y82.615 E64.20856
G1 X118.652 Y82.798 E64.23188
G1 X118.401 Y83.048 E64.25309
G1 X118.231 Y83.381 E64.27548
G1 X118.173 Y83.750 E64.29784
G1 X118.231 Y84.120 E64.32026
G1 X118.414 Y84.465 E64.34364
G1 X118.665 Y84.717 E64.36494
G1 X118.998 Y84.885 E64.38727
G1 X119.367 Y84.945 E64.40965
G0 F3360 X119.313 Y85.279
G0 X120.328 Y85.076
G0 X128.430 Y78.958
G0 X128.538 Y78.618
G1 F1320 X141.763 Y91.844 E65.52940
G1 X141.763 Y118.156 E67.10466
G1 X128.539 Y131.381 E68.22433
G1 X91.461 Y131.381 E70.44412
G1 X78.236 Y118.157 E71.56379
G1 X78.236 Y91.844 E73.13911
G1 X91.462 Y78.618 E74.25891
G1 X128.538 Y78.618 E76.47858
G0 F3360 X128.430 Y78.958
G0 X136.586 Y97.116
G0 X136.557 Y97.454
G1 F1320 X83.709 Y97.450 E79.64250
G1 X83.172 Y97.471 E79.67467
G1 X82.473 Y97.584 E79.71706
G1 X82.274 Y97.645 E79.72952
G1 X82.106 Y97.717 E79.74047
G1 X81.959 Y97.814 E79.75101
G1 X81.843 Y97.936 E79.76109
G1 X81.797 Y98.094 E79.77094
G1 X81.797 Y111.911 E80.59814
G1 X81.851 Y112.072 E80.60831
G1 X81.965 Y112.194 E80.61830
G1 X82.115 Y112.288 E80.62890
G1 X82.483 Y112.417 E80.65225
G1 X82.920 Y112.501 E80.67889
G1 X83.442 Y112.545 E80.71025
G1 X136.290 Y112.550 E83.87417
G1 X136.827 Y112.528 E83.90634
G1 X137.525 Y112.415 E83.94868
G1 X137.732 Y112.354 E83.96160
G1 X138.029 Y112.201 E83.98160
G1 X138.156 Y112.062 E83.99287
G1 X138.203 Y111.908 E84.00251
G1 X138.203 Y98.088 E84.82989
G1 X138.147 Y97.926 E84.84015
G1 X138.035 Y97.807 E84.84993
G1 X137.886 Y97.712 E84.86051
G1 X137.534 Y97.586 E84.88290
G1 X137.080 Y97.499 E84.91057
G1 X136.557 Y97.454 E84.94200
G0 F3360 X136.586 Y97.116
G0 X138.317 Y97.467
G0 X138.640 Y98.014
G0 X138.542 Y112.283
G0 X136.870 Y112.966
G0 X120.308 Y124.923
G0 X120.068 Y125.164
G1 F1320 X119.736 Y124.995 E84.96430
G1 X119.367 Y124.936 E84.98667
G1 X118.996 Y124.995 E85.00916
G1 X118.652 Y125.178 E85.03249
G1 X118.401 Y125.427 E85.05366
G1 X118.231 Y125.761 E85.07609
G1 X118.173 Y126.130 E85.09846
G1 X118.231 Y126.499 E85.12082
G1 X118.400 Y126.833 E85.14323
G1 X118.665 Y127.097 E85.16562
G1 X118.998 Y127.266 E85.18798
G1 X119.367 Y127.325 E85.21035
G1 X119.738 Y127.266 E85.23284
G1 X120.082 Y127.083 E85.25617
G1 X120.334 Y126.833 E85.27742
G1 X120.503 Y126.499 E85.29983
G1 X120.561 Y126.130 E85.32219
G1 X120.503 Y125.761 E85.34456
G1 X120.333 Y125.427 E85.36699
G1 X120.068 Y125.164 E85.38935
G0 F3360 X120.308 Y124.923
G0 X119.367 Y124.493
G0 X91.828 Y126.183
G0 X91.494 Y126.130
G1 F1320 X91.435 Y125.761 E85.41172
G1 X91.266 Y125.427 E85.43413
G1 X91.002 Y125.164 E85.45644
G1 X90.669 Y124.995 E85.47879
G1 X90.300 Y124.936 E85.50117
G1 X89.929 Y124.995 E85.52366
G1 X89.584 Y125.178 E85.54704
G1 X89.333 Y125.427 E85.56820
G1 X89.164 Y125.761 E85.59061
G1 X89.105 Y126.130 E85.61299
G1 X89.164 Y126.501 E85.63548
G1 X89.347 Y126.846 E85.65886
G1 X89.597 Y127.097 E85.68007
G1 X89.931 Y127.266 E85.70248
G1 X90.300 Y127.325 E85.72485
G1 X90.669 Y127.266 E85.74722
G1 X91.002 Y127.097 E85.76958
G1 X91.266 Y126.833 E85.79193
G1 X91.435 Y126.499 E85.81434
G1 X91.494 Y126.130 E85.83671
G0 F3360 X91.828 Y126.183
G0 X138.299 Y112.552
G0 X138.640 Y111.973
G0 X138.528 Y97.697
G0 X137.140 Y97.063
G0 X90.246 Y85.279
G0 X90.300 Y84.945
G1 F1320 X90.669 Y84.885 E85.85909
G1 X91.002 Y84.717 E85.88142
G1 X91.266 Y84.451 E85.90386
G1 X91.435 Y84.118 E85.92621
G1 X91.494 Y83.750 E85.94853
G1 X91.435 Y83.381 E85.97090
G1 X91.266 Y83.048 E85.99326
G1 X91.002 Y82.784 E86.01561
G1 X90.669 Y82.615 E86.03796
G1 X90.300 Y82.556 E86.06034
G1 X89.929 Y82.615 E86.08283
G1 X89.584 Y82.798 E86.10621
G1 X89.333 Y83.048 E86.12742
G1 X89.164 Y83.381 E86.14977
G1 X89.105 Y83.750 E86.17214
G1 X89.164 Y84.118 E86.19446
G1 X89.333 Y84.451 E86.21681
G1 X89.597 Y84.717 E86.23925
G1 X89.931 Y84.885 E86.26163
G1 X90.300 Y84.945 E86.28402
G0 F3360 X90.638 Y85.547
;TYPE:SKIN
G1 F1320 X101.893 Y96.802 E87.23694
G0 F3360 X101.214 Y96.802
G1 F1320 X89.958 Y85.546 E88.18994
G0 F3360 X91.142 Y85.372
G1 F1320 X102.572 Y96.802 E89.15768
G0 F3360 X103.251 Y96.802
G1 F1320 X91.540 Y85.091 E90.14921
G0 F3360 X91.852 Y84.724
G1 F1320 X103.930 Y96.802 E91.17181
G0 F3360 X104.609 Y96.802
G1 F1320 X92.067 Y84.260 E92.23370
G0 F3360 X92.132 Y83.647
G1 F1320 X105.288 Y96.802 E93.34753
G0 F3360 X105.967 Y96.802
G1 F1320 X90.079 Y80.915 E94.69267
G0 F3360 X89.740 Y81.255
G1 F1320 X90.094 Y81.948 E94.74857
G1 X89.230 Y81.763 E94.78130
G1 X89.141 Y82.353 E94.80378
G1 X88.552 Y82.442 E94.82362
G1 X88.589 Y83.159 E94.84860
G1 X88.043 Y82.952 E94.88356
G0 F3360 X87.703 Y83.291
G1 F1320 X88.502 Y84.090 E94.95121
G0 F3360 X87.364 Y83.630
G1 F1320 X100.535 Y96.802 E96.06639
G0 F3360 X106.645 Y96.802
G1 F1320 X90.419 Y80.576 E97.44019
G0 F3360 X90.758 Y80.236
G1 F1320 X107.324 Y96.802 E98.84277
G0 F3360 X108.003 Y96.802
G1 F1320 X91.097 Y79.897 E100.27410
G0 F3360 X91.437 Y79.557
G1 F1320 X108.682 Y96.802 E101.73418
G0 F3360 X109.361 Y96.802
G1 F1320 X91.824 Y79.265 E103.21897
G0 F3360 X92.503 Y79.265
G1 F1320 X110.039 Y96.802 E104.70373
G0 F3360 X110.719 Y96.803
G1 F1320 X93.181 Y79.265 E106.18861
G0 F3360 X93.860 Y79.265
G1 F1320 X111.398 Y96.803 E107.67349
G0 F3360 X112.077 Y96.803
G1 F1320 X94.539 Y79.265 E109.15837
G0 F3360 X95.218 Y79.265
G1 F1320 X112.755 Y96.803 E110.64321
G0 F3360 X113.434 Y96.803
G1 F1320 X95.897 Y79.265 E112.12805
G0 F3360 X96.575 Y79.265
G1 F1320 X114.113 Y96.803 E113.61293
G0 F3360 X114.792 Y96.803
G1 F1320 X97.254 Y79.265 E115.09781
G0 F3360 X97.933 Y79.265
G1 F1320 X115.471 Y96.803 E116.58269
G0 F3360 X116.150 Y96.803
G1 F1320 X98.612 Y79.265 E118.06757
G0 F3360 X99.291 Y79.265
G1 F1320 X116.829 Y96.804 E119.55249
G0 F3360 X117.508 Y96.804
G1 F1320 X99.970 Y79.265 E121.03742
G0 F3360 X100.648 Y79.265
G1 F1320 X118.187 Y96.804 E122.52238
G0 F3360 X118.866 Y96.804
G1 F1320 X101.327 Y79.265 E124.00735
G0 F3360 X102.006 Y79.265
G1 F1320 X119.544 Y96.804 E125.49227
G0 F3360 X130.407 Y96.805
G1 F1320 X119.171 Y85.569 E126.44358
G0 F3360 X119.810 Y85.529
G1 F1320 X131.086 Y96.805 E127.39828
G0 F3360 X131.765 Y96.805
G1 F1320 X120.290 Y85.331 E128.36979
G0 F3360 X120.669 Y85.031
G1 F1320 X132.443 Y96.805 E129.36665
G0 F3360 X133.122 Y96.805
G1 F1320 X120.961 Y84.644 E130.39628
G0 F3360 X121.152 Y84.156
G1 F1320 X133.801 Y96.805 E131.46723
G0 F3360 X134.480 Y96.805
G1 F1320 X121.177 Y83.502 E132.59354
G0 F3360 X120.334 Y79.265
G1 F1320 X138.236 Y97.167 E134.10924
G0 F3360 X138.744 Y97.676
G1 F1320 X141.114 Y100.045 E134.30986
G0 F3360 X141.114 Y100.724
G1 F1320 X138.850 Y98.460 E134.50154
G0 F3360 X138.850 Y99.139
G1 F1320 X141.114 Y101.403 E134.69323
G0 F3360 X141.114 Y102.082
G1 F1320 X138.850 Y99.818 E134.88491
G0 F3360 X138.317 Y97.467
G0 X137.264 Y96.875
G1 F1320 X119.655 Y79.265 E136.37585
G0 F3360 X118.977 Y79.265
G1 F1320 X136.516 Y96.805 E137.86086
G0 F3360 X135.838 Y96.805
G1 F1320 X118.298 Y79.265 E139.34591
G0 F3360 X117.619 Y79.265
G1 F1320 X135.159 Y96.805 E140.83096
G0 F3360 X129.727 Y96.805
G1 F1320 X112.188 Y79.265 E142.31596
G0 F3360 X111.510 Y79.265
G1 F1320 X129.049 Y96.805 E143.80097
G0 F3360 X128.370 Y96.805
G1 F1320 X110.831 Y79.265 E145.28598
G0 F3360 X110.152 Y79.265
G1 F1320 X127.691 Y96.805 E146.77099
G0 F3360 X127.012 Y96.805
G1 F1320 X109.473 Y79.265 E148.25600
G0 F3360 X108.794 Y79.265
G1 F1320 X126.333 Y96.805 E149.74100
G0 F3360 X125.654 Y96.805
G1 F1320 X108.115 Y79.265 E151.22601
G0 F3360 X107.437 Y79.265
G1 F1320 X124.976 Y96.805 E152.71102
G0 F3360 X124.297 Y96.805
G1 F1320 X106.758 Y79.265 E154.19603
G0 F3360 X106.079 Y79.265
G1 F1320 X123.618 Y96.805 E155.68103
G0 F3360 X122.938 Y96.804
G1 F1320 X105.400 Y79.265 E157.16596
G0 F3360 X104.721 Y79.265
G1 F1320 X122.260 Y96.804 E158.65092
G0 F3360 X121.581 Y96.804
G1 F1320 X104.042 Y79.265 E160.13589
G0 F3360 X103.364 Y79.265
G1 F1320 X120.902 Y96.804 E161.62081
G0 F3360 X120.223 Y96.804
G1 F1320 X102.685 Y79.265 E163.10573
G0 F3360 X112.867 Y79.265
G1 F1320 X117.546 Y83.944 E163.50189
G0 F3360 X117.586 Y83.305
G1 F1320 X113.546 Y79.265 E163.84394
G0 F3360 X114.225 Y79.265
G1 F1320 X117.786 Y82.826 E164.14544
G0 F3360 X118.085 Y82.447
G1 F1320 X114.904 Y79.265 E164.41481
G0 F3360 X115.582 Y79.265
G1 F1320 X118.474 Y82.157 E164.65966
G0 F3360 X118.960 Y81.964
G1 F1320 X116.261 Y79.265 E164.88818
G0 F3360 X116.940 Y79.265
G1 F1320 X119.613 Y81.938 E165.11449
G0 F3360 X121.013 Y79.265
G1 F1320 X141.114 Y99.366 E166.81637
G0 F3360 X141.114 Y98.688
G1 F1320 X121.692 Y79.265 E168.46080
G0 F3360 X122.371 Y79.265
G1 F1320 X141.114 Y98.009 E170.04775
G0 F3360 X141.114 Y97.330
G1 F1320 X123.050 Y79.265 E171.57721
G0 F3360 X123.728 Y79.265
G1 F1320 X141.114 Y96.651 E173.04922
G0 F3360 X141.114 Y95.972
G1 F1320 X124.407 Y79.265 E174.46374
G0 F3360 X125.086 Y79.265
G1 F1320 X141.114 Y95.293 E175.82078
G0 F3360 X141.114 Y94.615
G1 F1320 X125.765 Y79.265 E177.12037
G0 F3360 X126.444 Y79.265
G1 F1320 X141.114 Y93.936 E178.36247
G0 F3360 X141.114 Y93.257
G1 F1320 X127.122 Y79.265 E179.54712
G0 F3360 X127.801 Y79.265
G1 F1320 X141.114 Y92.578 E180.67428
G0 F3360 X138.850 Y100.496
G1 F1320 X141.114 Y102.761 E180.86601
G0 F3360 X141.114 Y103.439
G1 F1320 X138.850 Y101.175 E181.05770
G0 F3360 X138.850 Y101.854
G1 F1320 X141.114 Y104.118 E181.24938
G0 F3360 X141.114 Y104.797
G1 F1320 X138.850 Y102.533 E181.44107
G0 F3360 X138.850 Y103.212
G1 F1320 X141.114 Y105.476 E181.63275
G0 F3360 X141.114 Y106.155
G1 F1320 X138.850 Y103.890 E181.82448
G0 F3360 X138.850 Y104.569
G1 F1320 X141.114 Y106.833 E182.01616
G0 F3360 X141.114 Y107.512
G1 F1320 X138.850 Y105.248 E182.20785
G0 F3360 X138.850 Y105.927
G1 F1320 X141.114 Y108.191 E182.39953
G0 F3360 X141.114 Y108.870
G1 F1320 X138.850 Y106.606 E182.59122
G0 F3360 X138.850 Y107.285
G1 F1320 X141.114 Y109.549 E182.78290
G0 F3360 X141.114 Y110.228
G1 F1320 X138.850 Y107.963 E182.97463
G0 F3360 X138.850 Y108.642
G1 F1320 X141.114 Y110.906 E183.16631
G0 F3360 X141.114 Y111.585
G1 F1320 X138.850 Y109.321 E183.35800
G0 F3360 X138.850 Y110.000
G1 F1320 X141.114 Y112.264 E183.54968
G0 F3360 X141.114 Y112.943
G1 F1320 X138.850 Y110.679 E183.74137
G0 F3360 X138.850 Y111.358
G1 F1320 X141.114 Y113.622 E183.93305
G0 F3360 X141.114 Y114.300
G1 F1320 X138.842 Y112.029 E184.12537
G0 F3360 X138.633 Y112.498
G1 F1320 X141.114 Y114.979 E184.33543
G0 F3360 X141.114 Y115.658
G1 F1320 X138.264 Y112.808 E184.57673
G0 F3360 X137.789 Y113.012
G1 F1320 X141.114 Y116.337 E184.85825
G0 F3360 X141.114 Y117.016
G1 F1320 X137.219 Y113.120 E185.18807
G0 F3360 X136.605 Y113.185
G1 F1320 X141.114 Y117.695 E185.56987
G0 F3360 X140.871 Y118.131
G1 F1320 X135.939 Y113.198 E185.98749
G0 F3360 X135.260 Y113.198
G1 F1320 X140.532 Y118.470 E186.43385
G0 F3360 X140.193 Y118.810
G1 F1320 X134.581 Y113.198 E186.90900
G0 F3360 X133.902 Y113.198
