;Generated with Cura_SteamEngine 15.05
M82
M190 S110
M104 S235
G28
G90
G1 F210 Z5
G32 S1
M109 S235
G90
G92 E0
;Layer count: 124
;LAYER:0
M107
G0 F3360 X74.327 Y87.002 Z0.300
;TYPE:SKIRT
G1 F1320 X94.279 Y67.050 E1.68927
G1 X125.719 Y67.050 E3.57152
G1 X147.950 Y89.280 E5.45370
G1 X147.950 Y120.719 E7.33590
G1 X125.719 Y142.950 E9.21812
G1 X94.278 Y142.950 E11.10044
G1 X92.001 Y140.671 E11.29331
G1 X72.050 Y120.719 E12.98253
G1 X72.050 Y89.280 E14.86473
G1 X73.470 Y87.860 E14.98495
G1 X74.327 Y87.002 E15.05756
G0 F3360 X74.667 Y87.341
G1 F1320 X94.478 Y67.530 E16.73488
G1 X125.520 Y67.530 E18.59331
G1 X147.470 Y89.479 E20.45170
G1 X147.470 Y120.520 E22.31007
G1 X125.520 Y142.470 E24.16850
G1 X94.477 Y142.470 E26.02699
G1 X92.339 Y140.330 E26.20809
G1 X72.530 Y120.520 E27.88529
G1 X72.530 Y89.479 E29.74366
G1 X73.808 Y88.201 E29.85187
G1 X74.667 Y87.341 E29.92464
G0 F3360 X75.006 Y87.681
G1 F1320 X94.677 Y68.010 E31.59011
G1 X125.321 Y68.010 E33.42471
G1 X146.990 Y89.678 E35.25931
G1 X146.990 Y120.321 E37.09385
G1 X125.321 Y141.990 E38.92849
G1 X94.676 Y141.990 E40.76315
G1 X92.679 Y139.991 E40.93232
G1 X73.010 Y120.321 E42.59766
G1 X73.010 Y89.678 E44.43221
G1 X74.149 Y88.539 E44.52864
G1 X75.006 Y87.681 E44.60124
G1 F2400 E43.10124
G1 Z0.400
G0 F3360 X76.970 Y91.318
;TYPE:WALL-INNER
G1 Z0.300
G1 F2400 E44.60124
G1 F1320 X96.317 Y71.970 E46.23933
G1 X123.681 Y71.970 E47.87756
G1 X143.030 Y91.318 E49.51573
G1 X143.030 Y118.681 E51.15391
G1 X123.681 Y138.030 E52.79212
G1 X96.317 Y138.030 E54.43035
G1 X76.970 Y118.681 E56.06848
G1 X76.970 Y91.318 E57.70665
G0 F3360 X76.490 Y91.120
;TYPE:WALL-OUTER
G1 F1320 X96.119 Y71.490 E59.36862
G1 X123.879 Y71.490 E61.03056
G1 X143.510 Y91.120 E62.69260
G1 X143.510 Y118.879 E64.35449
G1 X123.879 Y138.510 E66.01657
G1 X96.119 Y138.510 E67.67852
G1 X76.490 Y118.879 E69.34052
G1 X76.490 Y91.120 E71.00240
G0 F3360 X77.304 Y91.220
;TYPE:SKIN
G1 F1320 X123.778 Y137.694 E74.93719
G0 F3360 X124.117 Y137.354
G1 F1320 X77.643 Y90.880 E78.87198
G0 F3360 X77.983 Y90.541
G1 F1320 X124.457 Y137.015 E82.80677
G0 F3360 X124.796 Y136.675
G1 F1320 X78.322 Y90.202 E86.74152
G0 F3360 X78.662 Y89.862
G1 F1320 X125.135 Y136.336 E90.67627
G0 F3360 X125.475 Y135.997
G1 F1320 X79.001 Y89.523 E94.61106
G0 F3360 X79.340 Y89.183
G1 F1320 X125.814 Y135.657 E98.54585
G0 F3360 X126.154 Y135.318
G1 F1320 X79.680 Y88.844 E102.48064
G0 F3360 X77.137 Y91.732
G1 F1320 X123.266 Y137.861 E106.38622
G0 F3360 X122.587 Y137.861
G1 F1320 X77.137 Y92.411 E110.23431
G0 F3360 X77.137 Y93.089
G1 F1320 X121.908 Y137.861 E114.02495
G0 F3360 X121.229 Y137.861
G1 F1320 X77.137 Y93.768 E117.75811
G0 F3360 X77.137 Y94.447
G1 F1320 X120.551 Y137.861 E121.43382
G0 F3360 X126.493 Y134.978
G1 F1320 X80.019 Y88.505 E125.36857
G0 F3360 X80.359 Y88.165
G1 F1320 X126.833 Y134.639 E129.30336
G0 F3360 X127.172 Y134.300
G1 F1320 X80.698 Y87.826 E133.23815
G0 F3360 X81.037 Y87.486
G1 F1320 X127.511 Y133.960 E137.17294
G0 F3360 X127.851 Y133.621
G1 F1320 X81.377 Y87.147 E141.10773
G0 F3360 X81.716 Y86.807
G1 F1320 X128.190 Y133.281 E145.04252
G0 F3360 X128.530 Y132.942
G1 F1320 X82.056 Y86.468 E148.97731
G0 F3360 X82.395 Y86.129
G1 F1320 X128.869 Y132.603 E152.91210
G0 F3360 X129.208 Y132.263
G1 F1320 X82.735 Y85.789 E156.84685
G0 F3360 X83.074 Y85.450
G1 F1320 X129.548 Y131.924 E160.78164
G0 F3360 X129.887 Y131.584
G1 F1320 X83.413 Y85.110 E164.71643
G0 F3360 X83.753 Y84.771
G1 F1320 X130.227 Y131.245 E168.65122
G0 F3360 X130.566 Y130.905
G1 F1320 X84.092 Y84.432 E172.58597
G0 F3360 X84.432 Y84.092
G1 F1320 X130.905 Y130.566 E176.52071
G0 F3360 X131.245 Y130.227
G1 F1320 X84.771 Y83.753 E180.45550
G0 F3360 X85.110 Y83.413
G1 F1320 X131.584 Y129.887 E184.39029
G0 F3360 X131.924 Y129.548
G1 F1320 X85.450 Y83.074 E188.32508
G0 F3360 X85.789 Y82.735
G1 F1320 X132.263 Y129.208 E192.25983
G0 F3360 X132.603 Y128.869
G1 F1320 X86.129 Y82.395 E196.19462
G0 F3360 X86.468 Y82.056
G1 F1320 X132.942 Y128.530 E200.12941
G0 F3360 X133.281 Y128.190
G1 F1320 X86.807 Y81.716 E204.06420
G0 F3360 X87.147 Y81.377
G1 F1320 X133.621 Y127.851 E207.99899
G0 F3360 X133.960 Y127.511
G1 F1320 X87.486 Y81.037 E211.93378
G0 F3360 X87.826 Y80.698
G1 F1320 X134.300 Y127.172 E215.86857
G0 F3360 X134.639 Y126.833
G1 F1320 X88.165 Y80.359 E219.80336
G0 F3360 X88.505 Y80.019
G1 F1320 X134.978 Y126.493 E223.73811
G0 F3360 X135.318 Y126.154
G1 F1320 X88.844 Y79.680 E227.67290
G0 F3360 X89.183 Y79.340
G1 F1320 X135.657 Y125.814 E231.60769
G0 F3360 X135.997 Y125.475
G1 F1320 X89.523 Y79.001 E235.54248
G0 F3360 X89.862 Y78.662
G1 F1320 X136.336 Y125.135 E239.47723
G0 F3360 X136.675 Y124.796
G1 F1320 X90.202 Y78.322 E243.41197
G0 F3360 X90.541 Y77.983
G1 F1320 X137.015 Y124.457 E247.34676
G0 F3360 X137.354 Y124.117
G1 F1320 X90.880 Y77.643 E251.28155
G0 F3360 X91.220 Y77.304
G1 F1320 X137.694 Y123.778 E255.21634
G0 F3360 X138.033 Y123.438
G1 F1320 X91.559 Y76.965 E259.15109
G0 F3360 X91.899 Y76.625
G1 F1320 X138.373 Y123.099 E263.08588
G0 F3360 X138.712 Y122.760
G1 F1320 X92.238 Y76.286 E267.02067
G0 F3360 X92.577 Y75.946
G1 F1320 X139.051 Y122.420 E270.95546
G0 F3360 X139.391 Y122.081
G1 F1320 X92.917 Y75.607 E274.89025
G0 F3360 X93.256 Y75.267
G1 F1320 X139.730 Y121.741 E278.82504
G0 F3360 X140.070 Y121.402
G1 F1320 X93.596 Y74.928 E282.75983
G0 F3360 X93.935 Y74.589
G1 F1320 X140.409 Y121.063 E286.69462
G0 F3360 X140.748 Y120.723
G1 F1320 X94.275 Y74.249 E290.62937
G0 F3360 X94.614 Y73.910
G1 F1320 X141.088 Y120.384 E294.56416
G0 F3360 X141.427 Y120.044
G1 F1320 X94.953 Y73.570 E298.49895
G0 F3360 X95.293 Y73.231
G1 F1320 X141.767 Y119.705 E302.43374
G0 F3360 X142.106 Y119.365
G1 F1320 X95.632 Y72.892 E306.36849
G0 F3360 X95.972 Y72.552
G1 F1320 X142.445 Y119.026 E310.30324
G0 F3360 X142.785 Y118.687
G1 F1320 X96.311 Y72.213 E314.23803
G0 F3360 X96.915 Y72.138
G1 F1320 X142.861 Y118.084 E318.12811
G0 F3360 X142.861 Y117.405
G1 F1320 X97.594 Y72.138 E321.96071
G0 F3360 X98.272 Y72.138
G1 F1320 X142.861 Y116.727 E325.73590
G0 F3360 X142.861 Y116.048
G1 F1320 X98.951 Y72.138 E329.45361
G0 F3360 X99.630 Y72.138
G1 F1320 X142.861 Y115.369 E333.11383
G0 F3360 X142.861 Y114.690
G1 F1320 X100.309 Y72.138 E336.71655
G0 F3360 X100.988 Y72.138
G1 F1320 X142.861 Y114.011 E340.26179
G0 F3360 X142.861 Y113.332
G1 F1320 X101.667 Y72.138 E343.74954
G0 F3360 X102.345 Y72.138
G1 F1320 X142.861 Y112.654 E347.17989
G0 F3360 X142.861 Y111.975
G1 F1320 X103.024 Y72.138 E350.55275
G0 F3360 X103.703 Y72.138
G1 F1320 X142.861 Y111.296 E353.86812
G0 F3360 X142.861 Y110.617
G1 F1320 X104.382 Y72.138 E357.12600
G0 F3360 X105.061 Y72.138
G1 F1320 X142.861 Y109.938 E360.32639
G0 F3360 X142.861 Y109.260
G1 F1320 X105.740 Y72.138 E363.46934
G0 F3360 X106.418 Y72.138
G1 F1320 X142.861 Y108.581 E366.55484
G0 F3360 X142.861 Y107.902
G1 F1320 X107.097 Y72.138 E369.58285
G0 F3360 X107.776 Y72.138
G1 F1320 X142.861 Y107.223 E372.55338
G0 F3360 X142.861 Y106.544
G1 F1320 X108.455 Y72.138 E375.46641
G0 F3360 X109.134 Y72.138
G1 F1320 X142.861 Y105.865 E378.32196
G0 F3360 X142.861 Y105.187
G1 F1320 X109.812 Y72.138 E381.12010
G0 F3360 X110.491 Y72.138
G1 F1320 X142.861 Y104.508 E383.86076
G0 F3360 X142.861 Y103.829
G1 F1320 X111.170 Y72.138 E386.54392
G0 F3360 X111.849 Y72.138
G1 F1320 X142.861 Y103.150 E389.16960
G0 F3360 X142.861 Y102.471
G1 F1320 X112.528 Y72.138 E391.73779
G0 F3360 X113.207 Y72.138
G1 F1320 X142.861 Y101.792 E394.24849
G0 F3360 X142.861 Y101.114
G1 F1320 X113.885 Y72.138 E396.70178
G0 F3360 X114.564 Y72.138
G1 F1320 X142.861 Y100.435 E399.09759
G0 F3360 X142.861 Y99.756
G1 F1320 X115.243 Y72.138 E401.43591
G0 F3360 X115.922 Y72.138
G1 F1320 X142.861 Y99.077 E403.71674
G0 F3360 X142.861 Y98.398
G1 F1320 X116.601 Y72.138 E405.94008
G0 F3360 X117.280 Y72.138
G1 F1320 X142.861 Y97.720 E408.10598
G0 F3360 X142.861 Y97.041
G1 F1320 X117.958 Y72.138 E410.21443
G0 F3360 X118.637 Y72.138
G1 F1320 X142.861 Y96.362 E412.26539
G0 F3360 X142.861 Y95.683
G1 F1320 X119.316 Y72.138 E414.25886
G0 F3360 X119.995 Y72.138
G1 F1320 X142.861 Y95.004 E416.19484
G0 F3360 X142.861 Y94.325
G1 F1320 X120.674 Y72.138 E418.07334
G0 F3360 X121.352 Y72.138
G1 F1320 X142.861 Y93.647 E419.89443
G0 F3360 X142.861 Y92.968
G1 F1320 X122.031 Y72.138 E421.65803
G0 F3360 X122.710 Y72.138
G1 F1320 X142.861 Y92.289 E423.36415
G0 F3360 X142.861 Y91.610
G1 F1320 X123.389 Y72.138 E425.01277
G0 F3360 X77.137 Y95.126
G1 F1320 X119.872 Y137.861 E428.63099
G0 F3360 X119.193 Y137.861
G1 F1320 X77.137 Y95.805 E432.19173
G0 F3360 X77.137 Y96.484
G1 F1320 X118.514 Y137.861 E435.69497
G0 F3360 X117.835 Y137.861
G1 F1320 X77.137 Y97.162 E439.14077
G0 F3360 X77.137 Y97.841
G1 F1320 X117.156 Y137.861 E442.52908
G0 F3360 X116.478 Y137.861
G1 F1320 X77.137 Y98.520 E445.85995
G0 F3360 X77.137 Y99.199
G1 F1320 X115.799 Y137.861 E449.13332
G0 F3360 X115.120 Y137.861
G1 F1320 X77.137 Y99.878 E452.34921
G0 F3360 X77.137 Y100.556
G1 F1320 X114.441 Y137.861 E455.50765
G0 F3360 X113.762 Y137.861
G1 F1320 X77.137 Y101.235 E458.60860
G0 F3360 X77.137 Y101.914
G1 F1320 X113.084 Y137.861 E461.65211
G0 F3360 X112.405 Y137.861
G1 F1320 X77.137 Y102.593 E464.63812
G0 F3360 X77.137 Y103.272
G1 F1320 X111.726 Y137.861 E467.56665
G0 F3360 X111.047 Y137.861
G1 F1320 X77.137 Y103.951 E470.43769
G0 F3360 X77.137 Y104.629
G1 F1320 X110.368 Y137.861 E473.25129
G0 F3360 X109.689 Y137.861
G1 F1320 X77.137 Y105.308 E476.00739
G0 F3360 X77.137 Y105.987
G1 F1320 X109.011 Y137.861 E478.70605
G0 F3360 X108.332 Y137.861
G1 F1320 X77.137 Y106.666 E481.34722
G0 F3360 X77.137 Y107.345
G1 F1320 X107.653 Y137.861 E483.93091
G0 F3360 X106.974 Y137.861
G1 F1320 X77.137 Y108.023 E486.45714
G0 F3360 X77.137 Y108.702
G1 F1320 X106.295 Y137.861 E488.92589
G0 F3360 X105.617 Y137.861
G1 F1320 X77.137 Y109.381 E491.33719
G0 F3360 X77.137 Y110.060
G1 F1320 X104.938 Y137.861 E493.69100
G0 F3360 X104.259 Y137.861
G1 F1320 X77.137 Y110.739 E495.98733
G0 F3360 X77.137 Y111.418
G1 F1320 X103.580 Y137.861 E498.22616
G0 F3360 X102.901 Y137.861
G1 F1320 X77.137 Y112.096 E500.40755
G0 F3360 X77.137 Y112.775
G1 F1320 X102.222 Y137.861 E502.53145
G0 F3360 X101.544 Y137.861
G1 F1320 X77.137 Y113.454 E504.59791
G0 F3360 X77.137 Y114.133
G1 F1320 X100.865 Y137.861 E506.60688
G0 F3360 X100.186 Y137.861
G1 F1320 X77.137 Y114.812 E508.55835
G0 F3360 X77.137 Y115.491
G1 F1320 X99.507 Y137.861 E510.45234
G0 F3360 X98.828 Y137.861
G1 F1320 X77.137 Y116.169 E512.28889
G0 F3360 X77.137 Y116.848
G1 F1320 X98.149 Y137.861 E514.06794
G0 F3360 X97.471 Y137.861
G1 F1320 X77.137 Y117.527 E515.78955
G0 F3360 X77.137 Y118.206
G1 F1320 X96.792 Y137.861 E517.45367
;LAYER:1
M106 S63
G0 F3360 X96.267 Y138.150 Z0.500
;TYPE:WALL-INNER
G1 F1440 X76.850 Y118.731 E518.36703
G1 X76.850 Y91.268 E519.28045
G1 X96.267 Y71.850 E520.19379
G1 X123.731 Y71.850 E521.10725
G1 X143.150 Y91.268 E522.02064
G1 X143.150 Y118.731 E522.93406
G1 X123.731 Y138.150 E523.84747
G1 X96.267 Y138.150 E524.76093
G0 F3360 X96.101 Y138.550
;TYPE:WALL-OUTER
G1 F1320 X76.450 Y118.897 E525.68530
G1 X76.450 Y91.102 E526.60976
G1 X96.101 Y71.450 E527.53411
G1 X123.897 Y71.450 E528.45861
G1 X143.550 Y91.102 E529.38300
G1 X143.550 Y118.897 E530.30747
G1 X123.897 Y138.550 E531.23188
G1 X96.101 Y138.550 E532.15638
G0 F3360 X96.467 Y138.009
;TYPE:SKIN
G1 F1440 X143.008 Y91.467 E534.34555
G0 F3360 X142.797 Y91.113
G1 F1440 X96.113 Y137.797 E536.54142
G0 F3360 X95.830 Y137.514
G1 F1440 X142.514 Y90.830 E538.73730
G0 F3360 X142.231 Y90.547
G1 F1440 X95.547 Y137.231 E540.93317
G0 F3360 X95.264 Y136.948
G1 F1440 X141.948 Y90.265 E543.12902
G0 F3360 X141.666 Y89.982
G1 F1440 X94.982 Y136.666 E545.32489
G0 F3360 X94.699 Y136.383
G1 F1440 X141.383 Y89.699 E547.52076
G0 F3360 X141.100 Y89.416
G1 F1440 X94.416 Y136.100 E549.71663
G0 F3360 X94.133 Y135.817
G1 F1440 X140.817 Y89.133 E551.91250
G0 F3360 X140.534 Y88.850
G1 F1440 X93.850 Y135.534 E554.10838
G0 F3360 X93.567 Y135.251
G1 F1440 X140.251 Y88.567 E556.30425
G0 F3360 X143.008 Y92.033
G1 F1440 X97.032 Y138.009 E558.46682
G0 F3360 X97.598 Y138.009
G1 F1440 X143.008 Y92.599 E560.60277
G0 F3360 X143.008 Y93.164
G1 F1440 X98.164 Y138.009 E562.71211
G0 F3360 X98.729 Y138.009
G1 F1440 X143.008 Y93.730 E564.79486
G0 F3360 X143.008 Y94.296
G1 F1440 X99.295 Y138.009 E566.85099
G0 F3360 X99.861 Y138.009
G1 F1440 X143.008 Y94.861 E568.88051
G0 F3360 X143.008 Y95.427
G1 F1440 X100.426 Y138.009 E570.88344
G0 F3360 X100.992 Y138.009
G1 F1440 X143.008 Y95.993 E572.85975
G0 F3360 X143.008 Y96.558
G1 F1440 X101.558 Y138.009 E574.80945
G0 F3360 X102.123 Y138.009
G1 F1440 X143.008 Y97.124 E576.73255
G0 F3360 X143.008 Y97.690
G1 F1440 X102.689 Y138.009 E578.62904
G0 F3360 X103.255 Y138.009
G1 F1440 X143.008 Y98.256 E580.49890
G0 F3360 X143.008 Y98.821
G1 F1440 X103.820 Y138.009 E582.34218
G0 F3360 X104.386 Y138.009
G1 F1440 X143.008 Y99.387 E584.15884
G0 F3360 X143.008 Y99.953
G1 F1440 X104.952 Y138.009 E585.94888
G0 F3360 X105.518 Y138.009
G1 F1440 X143.008 Y100.518 E587.71232
G0 F3360 X143.008 Y101.084
G1 F1440 X106.083 Y138.009 E589.44915
G0 F3360 X106.649 Y138.009
G1 F1440 X143.008 Y101.650 E591.15937
G0 F3360 X143.008 Y102.215
G1 F1440 X107.215 Y138.009 E592.84299
G0 F3360 X107.780 Y138.009
G1 F1440 X143.008 Y102.781 E594.50000
G0 F3360 X143.008 Y103.347
G1 F1440 X108.346 Y138.009 E596.13040
G0 F3360 X108.912 Y138.009
G1 F1440 X143.008 Y103.912 E597.73419
G0 F3360 X143.008 Y104.478
G1 F1440 X109.477 Y138.009 E599.31139
G0 F3360 X110.043 Y138.009
G1 F1440 X143.008 Y105.044 E600.86196
G0 F3360 X143.008 Y105.609
G1 F1440 X110.609 Y138.009 E602.38593
G0 F3360 X111.174 Y138.009
G1 F1440 X143.008 Y106.175 E603.88331
G0 F3360 X143.008 Y106.741
G1 F1440 X111.740 Y138.009 E605.35406
G0 F3360 X112.306 Y138.009
G1 F1440 X143.008 Y107.306 E606.79821
G0 F3360 X143.008 Y107.872
G1 F1440 X112.871 Y138.009 E608.21576
G0 F3360 X113.437 Y138.009
G1 F1440 X143.008 Y108.438 E609.60669
G0 F3360 X143.008 Y109.004
G1 F1440 X114.003 Y138.009 E610.97100
G0 F3360 X114.568 Y138.009
G1 F1440 X143.008 Y109.569 E612.30873
G0 F3360 X143.008 Y110.135
G1 F1440 X115.134 Y138.009 E613.61984
G0 F3360 X115.700 Y138.009
G1 F1440 X143.008 Y110.701 E614.90432
G0 F3360 X143.008 Y111.266
G1 F1440 X116.266 Y138.009 E616.16221
G0 F3360 X116.831 Y138.009
G1 F1440 X143.008 Y111.832 E617.39349
G0 F3360 X143.008 Y112.398
G1 F1440 X117.397 Y138.009 E618.59815
G0 F3360 X117.963 Y138.009
G1 F1440 X143.008 Y112.963 E619.77622
G0 F3360 X143.008 Y113.529
G1 F1440 X118.528 Y138.009 E620.92768
G0 F3360 X119.094 Y138.009
G1 F1440 X143.008 Y114.095 E622.05252
G0 F3360 X143.008 Y114.660
G1 F1440 X119.660 Y138.009 E623.15076
G0 F3360 X120.225 Y138.009
G1 F1440 X143.008 Y115.226 E624.22241
G0 F3360 X143.008 Y115.792
G1 F1440 X120.791 Y138.009 E625.26743
G0 F3360 X121.357 Y138.009
G1 F1440 X143.008 Y116.357 E626.28585
G0 F3360 X143.008 Y116.923
G1 F1440 X121.922 Y138.009 E627.27767
G0 F3360 X122.488 Y138.009
G1 F1440 X143.008 Y117.489 E628.24287
G0 F3360 X143.008 Y118.055
G1 F1440 X123.054 Y138.009 E629.18144
G0 F3360 X123.619 Y138.009
G1 F1440 X143.008 Y118.620 E630.09344
G0 F3360 X139.968 Y88.285
G1 F1440 X93.285 Y134.969 E632.28929
G0 F3360 X93.002 Y134.686
G1 F1440 X139.686 Y88.002 E634.48516
G0 F3360 X139.403 Y87.719
G1 F1440 X92.719 Y134.403 E636.68103
G0 F3360 X92.436 Y134.120
G1 F1440 X139.120 Y87.436 E638.87691
G0 F3360 X138.837 Y87.153
G1 F1440 X92.153 Y133.837 E641.07278
G0 F3360 X91.870 Y133.554
G1 F1440 X138.554 Y86.870 E643.26865
G0 F3360 X138.271 Y86.588
G1 F1440 X91.588 Y133.271 E645.46447
G0 F3360 X91.305 Y132.989
G1 F1440 X137.989 Y86.305 E647.66035
G0 F3360 X137.706 Y86.022
G1 F1440 X91.022 Y132.706 E649.85622
G0 F3360 X90.739 Y132.423
G1 F1440 X137.423 Y85.739 E652.05209
G0 F3360 X137.140 Y85.456
G1 F1440 X90.456 Y132.140 E654.24796
G0 F3360 X90.173 Y131.857
G1 F1440 X136.857 Y85.173 E656.44384
G0 F3360 X136.574 Y84.890
G1 F1440 X89.890 Y131.574 E658.63971
G0 F3360 X89.608 Y131.292
G1 F1440 X136.292 Y84.608 E660.83558
G0 F3360 X136.009 Y84.325
G1 F1440 X89.325 Y131.009 E663.03145
G0 F3360 X89.042 Y130.726
G1 F1440 X135.726 Y84.042 E665.22732
