;Generated with Cura_SteamEngine 15.05
M82
M190 S110
M104 S235
G28
G90
G1 F210 Z5
G32 S1
M109 S235
G90
G92 E0
;Layer count: 247
;LAYER:0
M107
G0 F3360 X110.803 Y67.050 Z0.300
;TYPE:SKIRT
G1 F1320 X125.719 Y67.050 E0.89299
G1 X147.950 Y89.279 E2.77513
G1 X147.950 Y120.719 E4.65739
G1 X125.719 Y142.950 E6.53961
G1 X110.810 Y142.950 E7.43218
G1 X110.798 Y138.356 E7.70722
G1 X110.803 Y133.051 E8.02482
G1 X121.619 Y133.051 E8.67236
G1 X138.051 Y116.619 E10.06360
G1 X138.051 Y93.380 E11.45487
G1 X121.619 Y76.948 E12.84611
G1 X110.810 Y76.948 E13.49323
G1 X110.798 Y72.354 E13.76826
G1 X110.803 Y67.050 E14.08581
G0 F3360 X111.282 Y67.530
G1 F1320 X125.520 Y67.530 E14.93821
G1 X147.470 Y89.478 E16.79655
G1 X147.470 Y120.520 E18.65498
G1 X125.520 Y142.470 E20.51341
G1 X111.288 Y142.470 E21.36546
G1 X111.278 Y138.356 E21.61176
G1 X111.282 Y133.531 E21.90062
G1 X121.819 Y133.531 E22.53145
G1 X138.531 Y116.819 E23.94640
G1 X138.531 Y93.180 E25.36163
G1 X121.819 Y76.468 E26.77657
G1 X111.288 Y76.468 E27.40704
G1 X111.278 Y72.354 E27.65334
G1 X111.282 Y67.530 E27.94215
G0 F3360 X111.762 Y68.010
G1 F1320 X125.321 Y68.010 E28.75390
G1 X146.990 Y89.677 E30.58845
G1 X146.990 Y120.321 E32.42306
G1 X125.321 Y141.990 E34.25769
G1 X111.767 Y141.990 E35.06915
G1 X111.758 Y138.356 E35.28671
G1 X111.762 Y134.011 E35.54684
G1 X122.017 Y134.011 E36.16079
G1 X139.011 Y117.017 E37.59961
G1 X139.011 Y92.982 E39.03854
G1 X122.017 Y75.988 E40.47736
G1 X111.767 Y75.988 E41.09101
G1 X111.758 Y72.354 E41.30858
G1 X111.762 Y68.010 E41.56864
G0 F3360 X109.189 Y67.050
G1 F1320 X109.201 Y71.644 E41.84368
G1 X109.196 Y76.948 E42.16122
G1 X98.380 Y76.948 E42.80876
G1 X81.948 Y93.380 E44.20000
G1 X81.948 Y116.619 E45.59127
G1 X98.380 Y133.051 E46.98251
G1 X109.189 Y133.051 E47.62963
G1 X109.201 Y137.645 E47.90466
G1 X109.196 Y142.950 E48.22227
G1 X94.280 Y142.950 E49.11526
G1 X72.050 Y120.719 E50.99744
G1 X72.050 Y89.279 E52.87970
G1 X94.280 Y67.050 E54.76179
G1 X109.189 Y67.050 E55.65437
G0 F3360 X108.711 Y67.530
G1 F1320 X108.721 Y71.644 E55.90066
G1 X108.717 Y76.468 E56.18947
G1 X98.180 Y76.468 E56.82030
G1 X81.468 Y93.180 E58.23525
G1 X81.468 Y116.819 E59.65047
G1 X98.180 Y133.531 E61.06542
G1 X108.711 Y133.531 E61.69589
G1 X108.721 Y137.645 E61.94219
G1 X108.717 Y142.470 E62.23105
G1 X94.479 Y142.470 E63.08346
G1 X72.530 Y120.520 E64.94184
G1 X72.530 Y89.478 E66.80027
G1 X94.479 Y67.530 E68.65858
G1 X108.711 Y67.530 E69.51062
G0 F3360 X108.232 Y68.010
G1 F1320 X108.241 Y71.644 E69.72818
G1 X108.237 Y75.988 E69.98825
G1 X97.982 Y75.988 E70.60220
G1 X80.988 Y92.982 E72.04102
G1 X80.988 Y117.017 E73.47996
G1 X97.982 Y134.011 E74.91878
G1 X108.232 Y134.011 E75.53243
G1 X108.241 Y137.645 E75.74999
G1 X108.237 Y141.990 E76.01012
G1 X94.678 Y141.990 E76.82187
G1 X73.010 Y120.321 E78.65647
G1 X73.010 Y89.677 E80.49107
G1 X94.678 Y68.010 E82.32558
G1 X108.232 Y68.010 E83.13703
G1 F2400 E81.63703
G1 Z0.400
G0 F3360 X104.281 Y71.970
;TYPE:WALL-INNER
G1 Z0.300
G1 F2400 E83.13703
G1 F1320 X104.281 Y72.028 E83.14051
G1 X96.342 Y72.028 E83.61580
G1 X77.028 Y91.342 E85.25105
G1 X77.028 Y118.657 E86.88635
G1 X96.342 Y137.971 E88.52160
G1 X104.281 Y137.971 E88.99689
G1 X104.281 Y138.030 E89.00042
G1 X96.318 Y138.030 E89.47715
G1 X76.970 Y118.681 E91.11532
G1 X76.970 Y91.317 E92.75356
G1 X96.318 Y71.970 E94.39164
G1 X104.281 Y71.970 E94.86837
G0 F3360 X104.760 Y71.490
;TYPE:WALL-OUTER
G1 F1320 X104.760 Y72.508 E94.92932
G1 X96.541 Y72.508 E95.42138
G1 X77.508 Y91.541 E97.03283
G1 X77.508 Y118.458 E98.64431
G1 X96.541 Y137.491 E100.25576
G1 X104.760 Y137.491 E100.74782
G1 X104.760 Y138.510 E100.80883
G1 X96.120 Y138.510 E101.32609
G1 X76.490 Y118.879 E102.98813
G1 X76.490 Y91.119 E104.65008
G1 X96.120 Y71.490 E106.31204
G1 X104.760 Y71.490 E106.82930
G1 F2400 E105.32930
G1 Z0.400
G0 F3360 X115.718 Y71.970
;TYPE:WALL-INNER
G1 Z0.300
G1 F2400 E106.82930
G1 F1320 X123.681 Y71.970 E107.30603
G1 X143.030 Y91.317 E108.94416
G1 X143.030 Y118.681 E110.58239
G1 X123.681 Y138.030 E112.22060
G1 X115.718 Y138.030 E112.69733
G1 X115.718 Y137.971 E112.70087
G1 X123.657 Y137.971 E113.17616
G1 X142.971 Y118.657 E114.81141
G1 X142.971 Y91.342 E116.44671
G1 X123.657 Y72.028 E118.08196
G1 X115.718 Y72.028 E118.55725
G1 X115.718 Y71.970 E118.56072
G0 F3360 X115.239 Y71.490
;TYPE:WALL-OUTER
G1 F1320 X123.879 Y71.490 E119.07799
G1 X143.510 Y91.119 E120.73999
G1 X143.510 Y118.879 E122.40193
G1 X123.879 Y138.510 E124.06402
G1 X115.239 Y138.510 E124.58128
G1 X115.239 Y137.491 E124.64229
G1 X123.458 Y137.491 E125.13434
G1 X142.491 Y118.458 E126.74580
G1 X142.491 Y91.541 E128.35727
G1 X123.458 Y72.508 E129.96873
G1 X115.239 Y72.508 E130.46079
G1 X115.239 Y71.490 E130.52173
;LAYER:1
M106 S63
G1 F2400 E129.02173
G1 Z0.400
G0 F3360 X103.137 Y71.850 Z0.500
;TYPE:WALL-INNER
G1 Z0.500
G1 F2400 E130.52173
G1 F1440 X103.137 Y72.148 E130.53165
G1 X96.391 Y72.148 E130.75602
G1 X77.148 Y91.391 E131.66115
G1 X77.148 Y118.608 E132.56639
G1 X96.391 Y137.851 E133.47152
G1 X103.137 Y137.851 E133.69590
G1 X103.137 Y138.150 E133.70584
G1 X96.268 Y138.150 E133.93431
G1 X76.850 Y118.731 E134.84769
G1 X76.850 Y91.267 E135.76115
G1 X96.268 Y71.850 E136.67449
G1 X103.137 Y71.850 E136.90295
G0 F3360 X103.536 Y71.450
;TYPE:WALL-OUTER
G1 F1320 X103.536 Y72.548 E136.93947
G1 X96.557 Y72.548 E137.17159
G1 X77.548 Y91.557 E138.06572
G1 X77.548 Y118.442 E138.95992
G1 X96.557 Y137.451 E139.85404
G1 X103.536 Y137.451 E140.08617
G1 X103.536 Y138.550 E140.12272
G1 X96.102 Y138.550 E140.36997
G1 X76.450 Y118.897 E141.29437
G1 X76.450 Y91.101 E142.21887
G1 X96.102 Y71.450 E143.14321
G1 X103.536 Y71.450 E143.39047
G1 F2400 E141.89047
G1 Z0.600
G0 F3360 X116.862 Y71.850
;TYPE:WALL-INNER
G1 Z0.500
G1 F2400 E143.39047
G1 F1440 X123.731 Y71.850 E143.61893
G1 X143.150 Y91.267 E144.53230
G1 X143.150 Y118.731 E145.44575
G1 X123.731 Y138.150 E146.35916
G1 X116.862 Y138.150 E146.58763
G1 X116.862 Y137.851 E146.59757
G1 X123.608 Y137.851 E146.82194
G1 X142.851 Y118.608 E147.72708
G1 X142.851 Y91.391 E148.63232
G1 X123.608 Y72.148 E149.53745
G1 X116.862 Y72.148 E149.76182
G1 X116.862 Y71.850 E149.77173
G0 F3360 X116.463 Y71.450
;TYPE:WALL-OUTER
G1 F1320 X123.897 Y71.450 E150.01899
G1 X143.550 Y91.101 E150.94336
G1 X143.550 Y118.897 E151.86786
G1 X123.897 Y138.550 E152.79227
G1 X116.463 Y138.550 E153.03953
G1 X116.463 Y137.451 E153.07608
G1 X123.442 Y137.451 E153.30820
G1 X142.451 Y118.442 E154.20233
G1 X142.451 Y91.557 E155.09653
G1 X123.442 Y72.548 E155.99065
G1 X116.463 Y72.548 E156.22278
G1 X116.463 Y71.450 E156.25930
;LAYER:2
M106 S127
G1 F2400 E154.75930
G1 Z0.600
G0 F3360 X101.874 Y71.850 Z0.700
;TYPE:WALL-INNER
G1 Z0.700
G1 F2400 E156.25930
G1 F1620 X101.874 Y72.148 E156.26921
G1 X96.391 Y72.148 E156.45157
G1 X77.148 Y91.391 E157.35670
G1 X77.148 Y118.608 E158.26195
G1 X96.391 Y137.851 E159.16708
G1 X101.874 Y137.851 E159.34944
G1 X101.874 Y138.150 E159.35939
G1 X96.268 Y138.150 E159.54584
G1 X76.850 Y118.731 E160.45923
G1 X76.850 Y91.267 E161.37269
G1 X96.268 Y71.850 E162.28603
G1 X101.874 Y71.850 E162.47248
G0 F3360 X102.273 Y71.450
;TYPE:WALL-OUTER
G1 F1380 X102.273 Y72.548 E162.50900
G1 X96.557 Y72.548 E162.69912
G1 X77.548 Y91.557 E163.59324
G1 X77.548 Y118.442 E164.48744
G1 X96.557 Y137.451 E165.38157
G1 X102.273 Y137.451 E165.57168
G1 X102.273 Y138.550 E165.60823
G1 X96.102 Y138.550 E165.81348
G1 X76.450 Y118.897 E166.73788
G1 X76.450 Y91.101 E167.66237
G1 X96.102 Y71.450 E168.58672
G1 X102.273 Y71.450 E168.79197
G1 F2400 E167.29197
G1 Z0.800
G0 F3360 X118.125 Y71.850
;TYPE:WALL-INNER
G1 Z0.700
G1 F2400 E168.79197
G1 F1620 X123.731 Y71.850 E168.97843
G1 X143.150 Y91.267 E169.89179
G1 X143.150 Y118.731 E170.80524
G1 X123.731 Y138.150 E171.71866
G1 X118.125 Y138.150 E171.90511
G1 X118.125 Y137.851 E171.91506
G1 X123.608 Y137.851 E172.09742
G1 X142.851 Y118.608 E173.00255
G1 X142.851 Y91.391 E173.90779
G1 X123.608 Y72.148 E174.81293
G1 X118.125 Y72.148 E174.99529
G1 X118.125 Y71.850 E175.00520
G0 F3360 X117.726 Y71.450
;TYPE:WALL-OUTER
G1 F1380 X123.897 Y71.450 E175.21045
G1 X143.550 Y91.101 E176.13482
G1 X143.550 Y118.897 E177.05932
G1 X123.897 Y138.550 E177.98374
G1 X117.726 Y138.550 E178.18898
G1 X117.726 Y137.451 E178.22554
G1 X123.442 Y137.451 E178.41565
G1 X142.451 Y118.442 E179.30978
G1 X142.451 Y91.557 E180.20398
G1 X123.442 Y72.548 E181.09810
G1 X117.726 Y72.548 E181.28822
G1 X117.726 Y71.450 E181.32474
;LAYER:3
G1 F2400 E179.82474
G1 Z0.800
G0 F3360 X100.810 Y71.850 Z0.900
;TYPE:WALL-INNER
G1 Z0.900
G1 F2400 E181.32474
G1 F1740 X100.809 Y72.148 E181.33465
G1 X96.391 Y72.148 E181.48159
G1 X77.148 Y91.391 E182.38672
G1 X77.148 Y118.608 E183.29196
G1 X96.391 Y137.851 E184.19710
G1 X100.809 Y137.851 E184.34404
G1 X100.809 Y138.150 E184.35398
G1 X96.268 Y138.150 E184.50502
G1 X76.850 Y118.731 E185.41840
G1 X76.850 Y91.267 E186.33186
G1 X96.268 Y71.850 E187.24520
G1 X100.810 Y71.850 E187.39627
G0 F3360 X101.210 Y71.450
;TYPE:WALL-OUTER
G1 F1380 X101.209 Y72.548 E187.43279
G1 X96.557 Y72.548 E187.58751
G1 X77.548 Y91.557 E188.48164
G1 X77.548 Y118.442 E189.37584
G1 X96.557 Y137.451 E190.26996
G1 X101.209 Y137.451 E190.42469
G1 X101.209 Y138.550 E190.46124
G1 X96.102 Y138.550 E190.63110
G1 X76.450 Y118.897 E191.55549
G1 X76.450 Y91.101 E192.47999
G1 X96.102 Y71.450 E193.40434
G1 X101.210 Y71.450 E193.57423
G1 F2400 E192.07423
G1 Z1.000
G0 F3360 X119.190 Y71.850
;TYPE:WALL-INNER
G1 Z0.900
G1 F2400 E193.57423
G1 F1740 X123.731 Y71.850 E193.72527
G1 X143.150 Y91.267 E194.63863
G1 X143.150 Y118.731 E195.55209
G1 X123.731 Y138.150 E196.46550
G1 X119.189 Y138.150 E196.61656
G1 X119.190 Y137.851 E196.62651
G1 X123.608 Y137.851 E196.77345
G1 X142.851 Y118.608 E197.67858
G1 X142.851 Y91.391 E198.58382
G1 X123.608 Y72.148 E199.48896
G1 X119.190 Y72.148 E199.63590
G1 X119.190 Y71.850 E199.64581
G0 F3360 X118.790 Y71.450
;TYPE:WALL-OUTER
G1 F1380 X123.897 Y71.450 E199.81567
G1 X143.550 Y91.101 E200.74004
G1 X143.550 Y118.897 E201.66454
G1 X123.897 Y138.550 E202.58896
G1 X118.789 Y138.550 E202.75885
G1 X118.790 Y137.451 E202.79540
G1 X123.442 Y137.451 E202.95013
G1 X142.451 Y118.442 E203.84425
G1 X142.451 Y91.557 E204.73845
G1 X123.442 Y72.548 E205.63258
G1 X118.790 Y72.548 E205.78730
G1 X118.790 Y71.450 E205.82382
;LAYER:4
G1 F2400 E204.32382
G1 Z1.000
G0 F3360 X100.418 Y71.850 Z1.100
;TYPE:WALL-INNER
G1 Z1.100
G1 F2400 E205.82382
G1 F1980 X100.417 Y72.148 E205.83373
G1 X96.391 Y72.148 E205.96764
G1 X77.148 Y91.391 E206.87277
G1 X77.148 Y118.608 E207.77801
G1 X96.391 Y137.851 E208.68314
G1 X100.417 Y137.851 E208.81705
G1 X100.417 Y138.150 E208.82699
G1 X96.268 Y138.150 E208.96499
G1 X76.850 Y118.731 E209.87838
G1 X76.850 Y91.267 E210.79183
G1 X96.268 Y71.850 E211.70517
G1 X100.418 Y71.850 E211.84320
G0 F3360 X100.818 Y71.450
;TYPE:WALL-OUTER
G1 F1440 X100.817 Y72.548 E211.87972
G1 X96.557 Y72.548 E212.02141
G1 X77.548 Y91.557 E212.91554
G1 X77.548 Y118.442 E213.80973
G1 X96.557 Y137.451 E214.70386
G1 X100.817 Y137.451 E214.84555
G1 X100.817 Y138.550 E214.88210
G1 X96.102 Y138.550 E215.03892
G1 X76.450 Y118.897 E215.96332
G1 X76.450 Y91.101 E216.88781
G1 X96.102 Y71.450 E217.81216
G1 X100.818 Y71.450 E217.96902
G1 F2400 E216.46902
G1 Z1.200
G0 F3360 X119.582 Y71.850
;TYPE:WALL-INNER
G1 Z1.100
G1 F2400 E217.96902
G1 F1980 X123.731 Y71.850 E218.10701
G1 X143.150 Y91.267 E219.02037
G1 X143.150 Y118.731 E219.93383
G1 X123.731 Y138.150 E220.84724
G1 X119.581 Y138.150 E220.98527
G1 X119.582 Y137.851 E220.99522
G1 X123.608 Y137.851 E221.12912
G1 X142.851 Y118.608 E222.03425
G1 X142.851 Y91.391 E222.93949
G1 X123.608 Y72.148 E223.84463
G1 X119.582 Y72.148 E223.97853
G1 X119.582 Y71.850 E223.98844
G0 F3360 X119.182 Y71.450
;TYPE:WALL-OUTER
G1 F1440 X123.897 Y71.450 E224.14526
G1 X143.550 Y91.101 E225.06963
G1 X143.550 Y118.897 E225.99413
G1 X123.897 Y138.550 E226.91855
G1 X119.181 Y138.550 E227.07540
G1 X119.182 Y137.451 E227.11196
G1 X123.442 Y137.451 E227.25365
G1 X142.451 Y118.442 E228.14777
G1 X142.451 Y91.557 E229.04197
G1 X123.442 Y72.548 E229.93609
G1 X119.182 Y72.548 E230.07778
G1 X119.182 Y71.450 E230.11430
;LAYER:5
G1 F2400 E228.61430
G1 Z1.200
G0 F3360 X100.025 Y71.850 Z1.300
;TYPE:WALL-INNER
G1 Z1.300
G1 F2400 E230.11430
G1 F1980 X100.024 Y72.148 E230.12421
G1 X96.391 Y72.148 E230.24505
G1 X77.148 Y91.391 E231.15018
G1 X77.148 Y118.608 E232.05542
G1 X96.391 Y137.851 E232.96055
G1 X100.024 Y137.851 E233.08139
G1 X100.024 Y138.150 E233.09133
G1 X96.268 Y138.150 E233.21626
G1 X76.850 Y118.731 E234.12964
G1 X76.850 Y91.267 E235.04310
G1 X96.268 Y71.850 E235.95644
G1 X100.025 Y71.850 E236.08140
G0 F3360 X100.424 Y71.450
;TYPE:WALL-OUTER
G1 F1440 X100.424 Y72.548 E236.11792
G1 X96.557 Y72.548 E236.24653
G1 X77.548 Y91.557 E237.14066
G1 X77.548 Y118.442 E238.03486
G1 X96.557 Y137.451 E238.92898
G1 X100.424 Y137.451 E239.05760
G1 X100.425 Y138.550 E239.09415
G1 X96.102 Y138.550 E239.23794
G1 X76.450 Y118.897 E240.16233
G1 X76.450 Y91.101 E241.08683
G1 X96.102 Y71.450 E242.01117
G1 X100.424 Y71.450 E242.15492
G1 F2400 E240.65492
G1 Z1.400
G0 F3360 X119.975 Y71.850
;TYPE:WALL-INNER
G1 Z1.300
G1 F2400 E242.15492
G1 F1980 X123.730 Y71.850 E242.27982
G1 X143.150 Y91.268 E243.19323
G1 X143.150 Y118.731 E244.10665
G1 X123.731 Y138.150 E245.02006
G1 X119.974 Y138.150 E245.14502
G1 X119.975 Y137.851 E245.15496
G1 X123.608 Y137.851 E245.27580
G1 X142.851 Y118.608 E246.18093
G1 X142.851 Y91.391 E247.08617
G1 X123.608 Y72.148 E247.99130
G1 X119.975 Y72.148 E248.11214
G1 X119.975 Y71.850 E248.12205
G0 F3360 X119.574 Y71.450
;TYPE:WALL-OUTER
G1 F1440 X123.896 Y71.450 E248.26580
G1 X143.550 Y91.102 E249.19021
G1 X143.550 Y118.897 E250.11468
G1 X123.897 Y138.550 E251.03910
G1 X119.575 Y138.550 E251.18285
G1 X119.575 Y137.451 E251.21940
G1 X123.442 Y137.451 E251.34802
G1 X142.451 Y118.442 E252.24214
G1 X142.451 Y91.557 E253.13634
G1 X123.442 Y72.548 E254.03047
G1 X119.575 Y72.548 E254.15908
G1 X119.574 Y71.450 E254.19560
;LAYER:6
G1 F2400 E252.69560
G1 Z1.400
G0 F3360 X99.633 Y71.850 Z1.500
;TYPE:WALL-INNER
G1 Z1.500
G1 F2400 E254.19560
G1 F1980 X99.633 Y72.148 E254.20551
G1 X96.391 Y72.148 E254.31334
G1 X77.148 Y91.391 E255.21848
G1 X77.148 Y93.067 E255.27422
G1 X76.850 Y93.067 E255.28413
G1 X76.850 Y91.267 E255.34400
G1 X96.268 Y71.850 E256.25734
G1 X99.633 Y71.850 E256.36926
G1 F2400 E254.86926
G1 Z1.600
G0 F3360 X77.148 Y95.783
G1 Z1.500
G1 F2400 E256.36926
G1 F1980 X77.148 Y114.188 E256.98141
G1 X76.850 Y114.188 E256.99132
G1 X76.850 Y95.783 E257.60348
G1 X77.148 Y95.783 E257.61339
G1 F2400 E256.11339
G1 Z1.600
G0 F3360 X77.148 Y116.904
G1 Z1.500
G1 F2400 E257.61339
G1 F1980 X77.148 Y118.608 E257.67006
G1 X96.391 Y137.851 E258.57519
G1 X99.632 Y137.851 E258.68299
G1 X99.632 Y138.150 E258.69294
G1 X96.268 Y138.150 E258.80482
G1 X76.850 Y118.731 E259.71821
G1 X76.850 Y116.904 E259.77898
G1 X77.148 Y116.904 E259.78889
G0 F3360 X77.186 Y116.504
;TYPE:WALL-OUTER
G1 F1440 X77.186 Y114.588 E259.85261
G1 X76.450 Y114.587 E259.87709
G1 X76.450 Y95.384 E260.51579
G1 X77.186 Y95.383 E260.54027
G1 X77.186 Y93.467 E260.60399
G1 X76.450 Y93.466 E260.62847
G1 X76.450 Y91.101 E260.70713
G1 X96.102 Y71.450 E261.63148
G1 X100.032 Y71.450 E261.76219
G1 X100.032 Y72.548 E261.79871
G1 X96.557 Y72.548 E261.91429
G1 X77.548 Y91.557 E262.80842
G1 X77.548 Y118.442 E263.70261
G1 X96.557 Y137.451 E264.59674
G1 X100.032 Y137.451 E264.71232
G1 X100.033 Y138.550 E264.74887
G1 X96.102 Y138.550 E264.87962
G1 X76.450 Y118.897 E265.80401
G1 X76.450 Y116.503 E265.88363
G1 X77.186 Y116.504 E265.90811
G1 F2400 E264.40811
G1 Z1.600
G0 F3360 X120.366 Y137.851
;TYPE:WALL-INNER
G1 Z1.500
G1 F2400 E265.90811
G1 F1980 X123.608 Y137.851 E266.01594
G1 X142.851 Y118.608 E266.92108
G1 X142.851 Y116.969 E266.97559
G1 X143.150 Y116.969 E266.98553
G1 X143.150 Y118.731 E267.04414
G1 X123.731 Y138.150 E267.95755
G1 X120.366 Y138.150 E268.06947
G1 X120.366 Y137.851 E268.07941
G1 F2400 E266.57941
G1 Z1.600
G0 F3360 X142.851 Y114.255
G1 Z1.500
G1 F2400 E268.07941
G1 F1980 X142.851 Y95.848 E268.69163
G1 X143.150 Y95.848 E268.70158
G1 X143.150 Y114.255 E269.31380
