;Generated with Cura_SteamEngine 15.05
M82
M190 S110
M104 S235
G28
G90
G1 F210 Z5
G32 S1
M109 S235
G90
G92 E0
;Layer count: 30
;LAYER:0
M107
G0 F3360 X90.940 Y87.019 Z0.300
;TYPE:SKIRT
G1 F1320 X91.393 Y86.567 E0.03831
G1 X92.018 Y85.942 E0.09123
G1 X92.493 Y85.520 E0.12927
G1 X93.157 Y84.929 E0.18249
G1 X93.652 Y84.537 E0.22029
G1 X94.355 Y83.981 E0.27395
G1 X95.601 Y83.109 E0.36500
G1 X96.138 Y82.777 E0.40279
G1 X96.900 Y82.307 E0.45639
G1 X97.461 Y82.005 E0.49454
G1 X98.240 Y81.584 E0.54755
G1 X98.817 Y81.315 E0.58566
G1 X99.623 Y80.939 E0.63891
G1 X100.209 Y80.707 E0.67664
G1 X101.038 Y80.377 E0.73006
G1 X101.886 Y80.097 E0.78352
G1 X101.886 Y80.098 E0.78358
G1 X102.483 Y79.898 E0.82128
G1 X103.101 Y79.733 E0.85957
G1 X103.959 Y79.504 E0.91274
G1 X105.453 Y79.194 E1.00408
G1 X106.078 Y79.104 E1.04189
G1 X106.960 Y78.975 E1.09525
G1 X107.584 Y78.922 E1.13275
G1 X107.584 Y78.921 E1.13281
G1 X108.478 Y78.842 E1.18654
G1 X109.106 Y78.825 E1.22415
G1 X109.995 Y78.798 E1.27739
G1 X110.631 Y78.816 E1.31549
G1 X111.524 Y78.842 E1.36897
G1 X112.411 Y78.920 E1.42228
G1 X113.038 Y78.975 E1.45996
G1 X113.662 Y79.066 E1.49771
G1 X114.551 Y79.195 E1.55149
G1 X115.173 Y79.325 E1.58954
G1 X115.173 Y79.324 E1.58960
G1 X116.043 Y79.505 E1.64280
G1 X117.511 Y79.897 E1.73376
G1 X118.360 Y80.177 E1.78728
G1 X118.962 Y80.378 E1.82528
G1 X119.550 Y80.610 E1.86312
G1 X120.378 Y80.940 E1.91649
G1 X120.951 Y81.207 E1.95433
G1 X121.758 Y81.583 E2.00763
G1 X122.316 Y81.884 E2.04559
G1 X123.104 Y82.309 E2.09919
G1 X123.862 Y82.777 E2.15252
G1 X124.397 Y83.109 E2.19022
G1 X124.912 Y83.468 E2.22780
G1 X125.648 Y83.982 E2.28155
G1 X126.349 Y84.538 E2.33511
G1 X126.843 Y84.930 E2.37287
G1 X127.977 Y85.940 E2.46378
G1 X128.426 Y86.387 E2.50171
G1 X129.058 Y87.020 E2.55526
G1 X129.648 Y87.683 E2.60840
G1 X130.067 Y88.154 E2.64614
G1 X130.460 Y88.648 E2.68393
G1 X131.018 Y89.353 E2.73776
G1 X131.381 Y89.872 E2.77568
G1 X131.892 Y90.603 E2.82907
G1 X132.225 Y91.143 E2.86705
G1 X132.692 Y91.900 E2.92031
G1 X132.989 Y92.452 E2.95783
G1 X133.414 Y93.238 E3.01133
G1 X133.684 Y93.818 E3.04963
G1 X134.059 Y94.623 E3.10280
G1 X134.623 Y96.041 E3.19416
G1 X134.819 Y96.638 E3.23178
G1 X135.100 Y97.485 E3.28520
G1 X135.264 Y98.096 E3.32308
G1 X135.495 Y98.957 E3.37645
G1 X135.674 Y99.826 E3.42956
G1 X135.803 Y100.449 E3.46765
G1 X136.024 Y101.960 E3.55908
G1 X136.077 Y102.584 E3.59657
G1 X136.078 Y102.584 E3.59663
G1 X136.157 Y103.475 E3.65018
G1 X136.182 Y104.357 E3.70300
G1 X136.202 Y104.995 E3.74122
G1 X136.176 Y105.892 E3.79494
G1 X136.156 Y106.524 E3.83280
G1 X136.102 Y107.154 E3.87065
G1 X136.023 Y108.044 E3.92415
G1 X135.803 Y109.546 E4.01503
G1 X135.675 Y110.169 E4.05311
G1 X135.494 Y111.042 E4.10648
G1 X135.265 Y111.901 E4.15970
G1 X135.101 Y112.512 E4.19758
G1 X134.903 Y113.113 E4.23546
G1 X134.621 Y113.962 E4.28902
G1 X134.387 Y114.551 E4.32696
G1 X134.058 Y115.378 E4.38025
G1 X133.416 Y116.756 E4.47126
G1 X133.115 Y117.316 E4.50932
G1 X132.691 Y118.102 E4.56279
G1 X131.891 Y119.399 E4.65402
G1 X131.381 Y120.127 E4.70724
G1 X131.015 Y120.649 E4.74540
G1 X130.460 Y121.349 E4.79889
G1 X130.070 Y121.841 E4.83647
G1 X129.649 Y122.314 E4.87438
G1 X129.056 Y122.982 E4.92786
G1 X128.605 Y123.432 E4.96600
G1 X127.980 Y124.057 E5.01892
G1 X126.844 Y125.068 E5.10996
G1 X126.149 Y125.619 E5.16306
G1 X125.646 Y126.019 E5.20154
G1 X124.917 Y126.527 E5.25473
G1 X124.399 Y126.889 E5.29256
G1 X123.101 Y127.692 E5.38394
G1 X122.539 Y127.994 E5.42214
G1 X121.760 Y128.415 E5.47515
G1 X120.951 Y128.792 E5.52858
G1 X120.375 Y129.060 E5.56662
G1 X119.784 Y129.294 E5.60467
G1 X118.964 Y129.621 E5.65752
G1 X117.513 Y130.102 E5.74904
G1 X116.044 Y130.494 E5.84007
G1 X115.426 Y130.623 E5.87786
G1 X114.547 Y130.805 E5.93160
G1 X113.914 Y130.896 E5.96989
G1 X113.037 Y131.024 E6.02295
G1 X112.415 Y131.077 E6.06032
G1 X112.415 Y131.078 E6.06038
G1 X111.524 Y131.157 E6.11393
G1 X110.643 Y131.182 E6.16670
G1 X110.005 Y131.202 E6.20491
G1 X109.107 Y131.176 E6.25870
G1 X108.475 Y131.156 E6.29655
G1 X107.845 Y131.102 E6.33441
G1 X106.959 Y131.023 E6.38766
G1 X106.335 Y130.933 E6.42541
G1 X105.449 Y130.804 E6.47901
G1 X103.957 Y130.494 E6.57024
G1 X103.349 Y130.332 E6.60791
G1 X102.488 Y130.102 E6.66126
G1 X101.882 Y129.902 E6.69947
G1 X101.039 Y129.622 E6.75265
G1 X100.451 Y129.389 E6.79052
G1 X99.622 Y129.059 E6.84393
G1 X99.047 Y128.792 E6.88189
G1 X98.241 Y128.415 E6.93516
G1 X97.684 Y128.115 E6.97304
G1 X96.898 Y127.691 E7.02650
G1 X96.138 Y127.222 E7.07997
G1 X95.600 Y126.889 E7.11785
G1 X94.876 Y126.383 E7.17073
G1 X94.352 Y126.016 E7.20903
G1 X93.852 Y125.620 E7.24721
G1 X93.158 Y125.070 E7.30023
G1 X92.685 Y124.649 E7.33814
G1 X92.021 Y124.060 E7.39128
G1 X91.391 Y123.430 E7.44462
G1 X90.941 Y122.981 E7.48267
G1 X90.517 Y122.505 E7.52084
G1 X89.929 Y121.841 E7.57394
G1 X89.378 Y121.147 E7.62699
G1 X88.982 Y120.647 E7.66517
G1 X88.472 Y119.918 E7.71844
G1 X88.106 Y119.396 E7.75660
G1 X87.639 Y118.638 E7.80991
G1 X87.640 Y118.637 E7.80999
G1 X87.307 Y118.099 E7.84787
G1 X87.006 Y117.539 E7.88593
G1 X86.585 Y116.760 E7.93895
G1 X86.316 Y116.183 E7.97706
G1 X85.941 Y115.378 E8.03023
G1 X85.613 Y114.550 E8.08354
G1 X85.612 Y114.550 E8.08360
G1 X85.378 Y113.961 E8.12155
G1 X85.179 Y113.359 E8.15951
G1 X84.899 Y112.516 E8.21269
G1 X84.503 Y111.041 E8.30412
G1 X84.375 Y110.418 E8.34220
G1 X84.195 Y109.550 E8.39527
G1 X83.975 Y108.042 E8.48650
G1 X83.897 Y107.155 E8.53981
G1 X83.841 Y106.520 E8.57798
G1 X83.824 Y105.882 E8.61619
G1 X83.798 Y105.003 E8.66883
G1 X83.816 Y104.371 E8.70668
G1 X83.841 Y103.477 E8.76023
G1 X83.919 Y102.589 E8.81360
G1 X83.975 Y101.956 E8.85164
G1 X84.195 Y100.452 E8.94264
G1 X84.375 Y99.578 E8.99606
G1 X84.504 Y98.957 E9.03403
G1 X84.668 Y98.343 E9.07208
G1 X84.899 Y97.483 E9.12539
G1 X85.179 Y96.638 E9.17869
G1 X85.379 Y96.037 E9.21661
G1 X85.611 Y95.451 E9.25434
G1 X85.941 Y94.622 E9.30776
G1 X86.208 Y94.048 E9.34566
G1 X86.585 Y93.239 E9.39909
G1 X87.008 Y92.455 E9.45243
G1 X87.308 Y91.899 E9.49025
G1 X88.106 Y90.605 E9.58127
G1 X88.616 Y89.874 E9.63463
G1 X88.985 Y89.348 E9.67309
G1 X89.382 Y88.847 E9.71136
G1 X89.930 Y88.156 E9.76416
G1 X90.345 Y87.690 E9.80152
G1 X90.940 Y87.019 E9.85521
G0 F3360 X91.290 Y87.348
G1 F1320 X91.732 Y86.907 E9.89259
G1 X92.348 Y86.291 E9.94475
G1 X92.812 Y85.878 E9.98194
G1 X93.466 Y85.297 E10.03431
G1 X93.950 Y84.913 E10.07130
G1 X94.641 Y84.366 E10.12406
G1 X95.865 Y83.510 E10.21348
G1 X96.390 Y83.186 E10.25041
G1 X97.140 Y82.723 E10.30318
G1 X97.688 Y82.428 E10.34044
G1 X98.456 Y82.013 E10.39270
G1 X99.016 Y81.753 E10.42967
G1 X99.016 Y81.752 E10.42973
G1 X99.813 Y81.380 E10.48238
G1 X100.386 Y81.153 E10.51928
G1 X101.203 Y80.829 E10.57190
G1 X102.036 Y80.553 E10.62444
G1 X102.621 Y80.358 E10.66135
G1 X103.225 Y80.197 E10.69878
G1 X104.069 Y79.972 E10.75107
G1 X105.536 Y79.667 E10.84077
G1 X106.155 Y79.578 E10.87821
G1 X107.016 Y79.452 E10.93031
G1 X107.635 Y79.399 E10.96750
G1 X108.505 Y79.322 E11.01979
G1 X109.130 Y79.304 E11.05723
G1 X109.130 Y79.305 E11.05729
G1 X109.995 Y79.278 E11.10910
G1 X110.618 Y79.296 E11.14641
G1 X111.496 Y79.322 E11.19900
G1 X112.369 Y79.398 E11.25146
G1 X112.982 Y79.452 E11.28830
G1 X113.593 Y79.541 E11.32527
G1 X114.467 Y79.668 E11.37814
G1 X115.076 Y79.795 E11.41539
G1 X115.076 Y79.794 E11.41545
G1 X115.932 Y79.972 E11.46779
G1 X117.374 Y80.357 E11.55714
G1 X118.209 Y80.633 E11.60979
G1 X118.798 Y80.829 E11.64696
G1 X119.373 Y81.057 E11.68399
G1 X120.187 Y81.381 E11.73644
G1 X120.748 Y81.642 E11.77348
G1 X121.542 Y82.012 E11.82593
G1 X122.089 Y82.306 E11.86310
G1 X122.863 Y82.724 E11.91577
G1 X123.609 Y83.185 E11.96827
G1 X124.133 Y83.510 E12.00518
G1 X124.637 Y83.862 E12.04199
G1 X125.361 Y84.367 E12.09484
G1 X126.052 Y84.915 E12.14763
G1 X126.534 Y85.298 E12.18449
G1 X127.648 Y86.289 E12.27376
G1 X128.087 Y86.727 E12.31088
G1 X128.709 Y87.349 E12.36354
G1 X129.289 Y88.002 E12.41583
G1 X129.699 Y88.463 E12.45277
G1 X130.084 Y88.946 E12.48975
G1 X130.633 Y89.640 E12.54272
G1 X130.988 Y90.148 E12.57983
G1 X131.491 Y90.867 E12.63236
G1 X131.814 Y91.391 E12.66921
G1 X132.276 Y92.140 E12.72190
G1 X132.567 Y92.681 E12.75867
G1 X132.985 Y93.454 E12.81129
G1 X133.249 Y94.020 E12.84868
G1 X133.618 Y94.813 E12.90104
G1 X134.171 Y96.205 E12.99071
G1 X134.363 Y96.789 E13.02752
G1 X134.364 Y96.789 E13.02758
G1 X134.640 Y97.623 E13.08017
G1 X134.800 Y98.220 E13.11717
G1 X135.027 Y99.068 E13.16973
G1 X135.203 Y99.923 E13.22199
G1 X135.204 Y99.923 E13.22205
G1 X135.330 Y100.533 E13.25934
G1 X135.547 Y102.016 E13.34907
G1 X135.600 Y102.635 E13.38626
G1 X135.677 Y103.503 E13.43843
G1 X135.702 Y104.372 E13.49048
G1 X135.722 Y104.995 E13.52780
G1 X135.696 Y105.877 E13.58062
G1 X135.677 Y106.496 E13.61770
G1 X135.624 Y107.112 E13.65471
G1 X135.546 Y107.988 E13.70737
G1 X135.330 Y109.463 E13.79661
G1 X135.205 Y110.072 E13.83383
G1 X135.027 Y110.931 E13.88635
G1 X134.801 Y111.777 E13.93878
G1 X134.641 Y112.374 E13.97578
G1 X134.447 Y112.963 E14.01291
G1 X134.170 Y113.797 E14.06552
G1 X133.941 Y114.374 E14.10268
G1 X133.617 Y115.188 E14.15513
G1 X132.987 Y116.541 E14.24449
G1 X132.693 Y117.089 E14.28172
G1 X132.275 Y117.862 E14.33433
G1 X131.490 Y119.135 E14.42387
G1 X130.988 Y119.852 E14.47627
G1 X130.630 Y120.362 E14.51357
G1 X130.084 Y121.051 E14.56620
G1 X129.703 Y121.533 E14.60299
G1 X129.291 Y121.995 E14.64005
G1 X128.707 Y122.652 E14.69267
G1 X128.266 Y123.092 E14.72997
G1 X127.650 Y123.708 E14.78212
G1 X126.535 Y124.701 E14.87151
G1 X125.851 Y125.243 E14.92376
G1 X125.359 Y125.633 E14.96134
G1 X124.635 Y126.138 E15.01419
G1 X124.135 Y126.488 E15.05073
G1 X122.861 Y127.276 E15.14041
G1 X122.312 Y127.571 E15.17773
G1 X121.544 Y127.986 E15.22999
G1 X120.751 Y128.355 E15.28235
G1 X120.185 Y128.619 E15.31974
G1 X119.607 Y128.848 E15.35696
G1 X118.799 Y129.170 E15.40904
G1 X117.375 Y129.642 E15.49885
G1 X115.933 Y130.027 E15.58820
G1 X115.328 Y130.153 E15.62520
G1 X114.464 Y130.332 E15.67803
G1 X113.845 Y130.421 E15.71546
G1 X112.982 Y130.547 E15.76768
G1 X112.363 Y130.600 E15.80487
G1 X111.496 Y130.677 E15.85698
G1 X110.628 Y130.702 E15.90897
G1 X110.005 Y130.722 E15.94629
G1 X109.122 Y130.696 E15.99917
G1 X108.503 Y130.677 E16.03625
G1 X107.887 Y130.624 E16.07326
G1 X107.015 Y130.546 E16.12568
G1 X106.404 Y130.458 E16.16264
G1 X105.532 Y130.331 E16.21539
G1 X104.068 Y130.027 E16.30491
G1 X103.475 Y129.869 E16.34165
G1 X102.625 Y129.642 E16.39432
G1 X102.033 Y129.446 E16.43165
G1 X101.203 Y129.171 E16.48400
G1 X100.628 Y128.943 E16.52103
G1 X99.812 Y128.618 E16.57362
G1 X99.250 Y128.357 E16.61071
G1 X98.457 Y127.986 E16.66313
G1 X97.911 Y127.693 E16.70023
G1 X97.138 Y127.275 E16.75284
G1 X96.391 Y126.814 E16.80539
G1 X95.864 Y126.488 E16.84249
G1 X95.151 Y125.989 E16.89459
G1 X94.639 Y125.631 E16.93199
G1 X94.154 Y125.247 E16.96903
G1 X93.466 Y124.703 E17.02154
G1 X93.004 Y124.291 E17.05860
G1 X92.350 Y123.710 E17.11097
G1 X91.730 Y123.091 E17.16342
G1 X91.290 Y122.651 E17.20067
G1 X90.876 Y122.186 E17.23795
G1 X90.296 Y121.532 E17.29028
G1 X89.754 Y120.849 E17.34248
G1 X89.367 Y120.360 E17.37982
G1 X88.865 Y119.643 E17.43222
G1 X88.508 Y119.133 E17.46949
G1 X88.048 Y118.386 E17.52201
G1 X87.723 Y117.859 E17.55908
G1 X87.429 Y117.312 E17.59625
G1 X87.014 Y116.544 E17.64852
G1 X86.754 Y115.984 E17.68548
G1 X86.753 Y115.984 E17.68554
G1 X86.382 Y115.188 E17.73812
G1 X86.058 Y114.371 E17.79073
G1 X85.830 Y113.796 E17.82777
G1 X85.636 Y113.210 E17.86472
G1 X85.635 Y113.210 E17.86478
G1 X85.359 Y112.378 E17.91726
G1 X84.971 Y110.931 E18.00695
G1 X84.845 Y110.321 E18.04424
G1 X84.668 Y109.466 E18.09651
G1 X84.452 Y107.986 E18.18606
G1 X84.375 Y107.114 E18.23847
G1 X84.320 Y106.492 E18.27585
G1 X84.303 Y105.869 E18.31316
G1 X84.304 Y105.869 E18.31322
G1 X84.279 Y105.002 E18.36515
G1 X84.295 Y104.385 E18.40210
G1 X84.321 Y103.505 E18.45481
G1 X84.397 Y102.631 E18.50733
G1 X84.452 Y102.012 E18.54453
G1 X84.668 Y100.535 E18.63390
G1 X84.845 Y99.675 E18.68646
G1 X84.971 Y99.068 E18.72358
G1 X85.131 Y98.468 E18.76076
G1 X85.359 Y97.621 E18.81327
G1 X85.634 Y96.789 E18.86573
G1 X85.830 Y96.201 E18.90284
G1 X86.057 Y95.628 E18.93973
G1 X86.382 Y94.812 E18.99232
G1 X86.643 Y94.251 E19.02936
G1 X87.014 Y93.455 E19.08194
G1 X87.430 Y92.683 E19.13444
G1 X87.724 Y92.139 E19.17146
G1 X88.507 Y90.869 E19.26078
G1 X89.009 Y90.149 E19.31333
G1 X89.369 Y89.635 E19.35090
G1 X89.758 Y89.146 E19.38831
G1 X90.297 Y88.465 E19.44030
G1 X90.708 Y88.004 E19.47728
G1 X91.290 Y87.348 E19.52978
G0 F3360 X91.639 Y87.678
G1 F1320 X92.071 Y87.247 E19.56632
G1 X92.678 Y86.640 E19.61771
G1 X93.131 Y86.237 E19.65401
G1 X93.775 Y85.665 E19.70557
G1 X94.248 Y85.289 E19.74175
G1 X94.928 Y84.752 E19.79362
G1 X96.129 Y83.911 E19.88140
G1 X96.643 Y83.594 E19.91755
G1 X97.380 Y83.138 E19.96944
G1 X97.915 Y82.850 E20.00582
G1 X97.915 Y82.851 E20.00588
G1 X98.671 Y82.442 E20.05733
G1 X99.219 Y82.188 E20.09350
G1 X99.219 Y82.187 E20.09356
G1 X100.003 Y81.821 E20.14535
G1 X100.569 Y81.597 E20.18180
G1 X101.367 Y81.280 E20.23320
G1 X102.179 Y81.012 E20.28440
G1 X102.179 Y81.011 E20.28446
G1 X102.759 Y80.818 E20.32105
G1 X103.349 Y80.661 E20.35760
G1 X104.180 Y80.439 E20.40910
G1 X105.619 Y80.140 E20.49709
G1 X106.223 Y80.053 E20.53362
G1 X107.071 Y79.929 E20.58493
G1 X107.677 Y79.877 E20.62134
G1 X108.533 Y79.801 E20.67279
G1 X109.135 Y79.784 E20.70885
G1 X109.996 Y79.759 E20.76042
G1 X110.604 Y79.775 E20.79683
G1 X111.468 Y79.801 E20.84858
G1 X112.327 Y79.876 E20.90020
G1 X112.927 Y79.929 E20.93626
G1 X113.524 Y80.016 E20.97238
G1 X114.384 Y80.141 E21.02441
G1 X114.978 Y80.265 E21.06074
G1 X114.978 Y80.264 E21.06080
G1 X115.821 Y80.439 E21.11234
G1 X117.236 Y80.817 E21.20003
G1 X118.058 Y81.089 E21.25186
G1 X118.633 Y81.280 E21.28813
G1 X119.196 Y81.503 E21.32439
G1 X119.997 Y81.822 E21.37601
G1 X120.545 Y82.077 E21.41219
G1 X121.327 Y82.442 E21.46386
G1 X121.861 Y82.729 E21.50015
G1 X122.623 Y83.140 E21.55198
G1 X123.357 Y83.594 E21.60365
G1 X123.869 Y83.911 E21.63971
G1 X124.362 Y84.255 E21.67570
G1 X125.075 Y84.753 E21.72776
G1 X125.752 Y85.290 E21.77950
G1 X126.225 Y85.666 E21.81567
G1 X127.319 Y86.639 E21.90332
G1 X127.747 Y87.066 E21.93952
G1 X128.360 Y87.679 E21.99142
G1 X128.931 Y88.322 E22.04290
G1 X129.332 Y88.772 E22.07899
G1 X129.708 Y89.245 E22.11516
G1 X130.248 Y89.926 E22.16719
G1 X130.594 Y90.423 E22.20345
G1 X131.090 Y91.131 E22.25520
G1 X131.408 Y91.647 E22.29149
G1 X131.861 Y92.380 E22.34308
G1 X132.149 Y92.915 E22.37945
G1 X132.148 Y92.915 E22.37951
G1 X132.556 Y93.669 E22.43084
G1 X132.814 Y94.222 E22.46737
G1 X133.177 Y95.003 E22.51893
G1 X133.720 Y96.368 E22.60688
G1 X133.908 Y96.940 E22.64293
G1 X134.180 Y97.761 E22.69471
G1 X134.336 Y98.345 E22.73090
G1 X134.560 Y99.179 E22.78260
G1 X134.733 Y100.021 E22.83406
G1 X134.734 Y100.021 E22.83412
G1 X134.857 Y100.616 E22.87049
G1 X135.070 Y102.071 E22.95853
G1 X135.122 Y102.677 E22.99494
G1 X135.198 Y103.531 E23.04627
G1 X135.223 Y104.395 E23.09802
G1 X135.222 Y104.395 E23.09808
G1 X135.241 Y104.996 E23.13408
G1 X135.217 Y105.863 E23.18600
G1 X135.198 Y106.468 E23.22224
G1 X135.146 Y107.070 E23.25842
G1 X135.069 Y107.932 E23.31023
G1 X134.857 Y109.380 E23.39784
G1 X134.735 Y109.975 E23.43421
G1 X134.560 Y110.820 E23.48587
G1 X134.338 Y111.653 E23.53748
G1 X134.181 Y112.237 E23.57368
G1 X133.991 Y112.812 E23.60994
G1 X133.719 Y113.633 E23.66172
G1 X133.495 Y114.197 E23.69805
G1 X133.176 Y114.997 E23.74961
G1 X132.558 Y116.326 E23.83736
G1 X132.270 Y116.861 E23.87373
G1 X131.859 Y117.622 E23.92551
G1 X131.089 Y118.871 E24.01336
G1 X130.595 Y119.576 E24.06489
G1 X130.245 Y120.075 E24.10138
G1 X129.708 Y120.752 E24.15312
G1 X129.335 Y121.224 E24.18913
G1 X128.932 Y121.676 E24.22539
G1 X128.358 Y122.322 E24.27712
G1 X127.927 Y122.752 E24.31357
G1 X127.320 Y123.359 E24.36496
G1 X126.226 Y124.333 E24.45266
G1 X125.553 Y124.867 E24.50409
G1 X125.073 Y125.248 E24.54078
G1 X124.360 Y125.744 E24.59278
G1 X123.870 Y126.087 E24.62859
G1 X122.621 Y126.860 E24.71652
G1 X122.085 Y127.149 E24.75298
G1 X122.085 Y127.148 E24.75304
G1 X121.329 Y127.557 E24.80450
