;FLAVOR:Marlin
;TIME:4926
;Filament used: 2.58901m
;Layer height: 0.2
;MINX:84.413
;MINY:84.414
;MINZ:0.3
;MAXX:135.587
;MAXY:135.591
;MAXZ:9.9
;Generated with Cura_SteamEngine 4.8.0
M140 S60
M105
M190 S60
M104 S200
M105
M109 S200
M82 ;absolute extrusion mode
G21 
G90
M107
G28 X0 Y0
G28 Z0
G1 Z15.0 F{travel_xy_speed}
G29
G92 E0
G1 F200 E10
G92 E0
G1 F{travel_xy_speed}
M117 Printing...
G92 E0
G92 E0
G1 F1500 E-6.5
;LAYER_COUNT:49
;LAYER:0
M107
M204 S1000
G0 F6000 X92.191 Y91.635 Z0.3
;TYPE:SKIRT
G1 F1500 E0
G1 F1200 X92.286 Y91.541 E0.00667
G1 X92.735 Y91.112 E0.03765
G1 X93.002 Y90.868 E0.05569
G1 X93.356 Y90.561 E0.07907
G1 X94.143 Y89.917 E0.12981
G1 X94.236 Y89.843 E0.13574
G1 X94.854 Y89.372 E0.1745
G1 X95.054 Y89.227 E0.18683
G1 X95.901 Y88.643 E0.23815
G1 X96.025 Y88.562 E0.24554
G1 X96.774 Y88.091 E0.28968
G1 X97.3 Y87.781 E0.32015
G1 X98.004 Y87.391 E0.3603
G1 X98.359 Y87.206 E0.38027
G1 X99.193 Y86.8 E0.42655
G1 X99.5 Y86.66 E0.44338
G1 X100.321 Y86.31 E0.48791
G1 X100.692 Y86.161 E0.50785
G1 X101.587 Y85.83 E0.55546
G1 X101.858 Y85.738 E0.56974
G1 X102.697 Y85.473 E0.61363
G1 X103.041 Y85.374 E0.63149
G1 X103.696 Y85.202 E0.66528
G1 X103.805 Y85.175 E0.67088
G1 X104.467 Y85.025 E0.70475
G1 X105.87 Y84.754 E0.77604
G1 X105.991 Y84.733 E0.78216
G1 X106.484 Y84.656 E0.80706
G1 X106.77 Y84.618 E0.82145
G1 X106.91 Y84.603 E0.82848
G1 X108.521 Y84.454 E0.90919
G1 X108.837 Y84.437 E0.92498
G1 X109.675 Y84.414 E0.9668
G1 X110.613 Y84.416 E1.0136
G1 X111.11 Y84.431 E1.03841
G1 X111.674 Y84.458 E1.06658
G1 X112.294 Y84.505 E1.0976
G1 X112.415 Y84.516 E1.10366
G1 X113.021 Y84.584 E1.13408
G1 X113.486 Y84.648 E1.1575
G1 X114.322 Y84.776 E1.19969
G1 X114.773 Y84.858 E1.22256
G1 X115.587 Y85.027 E1.26404
G1 X116.107 Y85.147 E1.29067
G1 X116.543 Y85.254 E1.31306
G1 X117.064 Y85.39 E1.33993
G1 X117.274 Y85.451 E1.35084
G1 X118.359 Y85.806 E1.40779
G1 X119.35 Y86.153 E1.46018
G1 X119.949 Y86.371 E1.49198
G1 X120.343 Y86.541 E1.51339
G1 X121.268 Y87.01 E1.56513
G1 X122.009 Y87.402 E1.60695
G1 X122.61 Y87.73 E1.64111
G1 X123.522 Y88.266 E1.69389
G1 X124.282 Y88.742 E1.73863
G1 X124.452 Y88.856 E1.74884
G1 X124.785 Y89.094 E1.76926
G1 X125.303 Y89.487 E1.8017
G1 X126.064 Y90.079 E1.8498
G1 X126.28 Y90.256 E1.86373
G1 X126.996 Y90.873 E1.91088
G1 X127.341 Y91.186 E1.93413
G1 X128.104 Y91.917 E1.98684
G1 X128.21 Y92.023 E1.99432
G1 X128.818 Y92.658 E2.03818
G1 X129.194 Y93.073 E2.06612
G1 X129.717 Y93.682 E2.10617
G1 X129.96 Y93.981 E2.12539
G1 X130.49 Y94.662 E2.16844
G1 X130.736 Y94.995 E2.1891
G1 X131.125 Y95.552 E2.22299
G1 X131.442 Y96.03 E2.25161
G1 X131.922 Y96.799 E2.29683
G1 X132.175 Y97.23 E2.32177
G1 X132.643 Y98.072 E2.36983
G1 X132.765 Y98.305 E2.38295
G1 X133.127 Y99.038 E2.42374
G1 X133.367 Y99.561 E2.45245
G1 X133.672 Y100.272 E2.49104
G1 X133.838 Y100.689 E2.51344
G1 X134.129 Y101.476 E2.5553
G1 X134.29 Y101.948 E2.58018
G1 X134.578 Y102.868 E2.62827
G1 X134.648 Y103.11 E2.64084
G1 X134.852 Y103.885 E2.68082
G1 X134.967 Y104.377 E2.70603
G1 X135.141 Y105.215 E2.74873
G1 X135.216 Y105.625 E2.76952
G1 X135.35 Y106.478 E2.8126
G1 X135.402 Y106.874 E2.83253
G1 X135.481 Y107.63 E2.87045
G1 X135.528 Y108.242 E2.90107
G1 X135.574 Y109.125 E2.94519
G1 X135.587 Y109.591 E2.96844
G1 X135.587 Y110.351 E3.00636
G1 X135.567 Y111.062 E3.04185
G1 X135.518 Y112.022 E3.0898
G1 X135.505 Y112.197 E3.09856
G1 X135.439 Y112.84 E3.13081
G1 X135.363 Y113.425 E3.16024
G1 X135.206 Y114.437 E3.21133
G1 X135.16 Y114.69 E3.22416
G1 X135.013 Y115.414 E3.26102
G1 X134.91 Y115.85 E3.28337
G1 X134.881 Y115.964 E3.28924
G1 X134.505 Y117.351 E3.36093
G1 X134.329 Y117.93 E3.39112
G1 X134.153 Y118.455 E3.41875
G1 X134.122 Y118.544 E3.42345
G1 X133.829 Y119.339 E3.46572
G1 X133.688 Y119.691 E3.48464
G1 X133.427 Y120.307 E3.51802
G1 X133.161 Y120.889 E3.54994
G1 X133.117 Y120.982 E3.55507
G1 X132.714 Y121.794 E3.6003
G1 X132.536 Y122.128 E3.61918
G1 X131.865 Y123.298 E3.68647
G1 X131.807 Y123.396 E3.69215
G1 X131.587 Y123.753 E3.71307
G1 X131.248 Y124.272 E3.744
G1 X130.901 Y124.771 E3.77432
G1 X130.5 Y125.316 E3.80808
G1 X129.873 Y126.121 E3.85899
G1 X129.664 Y126.376 E3.87544
G1 X129.059 Y127.078 E3.92167
G1 X128.884 Y127.27 E3.93463
G1 X128.263 Y127.926 E3.9797
G1 X127.918 Y128.273 E4.00411
G1 X127.558 Y128.626 E4.02927
G1 X127.067 Y129.095 E4.06314
G1 X126.909 Y129.237 E4.07374
G1 X126.634 Y129.468 E4.09166
G1 X126.086 Y129.907 E4.12669
G1 X125.306 Y130.51 E4.17588
G1 X125.019 Y130.721 E4.19365
G1 X124.353 Y131.186 E4.23417
G1 X123.963 Y131.445 E4.25753
G1 X123.276 Y131.877 E4.29802
G1 X123.001 Y132.04 E4.31396
G1 X122.911 Y132.091 E4.31913
G1 X121.552 Y132.832 E4.39635
G1 X121.242 Y132.99 E4.41371
G1 X121.136 Y133.041 E4.41958
G1 X120.359 Y133.4 E4.46228
G1 X120.245 Y133.45 E4.46849
G1 X119.491 Y133.766 E4.50928
G1 X118.716 Y134.066 E4.55074
G1 X118.1 Y134.295 E4.58353
G1 X117.91 Y134.36 E4.59354
G1 X116.518 Y134.791 E4.66624
G1 X116.253 Y134.869 E4.68003
G1 X115.924 Y134.949 E4.69692
G1 X115.585 Y135.015 E4.71415
G1 X114.713 Y135.158 E4.75823
G1 X112.811 Y135.427 E4.85407
G1 X112.687 Y135.442 E4.8603
G1 X112.131 Y135.501 E4.8882
G1 X111.928 Y135.517 E4.89835
G1 X111.06 Y135.559 E4.94171
G1 X110.468 Y135.578 E4.97126
G1 X109.725 Y135.591 E5.00833
G1 X109.426 Y135.588 E5.02325
G1 X108.848 Y135.567 E5.05211
G1 X107.944 Y135.518 E5.09727
G1 X107.773 Y135.504 E5.10583
G1 X107.203 Y135.445 E5.13442
G1 X106.717 Y135.383 E5.15887
G1 X105.408 Y135.2 E5.22481
G1 X104.704 Y135.092 E5.26034
G1 X104.199 Y134.977 E5.28618
G1 X103.892 Y134.885 E5.30217
G1 X103.168 Y134.667 E5.33989
G1 X101.318 Y134.065 E5.43695
G1 X101.206 Y134.027 E5.44285
G1 X100.748 Y133.861 E5.46716
G1 X100.322 Y133.694 E5.48999
G1 X99.786 Y133.467 E5.51903
G1 X99.036 Y133.124 E5.56017
G1 X98.211 Y132.715 E5.60611
G1 X97.938 Y132.572 E5.62149
G1 X97.205 Y132.163 E5.66336
G1 X96.902 Y131.981 E5.681
G1 X95.596 Y131.151 E5.7582
G1 X95.483 Y131.076 E5.76497
G1 X95.183 Y130.868 E5.78318
G1 X94.833 Y130.612 E5.80481
G1 X94.493 Y130.347 E5.82632
G1 X93.285 Y129.372 E5.90377
G1 X93.173 Y129.278 E5.91106
G1 X92.816 Y128.965 E5.93475
G1 X92.714 Y128.872 E5.94164
G1 X92.028 Y128.221 E5.98882
G1 X91.696 Y127.888 E6.01228
G1 X91.167 Y127.331 E6.0506
G1 X90.799 Y126.922 E6.07805
G1 X90.259 Y126.289 E6.11956
G1 X90.005 Y125.976 E6.13967
G1 X89.416 Y125.213 E6.18776
G1 X89.234 Y124.962 E6.20323
G1 X88.812 Y124.355 E6.24011
G1 X88.532 Y123.931 E6.26546
G1 X88.017 Y123.101 E6.31419
G1 X87.858 Y122.83 E6.32987
G1 X87.506 Y122.196 E6.36605
G1 X87.207 Y121.62 E6.39843
G1 X87.15 Y121.505 E6.40483
G1 X86.545 Y120.231 E6.47519
G1 X86.494 Y120.118 E6.48138
G1 X86.16 Y119.347 E6.5233
G1 X86.017 Y118.975 E6.54318
G1 X85.88 Y118.579 E6.56409
G1 X85.769 Y118.24 E6.58188
G1 X85.477 Y117.309 E6.63056
G1 X85.338 Y116.817 E6.65607
G1 X85.091 Y115.862 E6.70528
G1 X85.006 Y115.491 E6.72427
G1 X84.871 Y114.833 E6.75778
G1 X84.754 Y114.167 E6.79152
G1 X84.642 Y113.408 E6.82979
G1 X84.61 Y113.157 E6.84242
G1 X84.598 Y113.042 E6.84819
G1 X84.461 Y111.527 E6.92408
G1 X84.447 Y111.277 E6.93657
G1 X84.423 Y110.115 E6.99455
G1 X84.413 Y109.76 E7.01227
G1 X84.415 Y109.493 E7.02559
G1 X84.434 Y108.849 E7.05774
G1 X84.439 Y108.737 E7.06333
G1 X84.482 Y108.029 E7.09872
G1 X84.496 Y107.861 E7.10713
G1 X84.637 Y106.555 E7.17266
G1 X84.651 Y106.441 E7.17839
G1 X84.709 Y106.035 E7.19885
G1 X84.755 Y105.77 E7.21227
G1 X84.843 Y105.319 E7.2352
G1 X84.941 Y104.847 E7.25925
G1 X85.125 Y104.015 E7.30176
G1 X85.166 Y103.846 E7.31044
G1 X85.509 Y102.586 E7.37559
G1 X85.643 Y102.145 E7.39858
G1 X85.677 Y102.038 E7.40418
G1 X85.945 Y101.254 E7.44552
G1 X86.231 Y100.455 E7.48786
G1 X86.446 Y99.878 E7.51858
G1 X86.615 Y99.494 E7.53951
G1 X87.031 Y98.682 E7.58503
G1 X87.148 Y98.471 E7.59706
G1 X87.8 Y97.273 E7.66511
G1 X88.122 Y96.722 E7.69695
G1 X88.479 Y96.147 E7.73071
G1 X88.712 Y95.792 E7.7519
G1 X89.172 Y95.131 E7.79208
G1 X89.534 Y94.637 E7.82263
G1 X90.037 Y93.991 E7.86348
G1 X90.306 Y93.661 E7.88472
G1 X90.942 Y92.928 E7.93314
G1 X91.078 Y92.78 E7.94316
G1 X92.191 Y91.635 E8.02283
G0 F6000 X92.477 Y91.914
G1 F1200 X92.562 Y91.83 E8.02879
G1 X93.006 Y91.406 E8.05942
G1 X93.264 Y91.17 E8.07686
G1 X93.618 Y90.863 E8.10024
G1 X94.396 Y90.226 E8.15041
G1 X94.478 Y90.161 E8.15563
G1 X95.09 Y89.695 E8.194
G1 X95.282 Y89.557 E8.2058
G1 X96.129 Y88.973 E8.25713
G1 X96.238 Y88.9 E8.26367
G1 X96.978 Y88.435 E8.30728
G1 X97.419 Y88.174 E8.33284
G1 X98.189 Y87.746 E8.37679
G1 X98.544 Y87.561 E8.39676
G1 X99.361 Y87.163 E8.4421
G1 X99.657 Y87.028 E8.45833
G1 X100.47 Y86.682 E8.50242
G1 X100.928 Y86.499 E8.52702
G1 X101.726 Y86.205 E8.56945
G1 X101.978 Y86.119 E8.58273
G1 X102.726 Y85.882 E8.62188
G1 X103.225 Y85.739 E8.64778
G1 X103.894 Y85.565 E8.68226
G1 X104.435 Y85.441 E8.70996
G1 X104.543 Y85.418 E8.71546
G1 X105.946 Y85.147 E8.78675
G1 X106.054 Y85.128 E8.79223
G1 X106.537 Y85.053 E8.81661
G1 X106.823 Y85.015 E8.831
G1 X106.947 Y85.001 E8.83723
G1 X108.437 Y84.862 E8.91189
G1 X108.746 Y84.842 E8.92734
G1 X108.848 Y84.837 E8.93243
G1 X109.686 Y84.814 E8.97426
G1 X110.612 Y84.816 E9.02046
G1 X111.091 Y84.831 E9.04436
G1 X111.751 Y84.864 E9.07733
G1 X112.371 Y84.914 E9.10837
G1 X113.064 Y84.993 E9.14316
G1 X113.425 Y85.044 E9.16135
G1 X114.348 Y85.186 E9.20794
G1 X114.692 Y85.25 E9.2254
G1 X115.497 Y85.416 E9.26641
G1 X116.013 Y85.536 E9.29284
G1 X116.442 Y85.641 E9.31487
G1 X116.963 Y85.777 E9.34173
G1 X117.15 Y85.832 E9.35146
G1 X118.298 Y86.208 E9.41173
G1 X119.213 Y86.529 E9.4601
G1 X119.812 Y86.747 E9.49191
G1 X120.162 Y86.898 E9.51092
G1 X121.081 Y87.364 E9.56233
G1 X121.818 Y87.753 E9.60391
G1 X122.312 Y88.021 E9.63195
G1 X122.407 Y88.075 E9.6374
G1 X123.319 Y88.611 E9.69017
G1 X124.069 Y89.081 E9.73433
G1 X124.22 Y89.182 E9.74339
G1 X124.544 Y89.413 E9.76325
G1 X125.058 Y89.802 E9.79541
G1 X125.747 Y90.338 E9.83896
G1 X126.085 Y90.615 E9.86076
G1 X126.728 Y91.17 E9.90314
G1 X127.065 Y91.475 E9.92581
G1 X127.828 Y92.206 E9.97853
G1 X127.921 Y92.3 E9.98513
G1 X128.522 Y92.927 E10.02846
G1 X128.891 Y93.334 E10.05587
G1 X129.407 Y93.935 E10.09538
G1 X129.644 Y94.227 E10.11415
G1 X130.229 Y94.979 E10.16168
G1 X130.461 Y95.298 E10.18136
G1 X130.84 Y95.844 E10.21452
G1 X131.156 Y96.325 E10.24323
G1 X131.626 Y97.083 E10.28773
G1 X131.825 Y97.424 E10.30742
G1 X132.29 Y98.26 E10.35515
G1 X132.407 Y98.483 E10.36771
G1 X132.764 Y99.206 E10.40794
G1 X133 Y99.719 E10.43611
G1 X133.27 Y100.347 E10.47022
G1 X133.462 Y100.828 E10.49606
G1 X133.78 Y101.689 E10.54185
G1 X133.908 Y102.068 E10.56181
G1 X134.194 Y102.979 E10.60944
G1 X134.261 Y103.212 E10.62154
G1 X134.439 Y103.883 E10.65617
G1 X134.577 Y104.468 E10.68616
G1 X134.75 Y105.297 E10.72841
G1 X134.835 Y105.769 E10.75234
G1 X134.955 Y106.539 E10.79122
G1 X135.004 Y106.915 E10.81013
G1 X135.091 Y107.76 E10.85251
G1 X135.128 Y108.263 E10.87768
G1 X135.175 Y109.137 E10.92134
G1 X135.186 Y109.5 E10.93946
G1 X135.188 Y110.245 E10.97663
G1 X135.187 Y110.34 E10.98137
G1 X135.164 Y111.125 E11.02055
G1 X135.119 Y112.001 E11.06431
G1 X135.107 Y112.157 E11.07212
G1 X135.042 Y112.79 E11.10386
G1 X134.968 Y113.364 E11.13274
G1 X134.825 Y114.293 E11.17963
G1 X134.768 Y114.612 E11.1958
G1 X134.646 Y115.218 E11.22664
G1 X134.52 Y115.758 E11.2543
G1 X134.495 Y115.859 E11.25949
G1 X134.119 Y117.246 E11.33119
G1 X133.947 Y117.813 E11.36075
G1 X133.774 Y118.327 E11.38781
G1 X133.457 Y119.191 E11.43372
G1 X133.319 Y119.535 E11.45221
G1 X133.02 Y120.239 E11.49037
G1 X132.798 Y120.722 E11.51689
G1 X132.395 Y121.539 E11.56234
G1 X132.246 Y121.825 E11.57843
G1 X132.189 Y121.929 E11.58435
G1 X131.518 Y123.099 E11.65164
G1 X131.246 Y123.543 E11.67762
G1 X130.973 Y123.964 E11.70265
G1 X130.572 Y124.543 E11.73779
G1 X130.179 Y125.078 E11.77091
G1 X129.558 Y125.875 E11.82131
G1 X129.36 Y126.115 E11.83684
G1 X128.762 Y126.81 E11.88258
G1 X128.593 Y126.996 E11.89512
G1 X127.979 Y127.645 E11.93969
G1 X127.638 Y127.988 E11.96382
G1 X127.281 Y128.337 E11.98873
G1 X126.79 Y128.806 E12.0226
G1 X126.65 Y128.932 E12.032
G1 X126.384 Y129.156 E12.04935
G1 X125.841 Y129.591 E12.08406
G1 X125.068 Y130.189 E12.13282
G1 X124.79 Y130.393 E12.15002
G1 X124.059 Y130.902 E12.19446
G1 X123.676 Y131.155 E12.21736
G1 X123.064 Y131.539 E12.25341
G1 X122.799 Y131.695 E12.26875
G1 X122.72 Y131.74 E12.27328
G1 X121.361 Y132.481 E12.35051
G1 X121.063 Y132.632 E12.36718
G1 X120.968 Y132.678 E12.37244
G1 X120.09 Y133.082 E12.42066
G1 X119.347 Y133.393 E12.46084
G1 X118.577 Y133.691 E12.50204
G1 X117.961 Y133.92 E12.53482
G1 X117.792 Y133.978 E12.54374
G1 X116.405 Y134.407 E12.61617
G1 X116.14 Y134.485 E12.62995
G1 X115.848 Y134.556 E12.64494
G1 X115.509 Y134.622 E12.66217
G1 X114.723 Y134.751 E12.70191
G1 X112.755 Y135.03 E12.80108
G1 X112.645 Y135.044 E12.80661
G1 X112.089 Y135.103 E12.83451
G1 X111.909 Y135.117 E12.84351
G1 X111.047 Y135.159 E12.88657
G1 X110.461 Y135.178 E12.91582
G1 X109.729 Y135.191 E12.95235
G1 X109.34 Y135.186 E12.97175
G1 X108.87 Y135.167 E12.99522
G1 X107.966 Y135.118 E13.04039
G1 X107.814 Y135.106 E13.048
G1 X107.253 Y135.048 E13.07613
G1 X106.772 Y134.987 E13.10032
G1 X105.469 Y134.805 E13.16596
G1 X104.765 Y134.697 E13.20149
G1 X104.316 Y134.595 E13.22447
G1 X103.22 Y134.264 E13.28158
G1 X101.442 Y133.685 E13.37487
G1 X100.8 Y133.453 E13.40893
G1 X100.389 Y133.289 E13.43101
G1 X99.861 Y133.063 E13.45966
G1 X99.204 Y132.761 E13.49574
G1 X98.329 Y132.327 E13.54447
G1 X98.132 Y132.222 E13.5556
G1 X97.408 Y131.818 E13.59697
G1 X97.117 Y131.644 E13.61388
G1 X95.811 Y130.814 E13.69108
G1 X95.71 Y130.747 E13.69713
G1 X95.418 Y130.545 E13.71484
G1 X95.078 Y130.296 E13.73587
G1 X94.744 Y130.036 E13.75699
G1 X93.536 Y129.061 E13.83443
G1 X93.436 Y128.977 E13.84095
G1 X93.079 Y128.664 E13.86464
G1 X92.989 Y128.582 E13.87071
G1 X92.311 Y127.938 E13.91736
G1 X91.985 Y127.612 E13.94037
G1 X91.463 Y127.063 E13.97816
G1 X91.161 Y126.729 E14.00062
G1 X90.569 Y126.037 E14.04606
G1 X90.322 Y125.731 E14.06568
G1 X89.739 Y124.977 E14.11323
G1 X89.562 Y124.733 E14.12827
G1 X89.146 Y124.134 E14.16465
G1 X88.814 Y123.63 E14.19476
G1 X88.313 Y122.818 E14.24236
G1 X88.172 Y122.574 E14.25642
G1 X87.904 Y122.092 E14.28394
G1 X87.562 Y121.435 E14.32089
G1 X87.511 Y121.334 E14.32653
G1 X86.906 Y120.06 E14.3969
G1 X86.527 Y119.188 E14.44433
G1 X86.393 Y118.838 E14.46303
G1 X86.26 Y118.454 E14.4833
G1 X86.15 Y118.119 E14.5009
G1 X85.861 Y117.199 E14.54901
G1 X85.725 Y116.716 E14.57404
G1 X85.481 Y115.773 E14.62264
G1 X85.398 Y115.41 E14.64121
G1 X85.263 Y114.752 E14.67473
G1 X85.148 Y114.099 E14.7078
G1 X85.133 Y114.009 E14.71236
G1 X85.028 Y113.279 E14.74915
G1 X84.996 Y113.006 E14.76286
G1 X84.859 Y111.491 E14.83876
G1 X84.847 Y111.269 E14.84985
G1 X84.823 Y110.101 E14.90813
G1 X84.813 Y109.76 E14.92515
G1 X84.814 Y109.505 E14.93787
G1 X84.833 Y108.861 E14.97002
G1 X84.881 Y108.053 E15.0104
G1 X84.893 Y107.904 E15.01786
G1 X85.034 Y106.598 E15.08339
G1 X85.091 Y106.183 E15.10429
G1 X85.147 Y105.846 E15.12134
G1 X85.234 Y105.4 E15.14401
G1 X85.331 Y104.933 E15.1678
G1 X85.515 Y104.101 E15.21031
G1 X85.552 Y103.951 E15.21802
G1 X85.895 Y102.691 E15.28317
G1 X86.025 Y102.262 E15.30553
G1 X86.306 Y101.433 E15.3492
G1 X86.605 Y100.595 E15.39359
G1 X86.82 Y100.018 E15.42431
G1 X86.971 Y99.676 E15.44297
G1 X87.387 Y98.864 E15.48848
G1 X87.502 Y98.658 E15.50025
G1 X88.2 Y97.379 E15.57295
G1 X88.463 Y96.932 E15.59882
G1 X88.814 Y96.366 E15.63205
G1 X89.098 Y95.936 E15.65776
G1 X89.548 Y95.293 E15.69691
G1 X89.91 Y94.803 E15.72731
G1 X90.4 Y94.177 E15.76697
G1 X90.673 Y93.846 E15.78837
G1 X91.243 Y93.19 E15.83173
G1 X91.364 Y93.059 E15.84063
G1 X92.477 Y91.914 E15.92029
G1 F1500 E9.42029
G0 F6000 X94.561 Y93.413
G0 X95.169 Y94.027
;TYPE:SUPPORT
G1 F1500 E15.92029
G1 F1200 X95.967 Y93.312 E15.97375
G1 X96.907 Y92.572 E16.03343
G1 X97.733 Y91.983 E16.08405
G1 X98.658 Y91.382 E16.13908
G1 X99.706 Y90.78 E16.19938
G1 X100.584 Y90.337 E16.24844
G1 X101.62 Y89.875 E16.30503
G1 X102.679 Y89.468 E16.36164
G1 X103.607 Y89.16 E16.41042
G1 X104.744 Y88.845 E16.46928
G1 X105.817 Y88.617 E16.52401
G1 X107.024 Y88.407 E16.58513
G1 X107.963 Y88.298 E16.63229
