;FLAVOR:Marlin
;TIME:5786
;Filament used: 2.83051m
;Layer height: 0.2
;MINX:83.049
;MINY:75.879
;MINZ:0.3
;MAXX:140.221
;MAXY:144.121
;MAXZ:15.9
;Generated with Cura_SteamEngine 4.10.0
M140 S60
M105
M190 S60
M104 S200
M105
M109 S200
M82 ;absolute extrusion mode
G21
G90
M107
G28 X0 Y0
G28 Z0
G1 Z15.0 F{travel_xy_speed}
G29
G92 E0
G1 F200 E10
G92 E0
G1 F{travel_xy_speed}
M117 Printing...
G92 E0
G92 E0
G1 F1500 E-6.5
;LAYER_COUNT:79
;LAYER:0
M107
M204 S1000
G0 F6000 X84.435 Y87.281 Z0.3
;TYPE:SKIRT
G1 F1500 E0
G1 F1200 X94.343 Y77.372 E0.6991
G1 X94.83 Y76.901 E0.7329
G1 X95.242 Y76.558 E0.75964
G1 X95.701 Y76.28 E0.78642
G1 X96.196 Y76.073 E0.81318
G1 X96.716 Y75.942 E0.83994
G1 X97.211 Y75.891 E0.86476
G1 X97.437 Y75.884 E0.87605
G1 X97.846 Y75.879 E0.89645
G1 X121.956 Y75.879 E2.0993
G1 X122.657 Y75.889 E2.13428
G1 X123.192 Y75.937 E2.16108
G1 X123.713 Y76.063 E2.18782
G1 X124.209 Y76.266 E2.21456
G1 X124.67 Y76.54 E2.24131
G1 X125.046 Y76.842 E2.26538
G1 X125.273 Y77.053 E2.28084
G1 X125.469 Y77.244 E2.29449
G1 X135.39 Y87.166 E2.99451
G1 X135.862 Y87.651 E3.02827
G1 X136.206 Y88.062 E3.05501
G1 X136.486 Y88.52 E3.08179
G1 X136.694 Y89.014 E3.10853
G1 X136.856 Y89.731 E3.14521
G1 X136.971 Y90.685 E3.19315
G1 X137.062 Y91.54 E3.23604
G1 X137.428 Y94.251 E3.37252
G1 X137.87 Y96.945 E3.50872
G1 X138.385 Y99.617 E3.64448
G1 X138.977 Y102.271 E3.78015
G1 X139.776 Y105.404 E3.94145
G1 X140.039 Y106.366 E3.99121
G1 X140.157 Y107.065 E4.02658
G1 X140.174 Y107.319 E4.03928
G1 X140.195 Y107.834 E4.06499
G1 X140.221 Y109.479 E4.14707
G1 X140.219 Y111.199 E4.23288
G1 X140.209 Y111.913 E4.26851
G1 X140.161 Y112.448 E4.29531
G1 X140.077 Y112.828 E4.31472
G1 X139.944 Y113.306 E4.33948
G1 X139.259 Y115.935 E4.47502
G1 X138.635 Y118.627 E4.61288
G1 X138.108 Y121.252 E4.74646
G1 X137.647 Y123.935 E4.88227
G1 X137.256 Y126.661 E5.01967
G1 X136.932 Y129.503 E5.16237
G1 X136.863 Y130.194 E5.19702
G1 X136.77 Y130.722 E5.22377
G1 X136.6 Y131.231 E5.25054
G1 X136.356 Y131.709 E5.27731
G1 X135.92 Y132.285 E5.31335
G1 X135.713 Y132.507 E5.3285
G1 X135.505 Y132.719 E5.34331
G1 X125.608 Y142.617 E6.04164
G1 X125.114 Y143.096 E6.07597
G1 X124.702 Y143.439 E6.10271
G1 X124.244 Y143.718 E6.12947
G1 X123.75 Y143.925 E6.15619
G1 X123.23 Y144.057 E6.18296
G1 X122.729 Y144.109 E6.20808
G1 X122.503 Y144.116 E6.21937
G1 X122.094 Y144.121 E6.23977
G1 X97.984 Y144.121 E7.44262
G1 X97.282 Y144.111 E7.47765
G1 X96.748 Y144.063 E7.5044
G1 X96.226 Y143.937 E7.53119
G1 X95.73 Y143.734 E7.55793
G1 X95.269 Y143.46 E7.58468
G1 X94.885 Y143.15 E7.6093
G1 X94.662 Y142.942 E7.62452
G1 X94.441 Y142.725 E7.63997
G1 X84.542 Y132.827 E8.33836
G1 X84.071 Y132.34 E8.37216
G1 X83.728 Y131.928 E8.39891
G1 X83.45 Y131.469 E8.42568
G1 X83.243 Y130.974 E8.45245
G1 X83.112 Y130.454 E8.4792
G1 X83.061 Y129.959 E8.50403
G1 X83.054 Y129.733 E8.51531
G1 X83.049 Y129.324 E8.53572
G1 X83.049 Y90.814 E10.45699
G1 X83.059 Y90.112 E10.49202
G1 X83.107 Y89.578 E10.51876
G1 X83.233 Y89.056 E10.54556
G1 X83.436 Y88.56 E10.57229
G1 X83.71 Y88.099 E10.59905
G1 X84.02 Y87.715 E10.62367
G1 X84.227 Y87.493 E10.63881
G1 X84.435 Y87.281 E10.65363
G0 F6000 X84.718 Y87.563
G1 F1200 X94.621 Y77.66 E11.35234
G1 X95.108 Y77.189 E11.38614
G1 X95.498 Y76.867 E11.41137
G1 X95.934 Y76.611 E11.4366
G1 X96.405 Y76.427 E11.46183
G1 X96.899 Y76.319 E11.48705
G1 X97.225 Y76.291 E11.50338
G1 X97.442 Y76.284 E11.51421
G1 X97.851 Y76.279 E11.53462
G1 X121.951 Y76.279 E12.73697
G1 X122.652 Y76.289 E12.77195
G1 X123.155 Y76.336 E12.79715
G1 X123.645 Y76.462 E12.82239
G1 X124.108 Y76.664 E12.84759
G1 X124.535 Y76.936 E12.87285
G1 X124.775 Y77.136 E12.88844
G1 X124.994 Y77.339 E12.90334
G1 X125.158 Y77.499 E12.91477
G1 X135.103 Y87.445 E13.61648
G1 X135.575 Y87.93 E13.65024
G1 X135.898 Y88.319 E13.67546
G1 X136.156 Y88.754 E13.7007
G1 X136.342 Y89.224 E13.72591
G1 X136.459 Y89.779 E13.75421
G1 X136.573 Y90.728 E13.8019
G1 X136.665 Y91.595 E13.8454
G1 X137.031 Y94.303 E13.98173
G1 X137.475 Y97.014 E14.11878
G1 X137.995 Y99.708 E14.25567
G1 X138.578 Y102.321 E14.38924
G1 X139.39 Y105.509 E14.55336
G1 X139.653 Y106.471 E14.60312
G1 X139.758 Y107.093 E14.63459
G1 X139.774 Y107.336 E14.64674
G1 X139.795 Y107.84 E14.67191
G1 X139.821 Y109.479 E14.75369
G1 X139.819 Y111.194 E14.83925
G1 X139.809 Y111.908 E14.87487
G1 X139.762 Y112.411 E14.90008
G1 X139.692 Y112.721 E14.91593
G1 X139.559 Y113.199 E14.94069
G1 X138.868 Y115.849 E15.07732
G1 X138.246 Y118.531 E15.21467
G1 X137.716 Y121.171 E15.34901
G1 X137.249 Y123.888 E15.48655
G1 X136.857 Y126.626 E15.62454
G1 X136.539 Y129.413 E15.76449
G1 X136.465 Y130.155 E15.80169
G1 X136.375 Y130.652 E15.82689
G1 X136.208 Y131.129 E15.8521
G1 X135.968 Y131.574 E15.87733
G1 X135.627 Y132.013 E15.90506
G1 X135.427 Y132.227 E15.91967
G1 X135.222 Y132.437 E15.93431
G1 X125.33 Y142.329 E16.63225
G1 X124.836 Y142.808 E16.66658
G1 X124.446 Y143.131 E16.69184
G1 X124.01 Y143.387 E16.71707
G1 X123.54 Y143.572 E16.74227
G1 X123.046 Y143.681 E16.7675
G1 X122.715 Y143.709 E16.78408
G1 X122.498 Y143.716 E16.79491
G1 X122.089 Y143.721 E16.81532
G1 X97.989 Y143.721 E18.01767
G1 X97.287 Y143.711 E18.0527
G1 X96.784 Y143.664 E18.0779
G1 X96.294 Y143.538 E18.10314
G1 X95.831 Y143.336 E18.12834
G1 X95.404 Y143.065 E18.15357
G1 X95.157 Y142.857 E18.16968
G1 X94.942 Y142.656 E18.18437
G1 X94.723 Y142.442 E18.19964
G1 X84.83 Y132.549 E18.89765
G1 X84.359 Y132.062 E18.93145
G1 X84.037 Y131.672 E18.95668
G1 X83.781 Y131.236 E18.98191
G1 X83.597 Y130.765 E19.00713
G1 X83.489 Y130.271 E19.03236
G1 X83.461 Y129.945 E19.04869
G1 X83.454 Y129.728 E19.05952
G1 X83.449 Y129.319 E19.07992
G1 X83.449 Y90.819 E21.0007
G1 X83.459 Y90.117 E21.03572
G1 X83.506 Y89.614 E21.06093
G1 X83.632 Y89.124 E21.08617
G1 X83.834 Y88.661 E21.11137
G1 X84.105 Y88.234 E21.1366
G1 X84.313 Y87.987 E21.15271
G1 X84.513 Y87.773 E21.16733
G1 X84.718 Y87.563 E21.18197
G1 F1500 E14.68197
G0 F6000 X92.619 Y83.248
G0 X95.361 Y85.99
;TYPE:SUPPORT
G1 F1500 E21.18197
G1 F1200 X95.427 Y85.679 E21.19783
G1 X95.593 Y85.472 E21.21107
G1 X95.831 Y85.355 E21.2243
G1 X95.985 Y85.338 E21.23203
G1 X103.77 Y85.337 E21.62042
G1 X103.77 Y89.301 E21.81819
G1 X104.169 Y89.7 E21.84634
G1 X115.771 Y89.7 E22.42517
G1 X116.17 Y89.301 E22.45332
G1 X116.17 Y85.337 E22.65108
G1 X123.912 Y85.337 E23.03733
G1 X124.212 Y85.397 E23.0526
G1 X124.426 Y85.567 E23.06623
G1 X124.54 Y85.802 E23.07926
G1 X124.56 Y85.978 E23.0881
G1 X124.561 Y134.007 E25.48428
G1 X124.497 Y134.319 E25.50017
G1 X124.337 Y134.524 E25.51314
G1 X124.089 Y134.646 E25.52693
G1 X123.944 Y134.662 E25.53421
G1 X116.2 Y134.663 E25.92056
G1 X116.2 Y132.551 E26.02592
G1 X115.801 Y132.152 E26.05408
G1 X104.199 Y132.152 E26.6329
G1 X103.8 Y132.551 E26.66105
G1 X103.8 Y134.663 E26.76642
G1 X95.994 Y134.662 E27.15586
G1 X95.706 Y134.6 E27.17056
G1 X95.496 Y134.433 E27.18395
G1 X95.382 Y134.194 E27.19716
G1 X95.362 Y134.02 E27.2059
G1 X95.361 Y85.99 E29.60212
G0 F6000 X96.012 Y85.417
G1 F1200 X96.012 Y134.582 E32.05497
G0 F6000 X95.44 Y133.35
G1 F1200 X103.719 Y133.35 E32.46802
G0 F6000 X104.013 Y132.225
G1 F1200 X104.013 Y89.657 E34.59174
G0 F6000 X103.69 Y88.011
G1 F1200 X95.441 Y88.011 E35.00329
G0 F6000 X95.441 Y90.678
G1 F1200 X124.481 Y90.678 E36.4521
G0 F6000 X124.481 Y88.011
G1 F1200 X116.25 Y88.011 E36.86274
G0 F6000 X114.681 Y89.78
G1 F1200 X114.681 Y132.072 E38.9727
G0 F6000 X116.279 Y133.35
G1 F1200 X124.48 Y133.35 E39.38185
G0 F6000 X122.682 Y134.583
G1 F1200 X122.682 Y85.417 E41.83475
G0 F6000 X120.015 Y85.417
G1 F1200 X120.015 Y134.583 E44.28765
G0 F6000 X117.348 Y134.583
G1 F1200 X117.348 Y85.417 E46.74055
G1 F1500 E40.24055
G0 F6000 X115.305 Y85.417
G0 X112.014 Y88.835
G0 X112.014 Y89.78
G1 F1500 E46.74055
G1 F1200 X112.014 Y132.072 E48.85051
G0 F6000 X109.347 Y132.072
G1 F1200 X109.347 Y89.78 E50.96047
G0 F6000 X106.68 Y89.78
G1 F1200 X106.68 Y132.072 E53.07042
G1 F1500 E46.57042
G0 F6000 X106.68 Y133.017
G0 X104.665 Y134.582
G0 X101.346 Y134.582
G1 F1500 E53.07042
G1 F1200 X101.346 Y85.417 E55.52328
G0 F6000 X98.679 Y85.417
G1 F1200 X98.679 Y134.582 E57.97613
G0 F6000 X95.44 Y130.683
G1 F1200 X124.48 Y130.683 E59.42494
G0 F6000 X124.48 Y128.016
G1 F1200 X95.44 Y128.016 E60.87375
G0 F6000 X95.44 Y125.349
G1 F1200 X124.48 Y125.349 E62.32256
G0 F6000 X124.48 Y122.682
G1 F1200 X95.44 Y122.682 E63.77137
G0 F6000 X95.44 Y120.015
G1 F1200 X124.48 Y120.015 E65.22019
G0 F6000 X124.481 Y117.348
G1 F1200 X95.441 Y117.348 E66.669
G0 F6000 X95.441 Y114.681
G1 F1200 X124.481 Y114.681 E68.11781
G0 F6000 X124.481 Y112.014
G1 F1200 X95.441 Y112.014 E69.56662
G0 F6000 X95.441 Y109.347
G1 F1200 X124.481 Y109.347 E71.01543
G0 F6000 X124.481 Y106.68
G1 F1200 X95.441 Y106.68 E72.46424
G0 F6000 X95.441 Y104.013
G1 F1200 X124.481 Y104.013 E73.91305
G0 F6000 X124.481 Y101.346
G1 F1200 X95.441 Y101.346 E75.36187
G0 F6000 X95.441 Y98.679
G1 F1200 X124.481 Y98.679 E76.81068
G0 F6000 X124.481 Y96.012
G1 F1200 X95.441 Y96.012 E78.25949
G0 F6000 X95.441 Y93.345
G1 F1200 X124.481 Y93.345 E79.7083
G1 F1500 E73.2083
G0 F6000 X130.078 Y100.337
G0 X134.491 Y106.676
G0 X134.656 Y107.539
G1 F1500 E79.7083
G1 F1200 X136.383 Y107.519 E79.79447
G1 X136.421 Y108.682 E79.85252
G1 X136.419 Y111.66 E80.00109
G1 X134.657 Y111.659 E80.089
G1 X134.656 Y107.539 E80.29455
G0 F6000 X136.017 Y107.603
G1 F1200 X136.017 Y111.579 E80.49291
G0 F6000 X136.34 Y109.347
G1 F1200 X134.736 Y109.347 E80.57293
G1 F1500 E74.07293
;MESH:chasis_b.stl
G0 F6000 X137.286 Y109.348
G0 X137.209 Y106.658
G0 X135.141 Y106.676
G0 X130.437 Y100.814
G0 X131.175 Y102.081
G0 X130.291 Y102.126
;TYPE:WALL-INNER
G1 F1500 E80.57293
G1 F1200 X130.698 Y102.073 E80.59341
G1 X131.079 Y101.915 E80.61399
G1 X131.405 Y101.664 E80.63451
G1 X131.656 Y101.338 E80.65504
G1 X131.814 Y100.957 E80.67562
G1 X131.867 Y100.55 E80.6961
G1 X131.814 Y100.143 E80.71657
G1 X131.656 Y99.761 E80.7372
G1 X131.404 Y99.434 E80.75779
G1 X131.079 Y99.185 E80.77822
G1 X130.698 Y99.027 E80.7988
G1 X130.291 Y98.974 E80.81927
G1 X129.884 Y99.027 E80.83975
G1 X129.503 Y99.184 E80.86031
G1 X129.176 Y99.435 E80.88088
G1 X128.925 Y99.762 E80.90144
G1 X128.768 Y100.143 E80.922
G1 X128.715 Y100.55 E80.94248
G1 X128.768 Y100.957 E80.96295
G1 X128.926 Y101.338 E80.98353
G1 X129.175 Y101.663 E81.00396
G1 X129.502 Y101.915 E81.02455
G1 X129.884 Y102.073 E81.04518
G1 X130.291 Y102.126 E81.06565
G0 F6000 X130.291 Y101.723
;TYPE:WALL-OUTER
G1 F1200 X130.594 Y101.683 E81.0809
G1 X130.877 Y101.566 E81.09618
G1 X131.12 Y101.379 E81.11148
G1 X131.307 Y101.136 E81.12678
G1 X131.424 Y100.853 E81.14205
G1 X131.464 Y100.55 E81.1573
G1 X131.424 Y100.247 E81.17255
G1 X131.307 Y99.963 E81.18787
G1 X131.119 Y99.72 E81.2032
G1 X130.877 Y99.534 E81.21843
G1 X130.594 Y99.417 E81.23371
G1 X130.291 Y99.377 E81.24895
G1 X129.988 Y99.417 E81.2642
G1 X129.704 Y99.534 E81.27953
G1 X129.461 Y99.72 E81.29479
G1 X129.275 Y99.963 E81.31006
G1 X129.158 Y100.247 E81.32539
G1 X129.118 Y100.55 E81.34063
G1 X129.158 Y100.853 E81.35588
G1 X129.275 Y101.136 E81.37116
G1 X129.461 Y101.378 E81.38639
G1 X129.704 Y101.566 E81.40171
G1 X129.988 Y101.683 E81.41704
G1 X130.291 Y101.723 E81.43229
G0 F6000 X130.489 Y101.697
G0 X130.545 Y102.134
G1 F1500 E74.93229
G0 F6000 X128.76 Y101.434
G0 X130.028 Y100.699
G0 X89.913 Y100.696
G0 X91.18 Y101.434
G0 X90.056 Y102.073
;TYPE:WALL-INNER
G1 F1500 E81.43229
G1 F1200 X90.437 Y101.915 E81.45286
G1 X90.763 Y101.664 E81.47339
G1 X91.014 Y101.338 E81.49392
G1 X91.172 Y100.957 E81.51449
G1 X91.225 Y100.55 E81.53497
G1 X91.172 Y100.143 E81.55545
G1 X91.014 Y99.761 E81.57607
G1 X90.762 Y99.434 E81.59667
G1 X90.437 Y99.185 E81.61709
G1 X90.056 Y99.027 E81.63767
G1 X89.649 Y98.974 E81.65815
G1 X89.242 Y99.027 E81.67863
G1 X88.861 Y99.184 E81.69919
G1 X88.534 Y99.435 E81.71975
G1 X88.283 Y99.762 E81.74032
G1 X88.126 Y100.143 E81.76088
G1 X88.073 Y100.55 E81.78135
G1 X88.126 Y100.957 E81.80183
G1 X88.284 Y101.338 E81.82241
G1 X88.533 Y101.663 E81.84283
G1 X88.86 Y101.915 E81.86343
G1 X89.242 Y102.073 E81.88405
G1 X89.649 Y102.126 E81.90453
G1 X90.056 Y102.073 E81.92501
G0 F6000 X89.952 Y101.683
;TYPE:WALL-OUTER
G1 F1200 X90.235 Y101.566 E81.94029
G1 X90.478 Y101.379 E81.95558
G1 X90.665 Y101.136 E81.97088
G1 X90.782 Y100.853 E81.98616
G1 X90.822 Y100.55 E82.00141
G1 X90.782 Y100.247 E82.01665
G1 X90.665 Y99.963 E82.03198
G1 X90.477 Y99.72 E82.04731
G1 X90.235 Y99.534 E82.06253
G1 X89.952 Y99.417 E82.07781
G1 X89.649 Y99.377 E82.09306
G1 X89.346 Y99.417 E82.10831
G1 X89.062 Y99.534 E82.12363
G1 X88.819 Y99.72 E82.1389
G1 X88.633 Y99.963 E82.15417
G1 X88.516 Y100.247 E82.16949
G1 X88.476 Y100.55 E82.18474
G1 X88.516 Y100.853 E82.19999
G1 X88.633 Y101.136 E82.21526
G1 X88.819 Y101.378 E82.23049
G1 X89.062 Y101.566 E82.24582
G1 X89.346 Y101.683 E82.26114
G1 X89.649 Y101.723 E82.27639
G1 X89.952 Y101.683 E82.29164
G0 F6000 X90.136 Y101.607
G0 X90.303 Y102.013
G1 F1500 E75.79164
G0 F6000 X89.649 Y102.318
G0 X89.649 Y100.851
G0 X89.649 Y128.649
G0 X89.649 Y127.182
G0 X90.577 Y128.021
G0 X90.786 Y128.295
G0 X90.917 Y128.611
G0 X90.963 Y128.95
G0 X90.917 Y129.289
G0 X90.812 Y129.547
G0 X90.056 Y130.473
;TYPE:WALL-INNER
G1 F1500 E82.29164
G1 F1200 X90.437 Y130.315 E82.31222
G1 X90.762 Y130.066 E82.33264
G1 X91.014 Y129.739 E82.35324
G1 X91.172 Y129.357 E82.37386
G1 X91.225 Y128.95 E82.39434
G1 X91.172 Y128.543 E82.41482
G1 X91.015 Y128.162 E82.43538
G1 X90.763 Y127.835 E82.45597
G1 X90.436 Y127.584 E82.47654
G1 X90.056 Y127.427 E82.49705
G1 X89.649 Y127.374 E82.51753
G1 X89.242 Y127.427 E82.538
G1 X88.861 Y127.584 E82.55856
G1 X88.533 Y127.835 E82.57917
G1 X88.283 Y128.163 E82.59974
G1 X88.126 Y128.543 E82.62026
G1 X88.073 Y128.95 E82.64073
G1 X88.126 Y129.357 E82.66121
G1 X88.283 Y129.738 E82.68177
G1 X88.534 Y130.065 E82.70233
G1 X88.861 Y130.316 E82.7229
G1 X89.242 Y130.473 E82.74346
G1 X89.649 Y130.526 E82.76394
G1 X90.056 Y130.473 E82.78441
G0 F6000 X89.952 Y130.083
;TYPE:WALL-OUTER
G1 F1200 X90.235 Y129.966 E82.79969
G1 X90.477 Y129.78 E82.81492
G1 X90.665 Y129.537 E82.83025
G1 X90.782 Y129.253 E82.84557
G1 X90.822 Y128.95 E82.86082
G1 X90.782 Y128.647 E82.87607
G1 X90.665 Y128.364 E82.89134
G1 X90.478 Y128.12 E82.90668
G1 X90.235 Y127.934 E82.92195
G1 X89.952 Y127.817 E82.93723
G1 X89.649 Y127.777 E82.95247
G1 X89.346 Y127.817 E82.96772
G1 X89.062 Y127.934 E82.98305
G1 X88.819 Y128.12 E82.99831
G1 X88.633 Y128.364 E83.01362
G1 X88.516 Y128.647 E83.0289
G1 X88.476 Y128.95 E83.04415
G1 X88.516 Y129.253 E83.05939
G1 X88.633 Y129.537 E83.07472
G1 X88.819 Y129.78 E83.08999
G1 X89.062 Y129.966 E83.10525
G1 X89.346 Y130.083 E83.12058
G1 X89.649 Y130.123 E83.13582
G1 X89.952 Y130.083 E83.15107
G0 F6000 X90.136 Y130.007
G0 X90.303 Y130.413
G1 F1500 E76.65107
G0 F6000 X90.898 Y130.202
G0 X93.652 Y130.202
G0 X94.182 Y135.483
G0 X95.937 Y136.334
G0 X100.708 Y136.398
G0 X103.941 Y139.239
;TYPE:WALL-INNER
G1 F1500 E83.15107
G1 F1200 X104.434 Y139.373 E83.17656
G1 X115.575 Y139.372 E83.73239
G1 X116.059 Y139.239 E83.75743
G1 X116.466 Y138.832 E83.78615
G1 X116.6 Y138.339 E83.81163
G1 X116.6 Y136.163 E83.92019
G1 X124.03 Y136.162 E84.29088
G1 X124.323 Y136.13 E84.30558
G1 X124.467 Y136.104 E84.31288
G1 X124.866 Y135.962 E84.33401
G1 X125.271 Y135.709 E84.35784
G1 X125.606 Y135.376 E84.3814
G1 X125.857 Y134.976 E84.40496
G1 X126.013 Y134.532 E84.42844
G1 X126.061 Y134.096 E84.45032
G1 X126.06 Y85.89 E86.85533
G1 X126.012 Y85.469 E86.87647
G1 X125.857 Y85.025 E86.89993
G1 X125.606 Y84.625 E86.92349
G1 X125.271 Y84.292 E86.94706
G1 X124.863 Y84.036 E86.97109
G1 X124.434 Y83.888 E86.99373
G1 X124.051 Y83.841 E87.01298
G1 X123.978 Y83.837 E87.01663
G1 X116.57 Y83.837 E87.38622
G1 X116.569 Y80.925 E87.5315
G1 X116.442 Y80.464 E87.55535
G1 X116.436 Y80.441 E87.55654
G1 X116.074 Y80.079 E87.58208
G1 X116.436 Y80.079 E87.58911
G1 X116.46 Y80.079 E87.59027
G1 X122.364 Y80.079 E87.88482
G1 X132.691 Y90.406 E88.61345
G1 X132.691 Y129.594 E90.56854
G1 X122.364 Y139.921 E91.29717
G1 X97.576 Y139.921 E92.53385
G1 X87.249 Y129.594 E93.26247
G1 X87.249 Y90.406 E95.21757
G1 X97.576 Y80.079 E95.94619
G1 X103.456 Y80.079 E96.23955
