;FLAVOR:Marlin
;TIME:5920
;Filament used: 4.91295m
;Layer height: 0.3
;MINX:73.079
;MINY:73.079
;MINZ:0.3
;MAXX:146.921
;MAXY:146.921
;MAXZ:16.5
;Generated with Cura_SteamEngine 4.8.0
M140 S60
M105
M190 S60
M104 S200
M105
M109 S200
M82 ;absolute extrusion mode
G21 
G90
M107
G28 X0 Y0
G28 Z0
G1 Z15.0 F{travel_xy_speed}
G29
G92 E0
G1 F200 E10
G92 E0
G1 F{travel_xy_speed}
M117 Printing...
G92 E0
G92 E0
G1 F1500 E-6.5
;LAYER_COUNT:55
;LAYER:0
M107
M204 S1000
G0 F6000 X78.826 Y88.959 Z0.3
;TYPE:SKIRT
G1 F1500 E0
G1 F1200 X89.267 Y78.521 E0.73656
G1 X90.093 Y77.72 E0.79397
G1 X90.687 Y77.19 E0.83368
G1 X90.844 Y77.057 E0.84395
G1 X91.388 Y76.626 E0.87857
G1 X91.906 Y76.241 E0.91077
G1 X92.069 Y76.127 E0.9207
G1 X92.694 Y75.717 E0.95799
G1 X93.11 Y75.46 E0.98239
G1 X93.293 Y75.354 E0.99294
G1 X94.014 Y74.967 E1.03376
G1 X94.469 Y74.739 E1.05915
G1 X94.654 Y74.653 E1.06933
G1 X95.228 Y74.405 E1.10053
G1 X95.78 Y74.183 E1.13021
G1 X95.987 Y74.107 E1.14121
G1 X96.691 Y73.874 E1.17821
G1 X97.289 Y73.695 E1.20935
G1 X97.486 Y73.642 E1.21953
G1 X98.14 Y73.488 E1.25305
G1 X98.664 Y73.379 E1.27975
G1 X98.872 Y73.343 E1.29028
G1 X99.672 Y73.226 E1.33062
G1 X100.195 Y73.166 E1.35688
G1 X100.396 Y73.149 E1.36694
G1 X101.155 Y73.106 E1.40487
G1 X102.026 Y73.081 E1.44834
G1 X117.567 Y73.079 E2.22369
G1 X118.71 Y73.097 E2.28072
G1 X118.904 Y73.106 E2.29041
G1 X119.571 Y73.145 E2.32374
G1 X119.777 Y73.163 E2.33406
G1 X120.539 Y73.253 E2.37234
G1 X121.062 Y73.33 E2.39871
G1 X121.267 Y73.367 E2.40911
G1 X122.035 Y73.527 E2.44824
G1 X122.515 Y73.642 E2.47287
G1 X122.703 Y73.693 E2.48259
G1 X123.43 Y73.911 E2.52045
G1 X123.941 Y74.081 E2.54732
G1 X124.136 Y74.152 E2.55767
G1 X124.767 Y74.403 E2.59155
G1 X125.309 Y74.636 E2.62099
G1 X125.494 Y74.722 E2.63117
G1 X126.116 Y75.034 E2.66588
G1 X126.649 Y75.321 E2.69608
G1 X126.821 Y75.42 E2.70598
G1 X127.396 Y75.774 E2.73967
G1 X127.896 Y76.101 E2.76948
G1 X128.066 Y76.22 E2.77983
G1 X128.708 Y76.699 E2.81979
G1 X129.081 Y76.994 E2.84352
G1 X129.245 Y77.132 E2.85421
G1 X129.608 Y77.456 E2.87849
G1 X129.701 Y77.542 E2.88481
G1 X131.051 Y78.836 E2.9781
G1 X141.479 Y89.267 E3.71396
G1 X142.28 Y90.093 E3.77136
G1 X142.81 Y90.687 E3.81108
G1 X142.943 Y90.844 E3.82135
G1 X143.374 Y91.388 E3.85597
G1 X143.759 Y91.906 E3.88817
G1 X143.873 Y92.069 E3.89809
G1 X144.283 Y92.694 E3.93539
G1 X144.54 Y93.11 E3.95978
G1 X144.646 Y93.293 E3.97033
G1 X145.033 Y94.014 E4.01116
G1 X145.261 Y94.469 E4.03655
G1 X145.347 Y94.654 E4.04673
G1 X145.595 Y95.228 E4.07792
G1 X145.817 Y95.78 E4.1076
G1 X145.893 Y95.987 E4.11861
G1 X146.126 Y96.691 E4.1556
G1 X146.302 Y97.276 E4.18608
G1 X146.356 Y97.478 E4.19651
G1 X146.512 Y98.14 E4.23044
G1 X146.621 Y98.664 E4.25715
G1 X146.657 Y98.872 E4.26768
G1 X146.773 Y99.667 E4.30776
G1 X146.832 Y100.176 E4.33332
G1 X146.85 Y100.382 E4.34364
G1 X146.895 Y101.177 E4.38337
G1 X146.92 Y102.065 E4.42769
G1 X146.921 Y117.568 E5.20114
G1 X146.903 Y118.711 E5.25817
G1 X146.894 Y118.904 E5.26781
G1 X146.856 Y119.559 E5.30054
G1 X146.837 Y119.772 E5.31121
G1 X146.742 Y120.566 E5.3511
G1 X146.666 Y121.078 E5.37693
G1 X146.631 Y121.275 E5.38691
G1 X146.5 Y121.911 E5.41931
G1 X146.355 Y122.521 E5.45059
G1 X146.305 Y122.707 E5.4602
G1 X146.122 Y123.322 E5.49221
G1 X145.922 Y123.931 E5.52419
G1 X145.849 Y124.132 E5.53486
G1 X145.592 Y124.777 E5.5695
G1 X145.353 Y125.332 E5.59964
G1 X145.268 Y125.516 E5.60975
G1 X144.989 Y126.072 E5.64079
G1 X144.679 Y126.648 E5.67342
G1 X144.576 Y126.827 E5.68373
G1 X144.22 Y127.405 E5.71759
G1 X144.158 Y127.502 E5.72334
G1 X143.877 Y127.927 E5.74876
G1 X143.764 Y128.088 E5.75857
G1 X143.328 Y128.673 E5.79497
G1 X143.014 Y129.071 E5.82026
G1 X142.877 Y129.234 E5.83089
G1 X142.416 Y129.752 E5.86548
G1 X141.73 Y130.482 E5.91546
G1 X141.655 Y130.56 E5.92086
G1 X130.733 Y141.479 E6.69136
G1 X129.907 Y142.28 E6.74876
G1 X129.313 Y142.81 E6.78848
G1 X129.156 Y142.943 E6.79874
G1 X128.612 Y143.374 E6.83337
G1 X128.094 Y143.759 E6.86557
G1 X127.931 Y143.873 E6.87549
G1 X127.306 Y144.283 E6.91278
G1 X126.89 Y144.54 E6.93718
G1 X126.707 Y144.646 E6.94773
G1 X125.986 Y145.033 E6.98855
G1 X125.531 Y145.261 E7.01395
G1 X125.346 Y145.347 E7.02412
G1 X124.772 Y145.595 E7.05532
G1 X124.22 Y145.817 E7.085
G1 X124.013 Y145.893 E7.096
G1 X123.309 Y146.126 E7.133
G1 X122.711 Y146.305 E7.16414
G1 X122.514 Y146.358 E7.17432
G1 X121.86 Y146.512 E7.20784
G1 X121.336 Y146.621 E7.23454
G1 X121.128 Y146.657 E7.24507
G1 X120.328 Y146.774 E7.28541
G1 X119.805 Y146.834 E7.31167
G1 X119.606 Y146.851 E7.32164
G1 X118.976 Y146.888 E7.35312
G1 X117.988 Y146.919 E7.40244
G1 X117.878 Y146.921 E7.40793
G1 X102.433 Y146.921 E8.17848
G1 X101.29 Y146.903 E8.23551
G1 X101.096 Y146.894 E8.2452
G1 X100.428 Y146.855 E8.27859
G1 X100.222 Y146.837 E8.2889
G1 X99.461 Y146.747 E8.32713
G1 X98.938 Y146.67 E8.35351
G1 X98.733 Y146.633 E8.3639
G1 X98.075 Y146.497 E8.39742
G1 X97.963 Y146.472 E8.40315
G1 X97.48 Y146.356 E8.42793
G1 X97.294 Y146.306 E8.43754
G1 X96.57 Y146.089 E8.47525
G1 X96.059 Y145.919 E8.50211
G1 X95.864 Y145.848 E8.51247
G1 X95.134 Y145.556 E8.55169
G1 X94.688 Y145.363 E8.57594
G1 X94.504 Y145.277 E8.58607
G1 X93.884 Y144.966 E8.62068
G1 X93.351 Y144.679 E8.65088
G1 X93.178 Y144.579 E8.66085
G1 X92.51 Y144.166 E8.70003
G1 X92.098 Y143.895 E8.72463
G1 X91.927 Y143.775 E8.73505
G1 X91.294 Y143.303 E8.77445
G1 X90.895 Y142.988 E8.79981
G1 X90.73 Y142.849 E8.81057
G1 X90.194 Y142.369 E8.84647
G1 X89.527 Y141.74 E8.89221
G1 X89.451 Y141.666 E8.8975
G1 X78.521 Y130.733 E9.66878
G1 X77.721 Y129.907 E9.72615
G1 X77.642 Y129.821 E9.73197
G1 X77.189 Y129.312 E9.76597
G1 X77.056 Y129.154 E9.77627
G1 X76.556 Y128.52 E9.81655
G1 X76.241 Y128.095 E9.84295
G1 X76.125 Y127.928 E9.85309
G1 X75.717 Y127.305 E9.89024
G1 X75.459 Y126.887 E9.91475
G1 X75.353 Y126.705 E9.92526
G1 X74.967 Y125.986 E9.96597
G1 X74.739 Y125.531 E9.99136
G1 X74.653 Y125.346 E10.00154
G1 X74.368 Y124.683 E10.03755
G1 X74.182 Y124.219 E10.06248
G1 X74.105 Y124.009 E10.07364
G1 X73.865 Y123.282 E10.11184
G1 X73.694 Y122.71 E10.14162
G1 X73.642 Y122.514 E10.15174
G1 X73.488 Y121.86 E10.18526
G1 X73.379 Y121.336 E10.21196
G1 X73.343 Y121.128 E10.2225
G1 X73.242 Y120.443 E10.25704
G1 X73.227 Y120.329 E10.26278
G1 X73.168 Y119.816 E10.28854
G1 X73.15 Y119.616 E10.29856
G1 X73.105 Y118.823 E10.33818
G1 X73.081 Y117.958 E10.38136
G1 X73.079 Y102.433 E11.1559
G1 X73.097 Y101.29 E11.21293
G1 X73.106 Y101.095 E11.22267
G1 X73.146 Y100.414 E11.2567
G1 X73.164 Y100.206 E11.26712
G1 X73.239 Y99.566 E11.29927
G1 X73.33 Y98.938 E11.33093
G1 X73.367 Y98.733 E11.34132
G1 X73.503 Y98.075 E11.37484
G1 X73.528 Y97.963 E11.38057
G1 X73.644 Y97.48 E11.40535
G1 X73.694 Y97.294 E11.41496
G1 X73.911 Y96.57 E11.45267
G1 X74.081 Y96.059 E11.47953
G1 X74.152 Y95.864 E11.48989
G1 X74.403 Y95.233 E11.52377
G1 X74.636 Y94.691 E11.5532
G1 X74.722 Y94.506 E11.56338
G1 X75.034 Y93.884 E11.5981
G1 X75.085 Y93.786 E11.60361
G1 X75.318 Y93.355 E11.62805
G1 X75.42 Y93.178 E11.63824
G1 X75.775 Y92.602 E11.672
G1 X76.101 Y92.104 E11.70169
G1 X76.22 Y91.934 E11.71205
G1 X76.634 Y91.377 E11.74667
G1 X77.002 Y90.91 E11.77633
G1 X77.136 Y90.75 E11.78675
G1 X77.455 Y90.392 E11.81067
G1 X77.543 Y90.297 E11.81713
G1 X78.826 Y88.959 E11.90961
G0 F6000 X79.108 Y89.242
G1 F1200 X89.545 Y78.808 E12.64589
G1 X90.369 Y78.011 E12.70309
G1 X90.444 Y77.942 E12.70817
G1 X90.953 Y77.489 E12.74217
G1 X91.093 Y77.371 E12.7513
G1 X91.72 Y76.876 E12.79115
G1 X92.144 Y76.562 E12.81748
G1 X92.289 Y76.461 E12.82629
G1 X92.904 Y76.058 E12.86298
G1 X93.32 Y75.801 E12.88737
G1 X93.483 Y75.706 E12.89678
G1 X94.108 Y75.369 E12.93221
G1 X94.648 Y75.097 E12.96238
G1 X94.813 Y75.02 E12.97146
G1 X95.466 Y74.739 E13.00693
G1 X95.928 Y74.554 E13.03175
G1 X96.113 Y74.487 E13.04157
G1 X96.909 Y74.225 E13.08338
G1 X97.403 Y74.078 E13.10909
G1 X97.578 Y74.031 E13.11813
G1 X98.221 Y73.88 E13.15109
G1 X98.745 Y73.771 E13.17779
G1 X98.93 Y73.738 E13.18716
G1 X99.615 Y73.637 E13.22171
G1 X100.24 Y73.564 E13.2531
G1 X100.419 Y73.548 E13.26207
G1 X101.166 Y73.506 E13.29939
G1 X102.037 Y73.481 E13.34287
G1 X117.561 Y73.479 E14.11736
G1 X118.601 Y73.494 E14.16925
G1 X118.881 Y73.505 E14.18323
G1 X119.548 Y73.544 E14.21657
G1 X119.73 Y73.56 E14.22568
G1 X120.384 Y73.636 E14.25853
G1 X121.004 Y73.726 E14.28979
G1 X121.186 Y73.758 E14.299
G1 X121.844 Y73.894 E14.33253
G1 X122.422 Y74.031 E14.36216
G1 X122.589 Y74.076 E14.37079
G1 X123.207 Y74.26 E14.40296
G1 X123.815 Y74.461 E14.43491
G1 X123.988 Y74.524 E14.44409
G1 X124.706 Y74.811 E14.48267
G1 X125.15 Y75.003 E14.5068
G1 X125.315 Y75.08 E14.51589
G1 X126.026 Y75.438 E14.5556
G1 X126.458 Y75.672 E14.58011
G1 X126.612 Y75.761 E14.58899
G1 X127.267 Y76.166 E14.62741
G1 X127.676 Y76.435 E14.65183
G1 X127.827 Y76.541 E14.66104
G1 X128.46 Y77.013 E14.70043
G1 X128.833 Y77.308 E14.72415
G1 X128.979 Y77.431 E14.73368
G1 X129.342 Y77.755 E14.75795
G1 X129.424 Y77.831 E14.76353
G1 X130.768 Y79.118 E14.85637
G1 X141.192 Y89.545 E15.59194
G1 X141.989 Y90.369 E15.64914
G1 X142.058 Y90.444 E15.65422
G1 X142.511 Y90.953 E15.68822
G1 X142.629 Y91.093 E15.69735
G1 X143.124 Y91.72 E15.73721
G1 X143.438 Y92.144 E15.76353
G1 X143.539 Y92.289 E15.77234
G1 X143.942 Y92.904 E15.80903
G1 X144.199 Y93.32 E15.83342
G1 X144.294 Y93.483 E15.84284
G1 X144.631 Y94.108 E15.87826
G1 X144.903 Y94.648 E15.90843
G1 X144.98 Y94.813 E15.91751
G1 X145.261 Y95.466 E15.95298
G1 X145.446 Y95.928 E15.97781
G1 X145.513 Y96.113 E15.98762
G1 X145.774 Y96.905 E16.02922
G1 X145.919 Y97.39 E16.05448
G1 X145.967 Y97.57 E16.06377
G1 X146.12 Y98.221 E16.09714
G1 X146.229 Y98.745 E16.12384
G1 X146.262 Y98.93 E16.13321
G1 X146.376 Y99.714 E16.17274
G1 X146.435 Y100.223 E16.1983
G1 X146.451 Y100.405 E16.20742
G1 X146.495 Y101.188 E16.24654
G1 X146.521 Y102.166 E16.29535
G1 X146.521 Y117.562 E17.06346
G1 X146.506 Y118.602 E17.11536
G1 X146.495 Y118.88 E17.12924
G1 X146.457 Y119.535 E17.16197
G1 X146.44 Y119.725 E17.17149
G1 X146.359 Y120.412 E17.206
G1 X146.27 Y121.019 E17.23661
G1 X146.239 Y121.195 E17.24552
G1 X146.108 Y121.831 E17.27792
G1 X145.966 Y122.428 E17.30853
G1 X145.922 Y122.593 E17.31705
G1 X145.71 Y123.302 E17.35397
G1 X145.543 Y123.806 E17.38046
G1 X145.478 Y123.983 E17.38987
G1 X145.221 Y124.628 E17.42451
G1 X144.986 Y125.173 E17.45412
G1 X144.91 Y125.336 E17.46309
G1 X144.631 Y125.892 E17.49413
G1 X144.327 Y126.458 E17.52618
G1 X144.236 Y126.617 E17.53532
G1 X143.88 Y127.195 E17.56919
G1 X143.543 Y127.707 E17.59977
G1 X143.443 Y127.85 E17.60847
G1 X143.071 Y128.351 E17.6396
G1 X142.7 Y128.823 E17.66956
G1 X142.578 Y128.968 E17.67901
G1 X142.056 Y129.553 E17.71813
G1 X141.373 Y130.277 E17.76778
G1 X130.455 Y141.192 E18.538
G1 X129.631 Y141.989 E18.59519
G1 X129.556 Y142.058 E18.60028
G1 X129.047 Y142.511 E18.63427
G1 X128.907 Y142.629 E18.64341
G1 X128.28 Y143.124 E18.68326
G1 X127.856 Y143.438 E18.70958
G1 X127.711 Y143.539 E18.7184
G1 X127.096 Y143.942 E18.75508
G1 X126.68 Y144.199 E18.77948
G1 X126.517 Y144.294 E18.78889
G1 X125.892 Y144.631 E18.82432
G1 X125.352 Y144.903 E18.85448
G1 X125.187 Y144.98 E18.86357
G1 X124.534 Y145.261 E18.89903
G1 X124.072 Y145.446 E18.92386
G1 X123.887 Y145.513 E18.93368
G1 X123.091 Y145.775 E18.97549
G1 X122.597 Y145.922 E19.0012
G1 X122.422 Y145.969 E19.01024
G1 X121.779 Y146.12 E19.04319
G1 X121.255 Y146.229 E19.06989
G1 X121.07 Y146.262 E19.07927
G1 X120.385 Y146.363 E19.11381
G1 X119.76 Y146.436 E19.14521
G1 X119.583 Y146.451 E19.15407
G1 X118.862 Y146.493 E19.1901
G1 X117.975 Y146.52 E19.23437
G1 X102.439 Y146.521 E20.00947
G1 X101.399 Y146.506 E20.06136
G1 X101.119 Y146.495 E20.07534
G1 X100.451 Y146.456 E20.10872
G1 X100.268 Y146.44 E20.11789
G1 X99.615 Y146.364 E20.15069
G1 X98.996 Y146.274 E20.18189
G1 X98.814 Y146.242 E20.19111
G1 X98.057 Y146.084 E20.22969
G1 X97.574 Y145.968 E20.25448
G1 X97.408 Y145.923 E20.26306
G1 X96.793 Y145.74 E20.29507
G1 X96.185 Y145.539 E20.32702
G1 X96.012 Y145.476 E20.3362
G1 X95.293 Y145.189 E20.37482
G1 X94.847 Y144.996 E20.39907
G1 X94.683 Y144.919 E20.40811
G1 X93.974 Y144.562 E20.44771
G1 X93.542 Y144.328 E20.47222
G1 X93.388 Y144.239 E20.4811
G1 X92.81 Y143.883 E20.51496
G1 X92.317 Y143.56 E20.54437
G1 X92.166 Y143.454 E20.55357
G1 X91.542 Y142.989 E20.5924
G1 X91.143 Y142.674 E20.61776
G1 X90.996 Y142.55 E20.62735
G1 X90.469 Y142.078 E20.66265
G1 X89.734 Y141.384 E20.71308
G1 X78.808 Y130.455 E21.48408
G1 X78.011 Y129.632 E21.54123
G1 X77.488 Y129.046 E21.58042
G1 X77.369 Y128.906 E21.58959
G1 X76.939 Y128.363 E21.62414
G1 X76.562 Y127.856 E21.65566
G1 X76.459 Y127.709 E21.66462
G1 X76.057 Y127.095 E21.70123
G1 X75.799 Y126.677 E21.72574
G1 X75.706 Y126.515 E21.73506
G1 X75.325 Y125.807 E21.77517
G1 X75.097 Y125.352 E21.80056
G1 X75.02 Y125.187 E21.80965
G1 X74.74 Y124.535 E21.84505
G1 X74.554 Y124.071 E21.86999
G1 X74.485 Y123.883 E21.87998
G1 X74.216 Y123.064 E21.92299
G1 X74.077 Y122.596 E21.94734
G1 X74.031 Y122.422 E21.95632
G1 X73.88 Y121.779 E21.98927
G1 X73.771 Y121.255 E22.01598
G1 X73.738 Y121.07 E22.02535
G1 X73.637 Y120.385 E22.05989
G1 X73.565 Y119.771 E22.09074
G1 X73.549 Y119.592 E22.0997
G1 X73.509 Y118.91 E22.13379
G1 X73.481 Y117.947 E22.18185
G1 X73.479 Y102.439 E22.95555
G1 X73.494 Y101.399 E23.00744
G1 X73.506 Y101.118 E23.02147
G1 X73.546 Y100.437 E23.05551
G1 X73.562 Y100.253 E23.06472
G1 X73.649 Y99.519 E23.1016
G1 X73.726 Y98.996 E23.12797
G1 X73.758 Y98.814 E23.13719
G1 X73.916 Y98.057 E23.17577
G1 X74.032 Y97.574 E23.20055
G1 X74.077 Y97.408 E23.20913
G1 X74.26 Y96.793 E23.24114
G1 X74.461 Y96.185 E23.27309
G1 X74.524 Y96.012 E23.28228
G1 X74.811 Y95.294 E23.32085
G1 X75.003 Y94.85 E23.34499
G1 X75.08 Y94.685 E23.35407
G1 X75.437 Y93.976 E23.39368
G1 X75.67 Y93.545 E23.41812
G1 X75.761 Y93.388 E23.42717
G1 X76.166 Y92.733 E23.46559
G1 X76.435 Y92.324 E23.49002
G1 X76.541 Y92.173 E23.49922
G1 X76.955 Y91.616 E23.53384
G1 X77.316 Y91.158 E23.56294
G1 X77.435 Y91.016 E23.57218
G1 X77.832 Y90.573 E23.60186
G1 X79.108 Y89.242 E23.69385
G1 F1500 E17.19385
;MESH:ehat.stl
G0 F6000 X80.201 Y91.736
G0 X81.244 Y92.778
G0 X80.432 Y93.605
G0 X79.76 Y94.478
G0 X79.16 Y95.42
G0 X78.651 Y96.394
G0 X78.219 Y97.435
G0 X77.886 Y98.487
G0 X77.646 Y99.56
G0 X77.502 Y100.646
G0 X77.45 Y101.814
G0 X77.45 Y118.16
G0 X77.5 Y119.318
G0 X77.645 Y120.428
G0 X77.877 Y121.477
G0 X78.218 Y122.562
G0 X78.64 Y123.578
G0 X79.154 Y124.568
G0 X79.739 Y125.489
G0 X80.437 Y126.402
G0 X81.167 Y127.166
G0 X92.816 Y138.814
G0 X93.59 Y139.556
G0 X94.486 Y140.244
G0 X95.415 Y140.837
G0 X96.404 Y141.354
G0 X97.428 Y141.778
G0 X98.489 Y142.114
G0 X99.561 Y142.353
G0 X100.662 Y142.499
G0 X118.183 Y142.721
;TYPE:WALL-INNER
G1 F1500 E23.69385
G1 F1200 X101.805 Y142.721 E24.51095
G1 X100.65 Y142.67 E24.56863
G1 X99.528 Y142.521 E24.6251
G1 X98.449 Y142.28 E24.68026
G1 X97.367 Y141.938 E24.73687
G1 X96.332 Y141.509 E24.79277
G1 X95.328 Y140.984 E24.84929
G1 X94.383 Y140.382 E24.90519
G1 X93.481 Y139.689 E24.96194
G1 X92.658 Y138.933 E25.01769
G1 X81.049 Y127.323 E25.83681
G1 X80.305 Y126.511 E25.89175
G1 X79.604 Y125.595 E25.9493
G1 X79.007 Y124.656 E26.00481
G1 X78.483 Y123.646 E26.06158
G1 X78.061 Y122.63 E26.11646
G1 X77.712 Y121.519 E26.17456
G1 X77.477 Y120.46 E26.22868
G1 X77.329 Y119.328 E26.28564
G1 X77.279 Y118.16 E26.34396
G1 X77.279 Y101.805 E27.15992
G1 X77.331 Y100.634 E27.2184
G1 X77.478 Y99.532 E27.27386
G1 X77.719 Y98.451 E27.32912
G1 X78.062 Y97.367 E27.38584
G1 X78.493 Y96.329 E27.44191
G1 X79.013 Y95.333 E27.49797
G1 X79.618 Y94.383 E27.55416
G1 X80.307 Y93.488 E27.61051
G1 X81.089 Y92.636 E27.66821
G1 X92.671 Y81.055 E28.48534
G1 X93.489 Y80.305 E28.54071
G1 X94.41 Y79.601 E28.59855
G1 X95.337 Y79.01 E28.65339
G1 X96.354 Y78.483 E28.71054
G1 X97.37 Y78.061 E28.76543
G1 X98.479 Y77.713 E28.82342
G1 X99.541 Y77.477 E28.87769
G1 X100.672 Y77.329 E28.9346
G1 X101.843 Y77.279 E28.99307
G1 X118.195 Y77.279 E29.80888
G1 X119.35 Y77.33 E29.86656
G1 X120.472 Y77.479 E29.92303
G1 X121.551 Y77.72 E29.97818
G1 X122.633 Y78.062 E30.0348
G1 X123.668 Y78.491 E30.09069
G1 X124.667 Y79.013 E30.14693
