;FLAVOR:Marlin
;TIME:84
;Filament used: 0.0309871m
;Layer height: 0.2
;MINX:102.421
;MINY:102.416
;MINZ:0.3
;MAXX:117.586
;MAXY:117.586
;MAXZ:4.3
;Generated with Cura_SteamEngine 4.8.0
M140 S60
M105
M190 S60
M104 S200
M105
M109 S200
M82 ;absolute extrusion mode
G21 
G90
M107
G28 X0 Y0
G28 Z0
G1 Z15.0 F{travel_xy_speed}
G29
G92 E0
G1 F200 E10
G92 E0
G1 F{travel_xy_speed}
M117 Printing...
G92 E0
G92 E0
G1 F1500 E-6.5
;LAYER_COUNT:21
;LAYER:0
M107
M204 S1000
G0 F6000 X104.49 Y104.786 Z0.3
;TYPE:SKIRT
G1 F1500 E0
G1 F1200 X104.97 Y104.322 E0.03331
G1 X105.153 Y104.165 E0.04534
G1 X105.741 Y103.724 E0.08201
G1 X105.988 Y103.563 E0.09672
G1 X106.697 Y103.171 E0.13713
G1 X106.935 Y103.061 E0.15021
G1 X107.589 Y102.807 E0.18522
G1 X107.822 Y102.733 E0.19741
G1 X108.53 Y102.558 E0.2338
G1 X108.798 Y102.51 E0.24738
G1 X109.56 Y102.427 E0.28562
G1 X109.834 Y102.416 E0.2993
G1 X110.374 Y102.42 E0.32625
G1 X110.445 Y102.424 E0.32979
G1 X110.775 Y102.452 E0.34632
G1 X110.982 Y102.476 E0.35671
G1 X111.638 Y102.592 E0.38995
G1 X111.885 Y102.651 E0.40262
G1 X112.571 Y102.863 E0.43844
G1 X112.816 Y102.956 E0.45151
G1 X113.505 Y103.272 E0.48933
G1 X113.744 Y103.402 E0.5029
G1 X114.391 Y103.814 E0.54117
G1 X114.608 Y103.974 E0.55462
G1 X115.166 Y104.444 E0.59102
G1 X115.348 Y104.619 E0.60362
G1 X115.844 Y105.163 E0.64035
G1 X116.01 Y105.371 E0.65362
G1 X116.304 Y105.774 E0.67851
G1 X116.347 Y105.839 E0.6824
G1 X116.511 Y106.104 E0.69795
G1 X116.615 Y106.282 E0.70823
G1 X116.948 Y106.95 E0.74547
G1 X117.039 Y107.168 E0.75726
G1 X117.253 Y107.778 E0.78951
G1 X117.328 Y108.039 E0.80306
G1 X117.488 Y108.779 E0.84083
G1 X117.525 Y109.033 E0.85363
G1 X117.583 Y109.781 E0.89106
G1 X117.586 Y110.066 E0.90528
G1 X117.57 Y110.555 E0.92969
G1 X117.565 Y110.62 E0.93294
G1 X117.521 Y111.009 E0.95248
G1 X117.491 Y111.212 E0.96271
G1 X117.356 Y111.856 E0.99554
G1 X117.294 Y112.085 E1.00738
G1 X117.071 Y112.745 E1.04213
G1 X116.96 Y113.016 E1.05674
G1 X116.604 Y113.733 E1.09668
G1 X116.481 Y113.942 E1.10878
G1 X116.095 Y114.515 E1.14325
G1 X115.919 Y114.744 E1.15766
G1 X115.404 Y115.325 E1.19639
G1 X115.229 Y115.497 E1.20863
G1 X114.646 Y115.996 E1.24692
G1 X114.404 Y116.176 E1.26197
G1 X113.726 Y116.609 E1.3021
G1 X113.506 Y116.728 E1.31458
G1 X112.877 Y117.019 E1.34916
G1 X112.636 Y117.113 E1.36206
G1 X111.975 Y117.325 E1.39669
G1 X111.738 Y117.385 E1.40889
G1 X110.982 Y117.522 E1.44722
G1 X110.685 Y117.555 E1.46213
G1 X109.872 Y117.586 E1.50272
G1 X109.614 Y117.577 E1.5156
G1 X108.916 Y117.508 E1.55059
G1 X108.656 Y117.466 E1.56373
G1 X107.916 Y117.295 E1.60163
G1 X107.67 Y117.22 E1.61446
G1 X106.996 Y116.966 E1.65039
G1 X106.746 Y116.853 E1.66408
G1 X106.267 Y116.608 E1.69092
G1 X106.199 Y116.569 E1.69483
G1 X105.891 Y116.379 E1.71289
G1 X105.716 Y116.263 E1.72336
G1 X105.191 Y115.868 E1.75614
G1 X105.008 Y115.713 E1.7681
G1 X104.498 Y115.223 E1.80339
G1 X104.323 Y115.032 E1.81631
G1 X104.066 Y114.73 E1.8361
G1 X104.016 Y114.667 E1.84011
G1 X103.738 Y114.286 E1.86364
G1 X103.627 Y114.119 E1.87364
G1 X103.308 Y113.574 E1.90515
G1 X103.187 Y113.338 E1.91838
G1 X102.883 Y112.63 E1.95682
G1 X102.796 Y112.381 E1.96998
G1 X102.633 Y111.823 E1.99898
G1 X102.611 Y111.73 E2.00375
G1 X102.551 Y111.443 E2.01838
G1 X102.515 Y111.245 E2.02842
G1 X102.436 Y110.597 E2.06099
G1 X102.421 Y110.36 E2.07283
G1 X102.422 Y109.643 E2.1086
G1 X102.439 Y109.381 E2.1217
G1 X102.534 Y108.654 E2.15828
G1 X102.585 Y108.397 E2.17135
G1 X102.776 Y107.685 E2.20813
G1 X102.863 Y107.429 E2.22162
G1 X103.164 Y106.71 E2.26051
G1 X103.289 Y106.462 E2.27436
G1 X103.664 Y105.828 E2.31111
G1 X103.812 Y105.611 E2.32422
G1 X104.312 Y104.98 E2.36438
G1 X104.49 Y104.786 E2.37752
G0 F6000 X104.784 Y105.056
G1 F1200 X105.23 Y104.625 E2.40846
G1 X105.413 Y104.468 E2.42049
G1 X105.959 Y104.059 E2.45453
G1 X106.206 Y103.898 E2.46924
G1 X106.864 Y103.534 E2.50675
G1 X107.102 Y103.424 E2.51983
G1 X107.71 Y103.188 E2.55237
G1 X107.943 Y103.114 E2.56457
G1 X108.6 Y102.951 E2.59834
G1 X108.868 Y102.903 E2.61192
G1 X109.576 Y102.826 E2.64745
G1 X109.85 Y102.815 E2.66113
G1 X110.351 Y102.819 E2.68613
G1 X110.422 Y102.823 E2.68968
G1 X110.729 Y102.85 E2.70505
G1 X110.936 Y102.874 E2.71545
G1 X111.545 Y102.981 E2.7463
G1 X111.792 Y103.04 E2.75897
G1 X112.429 Y103.236 E2.79222
G1 X112.674 Y103.329 E2.80529
G1 X113.314 Y103.623 E2.84043
G1 X113.553 Y103.753 E2.854
G1 X114.154 Y104.136 E2.88956
G1 X114.371 Y104.296 E2.90301
G1 X114.889 Y104.733 E2.93682
G1 X115.071 Y104.908 E2.94942
G1 X115.531 Y105.412 E2.98346
G1 X115.697 Y105.62 E2.99674
G1 X115.97 Y105.995 E3.01988
G1 X116.013 Y106.06 E3.02377
G1 X116.166 Y106.306 E3.03822
G1 X116.27 Y106.484 E3.0485
G1 X116.579 Y107.104 E3.08307
G1 X116.67 Y107.322 E3.09485
G1 X116.869 Y107.889 E3.12483
G1 X116.944 Y108.15 E3.13838
G1 X117.092 Y108.836 E3.17339
G1 X117.129 Y109.09 E3.1862
G1 X117.183 Y109.785 E3.22097
G1 X117.186 Y110.07 E3.23519
G1 X117.171 Y110.524 E3.25786
G1 X117.166 Y110.589 E3.26111
G1 X117.125 Y110.95 E3.27924
G1 X117.095 Y111.153 E3.28947
G1 X116.97 Y111.752 E3.32
G1 X116.908 Y111.981 E3.33184
G1 X116.701 Y112.593 E3.36407
G1 X116.59 Y112.864 E3.37868
G1 X116.26 Y113.53 E3.41576
G1 X116.137 Y113.739 E3.42786
G1 X115.778 Y114.271 E3.45988
G1 X115.602 Y114.5 E3.47429
G1 X115.124 Y115.04 E3.51027
G1 X114.949 Y115.212 E3.52251
G1 X114.407 Y115.675 E3.55807
G1 X114.165 Y115.855 E3.57312
G1 X113.536 Y116.257 E3.61036
G1 X113.316 Y116.376 E3.62284
G1 X112.732 Y116.647 E3.65496
G1 X112.491 Y116.741 E3.66787
G1 X111.877 Y116.937 E3.70002
G1 X111.64 Y116.997 E3.71222
G1 X110.938 Y117.124 E3.74781
G1 X110.641 Y117.157 E3.76272
G1 X109.886 Y117.186 E3.80041
G1 X109.628 Y117.177 E3.81329
G1 X108.98 Y117.113 E3.84578
G1 X108.72 Y117.071 E3.85892
G1 X108.033 Y116.912 E3.8941
G1 X107.787 Y116.837 E3.90693
G1 X107.161 Y116.601 E3.94031
G1 X106.911 Y116.488 E3.954
G1 X106.466 Y116.261 E3.97892
G1 X106.398 Y116.222 E3.98283
G1 X106.112 Y116.045 E3.99961
G1 X105.937 Y115.929 E4.01008
G1 X105.449 Y115.563 E4.04052
G1 X105.266 Y115.408 E4.05248
G1 X104.793 Y114.953 E4.08523
G1 X104.618 Y114.762 E4.09815
G1 X104.379 Y114.482 E4.11652
G1 X104.329 Y114.419 E4.12053
G1 X104.071 Y114.064 E4.14242
G1 X103.96 Y113.897 E4.15243
G1 X103.664 Y113.391 E4.18167
G1 X103.543 Y113.155 E4.19491
G1 X103.261 Y112.498 E4.23058
G1 X103.174 Y112.249 E4.24373
G1 X103.023 Y111.731 E4.27065
G1 X103.001 Y111.638 E4.27542
G1 X102.945 Y111.371 E4.28903
G1 X102.909 Y111.173 E4.29907
G1 X102.835 Y110.571 E4.32933
G1 X102.82 Y110.334 E4.34118
G1 X102.821 Y109.669 E4.37436
G1 X102.838 Y109.407 E4.38745
G1 X102.926 Y108.732 E4.42142
G1 X102.977 Y108.475 E4.43449
G1 X103.155 Y107.814 E4.46864
G1 X103.242 Y107.558 E4.48213
G1 X103.521 Y106.891 E4.5182
G1 X103.646 Y106.643 E4.53206
G1 X103.994 Y106.053 E4.56623
G1 X104.142 Y105.836 E4.57933
G1 X104.606 Y105.25 E4.61662
G1 X104.784 Y105.056 E4.62976
G0 F6000 X105.079 Y105.327
G1 F1200 X105.491 Y104.929 E4.65834
G1 X105.674 Y104.772 E4.67037
G1 X106.178 Y104.394 E4.7018
G1 X106.425 Y104.233 E4.71651
G1 X107.032 Y103.897 E4.75112
G1 X107.27 Y103.787 E4.7642
G1 X107.831 Y103.569 E4.79423
G1 X108.064 Y103.495 E4.80643
G1 X108.671 Y103.345 E4.83762
G1 X108.939 Y103.297 E4.8512
G1 X109.592 Y103.226 E4.88397
G1 X109.866 Y103.215 E4.89766
G1 X110.329 Y103.219 E4.92076
G1 X110.4 Y103.223 E4.9243
G1 X110.683 Y103.247 E4.93847
G1 X110.89 Y103.271 E4.94887
G1 X111.452 Y103.37 E4.97734
G1 X111.699 Y103.429 E4.99001
G1 X112.287 Y103.61 E5.0207
G1 X112.532 Y103.703 E5.03378
G1 X113.123 Y103.974 E5.06621
G1 X113.362 Y104.104 E5.07979
G1 X113.917 Y104.458 E5.11263
G1 X114.134 Y104.618 E5.12608
G1 X114.612 Y105.021 E5.15727
G1 X114.794 Y105.196 E5.16987
G1 X115.219 Y105.662 E5.20134
G1 X115.385 Y105.87 E5.21461
G1 X115.636 Y106.216 E5.23594
G1 X115.679 Y106.281 E5.23983
G1 X115.82 Y106.508 E5.25316
G1 X115.924 Y106.686 E5.26344
G1 X116.21 Y107.258 E5.29535
G1 X116.301 Y107.476 E5.30713
G1 X116.484 Y107.999 E5.33478
G1 X116.559 Y108.26 E5.34833
G1 X116.696 Y108.894 E5.38069
G1 X116.733 Y109.148 E5.39349
G1 X116.783 Y109.789 E5.42557
G1 X116.786 Y110.074 E5.43979
G1 X116.772 Y110.493 E5.4607
G1 X116.767 Y110.558 E5.46396
G1 X116.729 Y110.892 E5.48073
G1 X116.699 Y111.095 E5.49097
G1 X116.584 Y111.647 E5.5191
G1 X116.522 Y111.876 E5.53093
G1 X116.331 Y112.441 E5.56069
G1 X116.22 Y112.712 E5.5753
G1 X115.915 Y113.328 E5.60959
G1 X115.792 Y113.537 E5.62169
G1 X115.461 Y114.027 E5.65119
G1 X115.285 Y114.256 E5.6656
G1 X114.844 Y114.754 E5.69879
G1 X114.669 Y114.926 E5.71103
G1 X114.169 Y115.354 E5.74386
G1 X113.927 Y115.534 E5.75891
G1 X113.346 Y115.905 E5.7933
G1 X113.126 Y116.024 E5.80578
G1 X112.586 Y116.274 E5.83547
G1 X112.345 Y116.368 E5.84838
G1 X111.779 Y116.549 E5.87802
G1 X111.542 Y116.609 E5.89022
G1 X110.894 Y116.727 E5.92308
G1 X110.597 Y116.76 E5.93799
G1 X109.9 Y116.786 E5.97279
G1 X109.642 Y116.777 E5.98567
G1 X109.044 Y116.719 E6.01564
G1 X108.784 Y116.677 E6.02878
G1 X108.149 Y116.529 E6.06131
G1 X107.903 Y116.454 E6.07414
G1 X107.326 Y116.237 E6.10489
G1 X107.076 Y116.124 E6.11858
G1 X106.665 Y115.914 E6.14161
G1 X106.597 Y115.875 E6.14552
G1 X106.333 Y115.712 E6.161
G1 X106.158 Y115.596 E6.17147
G1 X105.708 Y115.258 E6.19955
G1 X105.525 Y115.103 E6.21152
G1 X105.088 Y114.683 E6.24176
G1 X104.913 Y114.492 E6.25468
G1 X104.692 Y114.233 E6.27167
G1 X104.642 Y114.17 E6.27568
G1 X104.404 Y113.843 E6.29586
G1 X104.293 Y113.676 E6.30586
G1 X104.02 Y113.209 E6.33285
G1 X103.899 Y112.973 E6.34608
G1 X103.639 Y112.366 E6.37902
G1 X103.552 Y112.117 E6.39218
G1 X103.412 Y111.639 E6.41703
G1 X103.39 Y111.546 E6.4218
G1 X103.338 Y111.3 E6.43434
G1 X103.302 Y111.102 E6.44438
G1 X103.235 Y110.546 E6.47232
G1 X103.22 Y110.309 E6.48417
G1 X103.22 Y109.695 E6.5148
G1 X103.237 Y109.433 E6.5279
G1 X103.319 Y108.81 E6.55925
G1 X103.37 Y108.553 E6.57232
G1 X103.533 Y107.943 E6.60383
G1 X103.62 Y107.687 E6.61731
G1 X103.879 Y107.071 E6.65065
G1 X104.004 Y106.823 E6.66451
G1 X104.324 Y106.278 E6.69604
G1 X104.472 Y106.061 E6.70914
G1 X104.901 Y105.521 E6.74355
G1 X105.079 Y105.327 E6.75669
G0 F6000 X105.374 Y105.597
G1 F1200 X105.751 Y105.233 E6.78283
G1 X105.934 Y105.076 E6.79486
G1 X106.396 Y104.729 E6.82369
G1 X106.643 Y104.568 E6.8384
G1 X107.2 Y104.26 E6.87015
G1 X107.438 Y104.15 E6.88323
G1 X107.952 Y103.95 E6.91075
G1 X108.185 Y103.876 E6.92294
G1 X108.741 Y103.739 E6.95151
G1 X109.009 Y103.691 E6.9651
G1 X109.608 Y103.626 E6.99516
G1 X109.882 Y103.615 E7.00884
G1 X110.306 Y103.618 E7.02999
G1 X110.377 Y103.622 E7.03354
G1 X110.637 Y103.644 E7.04656
G1 X110.844 Y103.668 E7.05695
G1 X111.359 Y103.759 E7.08305
G1 X111.606 Y103.818 E7.09571
G1 X112.145 Y103.984 E7.12385
G1 X112.39 Y104.077 E7.13693
G1 X112.931 Y104.326 E7.16664
G1 X113.17 Y104.456 E7.18021
G1 X113.679 Y104.78 E7.21031
G1 X113.896 Y104.94 E7.22376
G1 X114.335 Y105.309 E7.25238
G1 X114.517 Y105.484 E7.26497
G1 X114.906 Y105.911 E7.29379
G1 X115.072 Y106.119 E7.30707
G1 X115.303 Y106.436 E7.32664
G1 X115.475 Y106.709 E7.34273
G1 X115.579 Y106.887 E7.35302
G1 X115.84 Y107.412 E7.38227
G1 X115.931 Y107.63 E7.39406
G1 X116.1 Y108.11 E7.41944
G1 X116.175 Y108.371 E7.43299
G1 X116.3 Y108.952 E7.46264
G1 X116.337 Y109.206 E7.47545
G1 X116.383 Y109.794 E7.50487
G1 X116.386 Y110.079 E7.51909
G1 X116.373 Y110.462 E7.53821
G1 X116.368 Y110.527 E7.54146
G1 X116.334 Y110.833 E7.55682
G1 X116.304 Y111.036 E7.56706
G1 X116.198 Y111.543 E7.5929
G1 X116.136 Y111.772 E7.60474
G1 X115.961 Y112.29 E7.63202
G1 X115.85 Y112.561 E7.64663
G1 X115.57 Y113.125 E7.67804
G1 X115.447 Y113.334 E7.69014
G1 X115.144 Y113.783 E7.71716
G1 X114.968 Y114.012 E7.73157
G1 X114.563 Y114.469 E7.76204
G1 X114.388 Y114.641 E7.77428
G1 X113.93 Y115.033 E7.80436
G1 X113.688 Y115.213 E7.8194
G1 X113.155 Y115.553 E7.85094
G1 X112.935 Y115.672 E7.86342
G1 X112.441 Y115.901 E7.89059
G1 X112.2 Y115.995 E7.90349
G1 X111.681 Y116.161 E7.93068
G1 X111.444 Y116.221 E7.94288
G1 X110.85 Y116.329 E7.973
G1 X110.553 Y116.362 E7.98791
G1 X109.914 Y116.386 E8.01981
G1 X109.656 Y116.377 E8.03269
G1 X109.107 Y116.324 E8.0602
G1 X108.847 Y116.282 E8.07334
G1 X108.266 Y116.147 E8.1031
G1 X108.02 Y116.072 E8.11593
G1 X107.491 Y115.872 E8.14415
G1 X107.241 Y115.759 E8.15784
G1 X106.864 Y115.567 E8.17894
G1 X106.796 Y115.528 E8.18285
G1 X106.554 Y115.378 E8.19706
G1 X106.379 Y115.262 E8.20753
G1 X105.966 Y114.953 E8.23327
G1 X105.783 Y114.798 E8.24523
G1 X105.383 Y114.412 E8.27296
G1 X105.208 Y114.221 E8.28589
G1 X105.006 Y113.984 E8.30142
G1 X104.956 Y113.921 E8.30544
G1 X104.738 Y113.622 E8.3239
G1 X104.627 Y113.455 E8.3339
G1 X104.376 Y113.026 E8.3587
G1 X104.255 Y112.79 E8.37193
G1 X104.016 Y112.234 E8.40212
G1 X103.929 Y111.985 E8.41528
G1 X103.801 Y111.547 E8.43805
G1 X103.732 Y111.228 E8.45433
G1 X103.696 Y111.03 E8.46437
G1 X103.634 Y110.521 E8.48995
G1 X103.619 Y110.284 E8.5018
G1 X103.619 Y109.721 E8.52989
G1 X103.636 Y109.459 E8.54299
G1 X103.711 Y108.888 E8.57172
G1 X103.762 Y108.631 E8.58479
G1 X103.912 Y108.071 E8.61372
G1 X103.999 Y107.815 E8.6272
G1 X104.236 Y107.251 E8.65773
G1 X104.361 Y107.003 E8.67158
G1 X104.655 Y106.504 E8.70048
G1 X104.803 Y106.287 E8.71358
G1 X105.196 Y105.791 E8.74515
G1 X105.374 Y105.597 E8.75829
G0 F6000 X105.669 Y105.868
G1 F1200 X106.011 Y105.536 E8.78207
G1 X106.194 Y105.379 E8.7941
G1 X106.615 Y105.064 E8.82033
G1 X106.862 Y104.903 E8.83504
G1 X107.368 Y104.623 E8.86389
G1 X107.606 Y104.513 E8.87697
G1 X108.073 Y104.332 E8.90196
G1 X108.306 Y104.258 E8.91416
G1 X108.812 Y104.133 E8.94016
G1 X109.08 Y104.085 E8.95374
G1 X109.625 Y104.025 E8.9811
G1 X109.899 Y104.014 E8.99478
G1 X110.284 Y104.017 E9.01399
G1 X110.591 Y104.042 E9.02935
G1 X110.798 Y104.066 E9.03975
G1 X111.266 Y104.148 E9.06345
G1 X111.513 Y104.207 E9.07612
G1 X112.004 Y104.358 E9.10175
G1 X112.249 Y104.451 E9.11483
G1 X112.74 Y104.677 E9.14179
G1 X112.979 Y104.807 E9.15537
G1 X113.442 Y105.102 E9.18276
G1 X113.659 Y105.262 E9.19621
G1 X114.057 Y105.598 E9.22219
G1 X114.239 Y105.773 E9.23479
G1 X114.593 Y106.161 E9.26099
G1 X114.759 Y106.369 E9.27427
G1 X114.969 Y106.657 E9.29205
G1 X115.13 Y106.911 E9.30705
G1 X115.234 Y107.089 E9.31734
G1 X115.471 Y107.566 E9.34391
G1 X115.562 Y107.784 E9.3557
G1 X115.715 Y108.22 E9.37875
G1 X115.79 Y108.481 E9.3923
G1 X115.904 Y109.009 E9.41925
G1 X115.941 Y109.263 E9.43205
G1 X115.983 Y109.798 E9.45883
G1 X115.986 Y110.083 E9.47305
G1 X115.974 Y110.432 E9.49047
G1 X115.969 Y110.497 E9.49372
G1 X115.938 Y110.775 E9.50768
G1 X115.908 Y110.978 E9.51791
G1 X115.812 Y111.438 E9.54136
G1 X115.75 Y111.667 E9.5532
G1 X115.591 Y112.138 E9.578
G1 X115.48 Y112.409 E9.59261
G1 X115.225 Y112.922 E9.62119
G1 X115.102 Y113.131 E9.63329
G1 X114.827 Y113.54 E9.65788
G1 X114.651 Y113.769 E9.67228
G1 X114.283 Y114.184 E9.69996
G1 X114.108 Y114.356 E9.7122
G1 X113.691 Y114.713 E9.73959
G1 X113.449 Y114.893 E9.75463
G1 X112.965 Y115.201 E9.78325
G1 X112.745 Y115.32 E9.79573
G1 X112.296 Y115.529 E9.82044
G1 X112.055 Y115.623 E9.83335
G1 X111.583 Y115.774 E9.85807
G1 X111.346 Y115.834 E9.87027
G1 X110.806 Y115.932 E9.89765
G1 X110.509 Y115.965 E9.91256
G1 X109.928 Y115.987 E9.94156
G1 X109.67 Y115.978 E9.95444
G1 X109.171 Y115.929 E9.97946
G1 X108.911 Y115.887 E9.9926
G1 X108.382 Y115.764 E10.01969
G1 X108.136 Y115.689 E10.03252
G1 X107.655 Y115.508 E10.05816
G1 X107.405 Y115.395 E10.07185
G1 X107.063 Y115.22 E10.09102
G1 X106.995 Y115.181 E10.09493
G1 X106.775 Y115.045 E10.10783
G1 X106.6 Y114.929 E10.11831
G1 X106.225 Y114.647 E10.14172
G1 X106.042 Y114.492 E10.15368
G1 X105.678 Y114.142 E10.17887
G1 X105.503 Y113.951 E10.1918
G1 X105.319 Y113.736 E10.20592
G1 X105.269 Y113.673 E10.20993
G1 X105.071 Y113.4 E10.22675
G1 X104.96 Y113.233 E10.23676
G1 X104.732 Y112.844 E10.25925
G1 X104.611 Y112.608 E10.27249
G1 X104.394 Y112.102 E10.29995
G1 X104.307 Y111.853 E10.31311
G1 X104.19 Y111.455 E10.33381
G1 X104.126 Y111.157 E10.34901
G1 X104.09 Y110.959 E10.35906
G1 X104.033 Y110.496 E10.38233
G1 X104.018 Y110.259 E10.39418
G1 X104.018 Y109.747 E10.41972
G1 X104.035 Y109.485 E10.43282
G1 X104.104 Y108.965 E10.45899
