;FLAVOR:Marlin
;TIME:315
;Filament used: 0.0986878m
;Layer height: 0.2
;MINX:101.719
;MINY:101.715
;MINZ:0.3
;MAXX:118.286
;MAXY:118.283
;MAXZ:9.5
;Generated with Cura_SteamEngine 4.8.0
M140 S60
M105
M190 S60
M104 S200
M105
M109 S200
M82 ;absolute extrusion mode
G21 
G90
M107
G28 X0 Y0
G28 Z0
G1 Z15.0 F{travel_xy_speed}
G29
G92 E0
G1 F200 E10
G92 E0
G1 F{travel_xy_speed}
M117 Printing...
G92 E0
G92 E0
G1 F1500 E-6.5
;LAYER_COUNT:47
;LAYER:0
M107
M204 S1000
G0 F6000 X104.257 Y104.03 Z0.3
;TYPE:SKIRT
G1 F1500 E0
G1 F1200 X104.491 Y103.809 E0.01606
G1 X104.896 Y103.473 E0.04231
G1 X105.109 Y103.314 E0.05557
G1 X105.383 Y103.12 E0.07232
G1 X105.877 Y102.814 E0.10131
G1 X106.136 Y102.673 E0.11603
G1 X106.48 Y102.499 E0.13526
G1 X106.954 Y102.295 E0.161
G1 X107.204 Y102.202 E0.17431
G1 X107.574 Y102.08 E0.19375
G1 X107.896 Y101.987 E0.21047
G1 X108.413 Y101.866 E0.23696
G1 X108.612 Y101.83 E0.24705
G1 X108.983 Y101.777 E0.26575
G1 X109.281 Y101.745 E0.2807
G1 X109.886 Y101.715 E0.31092
G1 X110.199 Y101.718 E0.32654
G1 X110.479 Y101.727 E0.34051
G1 X111.065 Y101.783 E0.36988
G1 X111.359 Y101.828 E0.38472
G1 X111.669 Y101.883 E0.40043
G1 X112.249 Y102.026 E0.43023
G1 X112.679 Y102.159 E0.45269
G1 X112.77 Y102.189 E0.45747
G1 X113.373 Y102.431 E0.48988
G1 X113.634 Y102.555 E0.5043
G1 X113.922 Y102.7 E0.52038
G1 X114.426 Y102.996 E0.54955
G1 X114.707 Y103.183 E0.56638
G1 X114.931 Y103.339 E0.58
G1 X115.391 Y103.708 E0.60942
G1 X115.692 Y103.981 E0.6297
G1 X115.817 Y104.099 E0.63827
G1 X116.246 Y104.556 E0.66955
G1 X116.499 Y104.862 E0.68935
G1 X116.604 Y104.994 E0.69777
G1 X116.967 Y105.513 E0.72937
G1 X117.158 Y105.827 E0.7477
G1 X117.243 Y105.973 E0.75613
G1 X117.538 Y106.563 E0.78904
G1 X117.717 Y106.986 E0.81196
G1 X117.953 Y107.674 E0.84824
G1 X118.062 Y108.089 E0.86965
G1 X118.091 Y108.208 E0.87576
G1 X118.205 Y108.848 E0.90819
G1 X118.256 Y109.308 E0.93128
G1 X118.267 Y109.431 E0.93744
G1 X118.286 Y110.041 E0.96789
G1 X118.272 Y110.462 E0.98891
G1 X118.263 Y110.626 E0.9971
G1 X118.195 Y111.229 E1.02738
G1 X118.151 Y111.483 E1.04024
G1 X118.085 Y111.814 E1.05708
G1 X117.931 Y112.392 E1.08692
G1 X117.792 Y112.814 E1.10908
G1 X117.508 Y113.506 E1.1464
G1 X117.375 Y113.773 E1.16129
G1 X117.235 Y114.039 E1.17628
G1 X116.914 Y114.566 E1.20707
G1 X116.685 Y114.893 E1.22698
G1 X116.58 Y115.036 E1.23584
G1 X116.203 Y115.493 E1.26539
G1 X116.013 Y115.698 E1.27934
G1 X115.795 Y115.923 E1.29497
G1 X115.345 Y116.33 E1.32524
G1 X115.105 Y116.523 E1.3406
G1 X114.868 Y116.705 E1.35551
G1 X114.379 Y117.033 E1.38489
G1 X114.117 Y117.188 E1.40007
G1 X113.836 Y117.345 E1.41613
G1 X113.322 Y117.591 E1.44456
G1 X113.055 Y117.701 E1.45897
G1 X112.773 Y117.81 E1.47405
G1 X112.202 Y117.986 E1.50386
G1 X111.707 Y118.107 E1.52929
G1 X111.611 Y118.128 E1.53419
G1 X111.011 Y118.223 E1.56449
G1 X110.707 Y118.253 E1.57974
G1 X110.385 Y118.277 E1.59584
G1 X109.822 Y118.283 E1.62393
G1 X109.565 Y118.272 E1.63677
G1 X109.223 Y118.249 E1.65387
G1 X108.631 Y118.17 E1.68367
G1 X108.299 Y118.106 E1.70053
G1 X108.038 Y118.05 E1.71385
G1 X107.469 Y117.889 E1.74335
G1 X107.186 Y117.791 E1.7583
G1 X106.893 Y117.681 E1.77391
G1 X106.374 Y117.449 E1.80227
G1 X106.108 Y117.312 E1.8172
G1 X105.812 Y117.149 E1.83406
G1 X105.329 Y116.842 E1.86261
G1 X105.067 Y116.654 E1.8787
G1 X104.82 Y116.467 E1.89415
G1 X104.388 Y116.094 E1.92263
G1 X104.164 Y115.878 E1.93815
G1 X103.967 Y115.679 E1.95212
G1 X103.564 Y115.216 E1.98275
G1 X103.267 Y114.827 E2.00717
G1 X103.189 Y114.719 E2.01381
G1 X102.875 Y114.227 E2.04293
G1 X102.68 Y113.877 E2.06292
G1 X102.591 Y113.708 E2.07245
G1 X102.344 Y113.165 E2.10221
G1 X102.237 Y112.889 E2.11698
G1 X102.132 Y112.597 E2.13246
G1 X101.97 Y112.032 E2.16178
G1 X101.862 Y111.55 E2.18643
G1 X101.847 Y111.475 E2.19024
G1 X101.763 Y110.881 E2.22017
G1 X101.735 Y110.54 E2.23724
G1 X101.719 Y110.257 E2.25138
G1 X101.723 Y109.661 E2.28112
G1 X101.75 Y109.268 E2.30077
G1 X101.766 Y109.089 E2.30974
G1 X101.858 Y108.475 E2.34071
G1 X101.963 Y107.989 E2.36552
G1 X101.987 Y107.891 E2.37055
G1 X102.155 Y107.339 E2.39934
G1 X102.266 Y107.036 E2.41544
G1 X102.378 Y106.752 E2.43067
G1 X102.626 Y106.225 E2.45973
G1 X102.774 Y105.951 E2.47526
G1 X102.938 Y105.665 E2.49171
G1 X103.233 Y105.223 E2.51822
G1 X103.44 Y104.944 E2.53555
G1 X103.623 Y104.709 E2.55041
G1 X104.007 Y104.28 E2.57914
G1 X104.257 Y104.03 E2.59678
G0 F6000 X104.54 Y104.313
G1 F1200 X104.761 Y104.104 E2.61195
G1 X105.136 Y103.794 E2.63623
G1 X105.469 Y103.547 E2.65691
G1 X105.612 Y103.447 E2.66562
G1 X106.068 Y103.165 E2.69237
G1 X106.327 Y103.024 E2.70708
G1 X106.656 Y102.858 E2.72546
G1 X107.093 Y102.67 E2.7492
G1 X107.343 Y102.577 E2.76251
G1 X107.685 Y102.464 E2.78047
G1 X108.007 Y102.371 E2.7972
G1 X108.485 Y102.26 E2.82168
G1 X108.684 Y102.224 E2.83177
G1 X109.026 Y102.174 E2.84901
G1 X109.324 Y102.142 E2.86396
G1 X109.882 Y102.115 E2.89184
G1 X110.195 Y102.118 E2.90745
G1 X110.464 Y102.127 E2.92088
G1 X111.004 Y102.178 E2.94794
G1 X111.298 Y102.223 E2.96278
G1 X111.596 Y102.276 E2.97788
G1 X112.132 Y102.408 E3.00542
G1 X112.554 Y102.539 E3.02746
G1 X112.645 Y102.569 E3.03224
G1 X113.202 Y102.792 E3.06218
G1 X113.463 Y102.916 E3.07659
G1 X113.74 Y103.056 E3.09208
G1 X114.204 Y103.329 E3.11894
G1 X114.485 Y103.516 E3.13578
G1 X114.699 Y103.665 E3.14879
G1 X115.123 Y104.005 E3.1759
G1 X115.417 Y104.272 E3.19571
G1 X115.542 Y104.39 E3.20429
G1 X115.939 Y104.812 E3.2332
G1 X116.185 Y105.111 E3.25251
G1 X116.29 Y105.243 E3.26093
G1 X116.626 Y105.722 E3.29012
G1 X116.812 Y106.028 E3.30798
G1 X116.897 Y106.174 E3.31641
G1 X117.169 Y106.718 E3.34676
G1 X117.348 Y107.141 E3.36967
G1 X117.566 Y107.777 E3.40321
G1 X117.674 Y108.184 E3.42422
G1 X117.703 Y108.303 E3.43033
G1 X117.808 Y108.893 E3.46023
G1 X117.858 Y109.343 E3.48282
G1 X117.869 Y109.466 E3.48898
G1 X117.886 Y110.03 E3.51713
G1 X117.873 Y110.44 E3.5376
G1 X117.864 Y110.604 E3.54579
G1 X117.801 Y111.16 E3.57371
G1 X117.757 Y111.414 E3.58657
G1 X117.693 Y111.733 E3.6028
G1 X117.551 Y112.267 E3.63037
G1 X117.412 Y112.689 E3.65253
G1 X117.149 Y113.327 E3.68696
G1 X116.961 Y113.702 E3.70789
G1 X116.882 Y113.851 E3.7163
G1 X116.586 Y114.338 E3.74474
G1 X116.363 Y114.656 E3.76411
G1 X116.258 Y114.799 E3.77296
G1 X115.909 Y115.221 E3.80029
G1 X115.623 Y115.527 E3.82118
G1 X115.51 Y115.642 E3.82923
G1 X115.094 Y116.019 E3.85723
G1 X114.854 Y116.212 E3.8726
G1 X114.627 Y116.386 E3.88687
G1 X114.175 Y116.689 E3.91402
G1 X113.913 Y116.844 E3.9292
G1 X113.644 Y116.994 E3.94457
G1 X113.169 Y117.221 E3.97084
G1 X112.902 Y117.331 E3.98524
G1 X112.632 Y117.435 E3.99968
G1 X112.106 Y117.598 E4.02715
G1 X111.622 Y117.716 E4.052
G1 X111.526 Y117.737 E4.05691
G1 X110.971 Y117.825 E4.08494
G1 X110.667 Y117.855 E4.10018
G1 X110.359 Y117.878 E4.11559
G1 X109.839 Y117.884 E4.14154
G1 X109.582 Y117.873 E4.15437
G1 X109.253 Y117.85 E4.17082
G1 X108.706 Y117.777 E4.19836
G1 X108.237 Y117.685 E4.2222
G1 X108.125 Y117.66 E4.22793
G1 X107.6 Y117.511 E4.25515
G1 X107.317 Y117.413 E4.27009
G1 X107.036 Y117.308 E4.28506
G1 X106.557 Y117.093 E4.31125
G1 X106.291 Y116.956 E4.32618
G1 X106.008 Y116.801 E4.34228
G1 X105.563 Y116.517 E4.36862
G1 X105.301 Y116.329 E4.3847
G1 X105.064 Y116.15 E4.39952
G1 X104.666 Y115.806 E4.42577
G1 X104.343 Y115.492 E4.44824
G1 X104.253 Y115.4 E4.45466
G1 X103.881 Y114.972 E4.48295
G1 X103.68 Y114.711 E4.49939
G1 X103.514 Y114.484 E4.51342
G1 X103.223 Y114.031 E4.54028
G1 X103.099 Y113.811 E4.55288
G1 X102.945 Y113.522 E4.56922
G1 X102.717 Y113.02 E4.59672
G1 X102.553 Y112.591 E4.61964
G1 X102.509 Y112.465 E4.6263
G1 X102.36 Y111.944 E4.65333
G1 X102.254 Y111.471 E4.67751
G1 X102.239 Y111.396 E4.68133
G1 X102.162 Y110.848 E4.70894
G1 X102.134 Y110.507 E4.72601
G1 X102.118 Y110.237 E4.7395
G1 X102.122 Y109.687 E4.76694
G1 X102.148 Y109.304 E4.7861
G1 X102.164 Y109.125 E4.79506
G1 X102.249 Y108.558 E4.82366
G1 X102.318 Y108.232 E4.84029
G1 X102.376 Y107.986 E4.8529
G1 X102.531 Y107.477 E4.87944
G1 X102.642 Y107.174 E4.89554
G1 X102.749 Y106.901 E4.91017
G1 X102.978 Y106.415 E4.93698
G1 X103.126 Y106.141 E4.95251
G1 X103.282 Y105.869 E4.96816
G1 X103.554 Y105.461 E4.99262
G1 X103.761 Y105.182 E5.00995
G1 X103.936 Y104.958 E5.02413
G1 X104.29 Y104.563 E5.0506
G1 X104.54 Y104.313 E5.06823
G0 F6000 X104.823 Y104.596
G1 F1200 X105.032 Y104.398 E5.0826
G1 X105.375 Y104.114 E5.10481
G1 X105.698 Y103.875 E5.12486
G1 X105.841 Y103.775 E5.13357
G1 X106.259 Y103.517 E5.15807
G1 X106.518 Y103.376 E5.17279
G1 X106.832 Y103.217 E5.19035
G1 X107.233 Y103.045 E5.21211
G1 X107.483 Y102.952 E5.22542
G1 X107.796 Y102.849 E5.24186
G1 X108.118 Y102.756 E5.25858
G1 X108.556 Y102.653 E5.28103
G1 X108.755 Y102.617 E5.29112
G1 X109.068 Y102.572 E5.3069
G1 X109.366 Y102.54 E5.32185
G1 X109.878 Y102.515 E5.34742
G1 X110.319 Y102.521 E5.36943
G1 X110.448 Y102.526 E5.37587
G1 X110.944 Y102.574 E5.40073
G1 X111.377 Y102.642 E5.4226
G1 X111.522 Y102.669 E5.42995
G1 X112.014 Y102.79 E5.45523
G1 X112.429 Y102.919 E5.47691
G1 X112.52 Y102.949 E5.48169
G1 X113.03 Y103.154 E5.50912
G1 X113.415 Y103.339 E5.53043
G1 X113.557 Y103.412 E5.53839
G1 X113.983 Y103.662 E5.56303
G1 X114.264 Y103.849 E5.57987
G1 X114.467 Y103.991 E5.59223
G1 X114.856 Y104.303 E5.61711
G1 X115.142 Y104.562 E5.63636
G1 X115.267 Y104.68 E5.64494
G1 X115.631 Y105.068 E5.67148
G1 X115.872 Y105.36 E5.69037
G1 X115.977 Y105.492 E5.69878
G1 X116.285 Y105.931 E5.72554
G1 X116.467 Y106.229 E5.74296
G1 X116.552 Y106.375 E5.75139
G1 X116.801 Y106.874 E5.77921
G1 X116.98 Y107.297 E5.80213
G1 X117.18 Y107.88 E5.83288
G1 X117.285 Y108.278 E5.85341
G1 X117.314 Y108.397 E5.85952
G1 X117.41 Y108.939 E5.88698
G1 X117.46 Y109.379 E5.90908
G1 X117.471 Y109.502 E5.91524
G1 X117.486 Y110.018 E5.94099
G1 X117.473 Y110.418 E5.96096
G1 X117.464 Y110.582 E5.96915
G1 X117.406 Y111.092 E5.99476
G1 X117.337 Y111.482 E6.01452
G1 X117.302 Y111.652 E6.02318
G1 X117.171 Y112.142 E6.04848
G1 X117.032 Y112.564 E6.07065
G1 X116.791 Y113.149 E6.10222
G1 X116.607 Y113.515 E6.12265
G1 X116.528 Y113.664 E6.13107
G1 X116.257 Y114.11 E6.1571
G1 X116.041 Y114.419 E6.17591
G1 X115.936 Y114.562 E6.18476
G1 X115.616 Y114.949 E6.20982
G1 X115.337 Y115.247 E6.23018
G1 X115.224 Y115.362 E6.23823
G1 X114.843 Y115.707 E6.26387
G1 X114.501 Y115.98 E6.2857
G1 X114.386 Y116.067 E6.2929
G1 X113.971 Y116.345 E6.31782
G1 X113.709 Y116.5 E6.333
G1 X113.452 Y116.643 E6.34768
G1 X113.017 Y116.851 E6.37173
G1 X112.75 Y116.961 E6.38614
G1 X112.492 Y117.06 E6.39993
G1 X112.01 Y117.21 E6.42511
G1 X111.655 Y117.298 E6.44336
G1 X111.44 Y117.346 E6.45435
G1 X110.932 Y117.427 E6.48001
G1 X110.628 Y117.457 E6.49525
G1 X110.333 Y117.479 E6.51001
G1 X109.856 Y117.484 E6.53381
G1 X109.599 Y117.473 E6.54664
G1 X109.283 Y117.451 E6.56245
G1 X108.782 Y117.384 E6.58766
G1 X108.324 Y117.294 E6.61095
G1 X108.212 Y117.269 E6.61668
G1 X107.731 Y117.133 E6.64161
G1 X107.448 Y117.035 E6.65656
G1 X107.18 Y116.934 E6.67084
G1 X106.74 Y116.738 E6.69488
G1 X106.474 Y116.601 E6.7098
G1 X106.204 Y116.452 E6.72519
G1 X105.796 Y116.192 E6.74933
G1 X105.534 Y116.004 E6.76541
G1 X105.309 Y115.833 E6.77951
G1 X104.944 Y115.518 E6.80357
G1 X104.629 Y115.212 E6.82548
G1 X104.539 Y115.12 E6.8319
G1 X104.198 Y114.728 E6.85782
G1 X103.997 Y114.467 E6.87425
G1 X103.838 Y114.25 E6.88767
G1 X103.572 Y113.834 E6.91231
G1 X103.388 Y113.504 E6.93116
G1 X103.299 Y113.335 E6.94069
G1 X103.09 Y112.875 E6.9659
G1 X102.931 Y112.46 E6.98807
G1 X102.887 Y112.334 E6.99473
G1 X102.75 Y111.856 E7.01953
G1 X102.646 Y111.393 E7.04321
G1 X102.631 Y111.318 E7.04702
G1 X102.561 Y110.815 E7.07236
G1 X102.533 Y110.474 E7.08943
G1 X102.518 Y110.217 E7.10227
G1 X102.521 Y109.712 E7.12747
G1 X102.546 Y109.339 E7.14612
G1 X102.562 Y109.16 E7.15509
G1 X102.64 Y108.641 E7.18127
G1 X102.709 Y108.315 E7.19789
G1 X102.764 Y108.081 E7.20989
G1 X102.907 Y107.614 E7.23425
G1 X103.068 Y107.18 E7.25735
G1 X103.12 Y107.051 E7.26429
G1 X103.33 Y106.605 E7.28888
G1 X103.478 Y106.331 E7.30442
G1 X103.626 Y106.074 E7.31921
G1 X103.875 Y105.699 E7.34167
G1 X104.082 Y105.42 E7.359
G1 X104.248 Y105.208 E7.37244
G1 X104.573 Y104.846 E7.39671
G1 X104.823 Y104.596 E7.41435
G0 F6000 X105.106 Y104.879
G1 F1200 X105.302 Y104.693 E7.42783
G1 X105.614 Y104.435 E7.44803
G1 X105.928 Y104.203 E7.4675
G1 X106.071 Y104.103 E7.47621
G1 X106.45 Y103.868 E7.49846
G1 X106.709 Y103.727 E7.51317
G1 X107.008 Y103.577 E7.52986
G1 X107.372 Y103.42 E7.54964
G1 X107.622 Y103.327 E7.56294
G1 X107.907 Y103.233 E7.57792
G1 X108.229 Y103.14 E7.59464
G1 X108.627 Y103.047 E7.61503
G1 X108.826 Y103.011 E7.62512
G1 X109.111 Y102.97 E7.63948
G1 X109.409 Y102.938 E7.65443
G1 X109.874 Y102.915 E7.67766
G1 X110.304 Y102.921 E7.69912
G1 X110.433 Y102.926 E7.70556
G1 X110.883 Y102.969 E7.72811
G1 X111.177 Y103.014 E7.74295
G1 X111.449 Y103.063 E7.75674
G1 X111.896 Y103.173 E7.7797
G1 X112.303 Y103.299 E7.80096
G1 X112.394 Y103.329 E7.80574
G1 X112.859 Y103.515 E7.83073
G1 X113.12 Y103.639 E7.84514
G1 X113.374 Y103.768 E7.85936
G1 X113.761 Y103.995 E7.88174
G1 X114.042 Y104.182 E7.89858
G1 X114.234 Y104.317 E7.91029
G1 X114.588 Y104.6 E7.9329
G1 X114.868 Y104.853 E7.95173
G1 X114.993 Y104.971 E7.9603
G1 X115.323 Y105.323 E7.98437
G1 X115.559 Y105.609 E8.00287
G1 X115.664 Y105.741 E8.01129
G1 X115.944 Y106.14 E8.03561
G1 X116.121 Y106.43 E8.05256
G1 X116.206 Y106.576 E8.06099
G1 X116.433 Y107.03 E8.08631
G1 X116.612 Y107.453 E8.10923
G1 X116.793 Y107.983 E8.13717
G1 X116.896 Y108.373 E8.15729
G1 X116.925 Y108.492 E8.1634
G1 X117.013 Y108.984 E8.18834
G1 X117.061 Y109.415 E8.20997
G1 X117.072 Y109.538 E8.21613
G1 X117.086 Y110.007 E8.23954
G1 X117.074 Y110.396 E8.25896
G1 X117.065 Y110.56 E8.26715
G1 X117.012 Y111.024 E8.29045
G1 X116.945 Y111.402 E8.30961
G1 X116.91 Y111.572 E8.31826
G1 X116.791 Y112.016 E8.3412
G1 X116.652 Y112.438 E8.36336
G1 X116.433 Y112.97 E8.39207
G1 X116.254 Y113.328 E8.41204
G1 X116.175 Y113.477 E8.42045
G1 X115.928 Y113.882 E8.44412
G1 X115.718 Y114.182 E8.46239
G1 X115.613 Y114.325 E8.47124
G1 X115.323 Y114.677 E8.49399
G1 X115.052 Y114.967 E8.51379
G1 X114.939 Y115.082 E8.52184
G1 X114.593 Y115.395 E8.54511
G1 X114.353 Y115.588 E8.56048
G1 X114.144 Y115.748 E8.57361
G1 X113.768 Y116.001 E8.59622
G1 X113.506 Y116.156 E8.61141
G1 X113.26 Y116.292 E8.62543
G1 X112.865 Y116.481 E8.64728
G1 X112.475 Y116.64 E8.66829
G1 X112.352 Y116.686 E8.67484
G1 X111.913 Y116.821 E8.69775
G1 X111.451 Y116.935 E8.7215
G1 X111.355 Y116.956 E8.7264
G1 X110.893 Y117.029 E8.74973
G1 X110.589 Y117.059 E8.76497
G1 X110.307 Y117.079 E8.77908
G1 X109.873 Y117.084 E8.80073
G1 X109.486 Y117.066 E8.82006
G1 X109.314 Y117.053 E8.82867
G1 X108.858 Y116.992 E8.85162
G1 X108.526 Y116.928 E8.86849
G1 X108.3 Y116.879 E8.88002
G1 X107.862 Y116.755 E8.90273
G1 X107.579 Y116.657 E8.91768
G1 X107.323 Y116.561 E8.93132
G1 X106.923 Y116.382 E8.95318
G1 X106.657 Y116.245 E8.96811
G1 X106.4 Y116.103 E8.98276
G1 X106.029 Y115.867 E9.00469
G1 X105.767 Y115.679 E9.02078
G1 X105.553 Y115.517 E9.03417
G1 X105.221 Y115.23 E9.05607
G1 X104.997 Y115.014 E9.07159
G1 X104.825 Y114.84 E9.0838
G1 X104.515 Y114.484 E9.10735
G1 X104.24 Y114.124 E9.12995
G1 X104.162 Y114.016 E9.1366
G1 X103.92 Y113.638 E9.15899
G1 X103.796 Y113.418 E9.17159
G1 X103.653 Y113.149 E9.18679
G1 X103.462 Y112.731 E9.20971
G1 X103.355 Y112.455 E9.22448
G1 X103.265 Y112.202 E9.23788
G1 X103.14 Y111.767 E9.26046
G1 X103.039 Y111.314 E9.28362
G1 X103.024 Y111.239 E9.28743
G1 X102.959 Y110.782 E9.31046
G1 X102.931 Y110.441 E9.32753
G1 X102.917 Y110.196 E9.33977
G1 X102.92 Y109.738 E9.36262
G1 X102.945 Y109.375 E9.38078
G1 X102.961 Y109.196 E9.38974
G1 X103.032 Y108.724 E9.41356
G1 X103.129 Y108.275 E9.43647
G1 X103.153 Y108.177 E9.44151
G1 X103.282 Y107.752 E9.46367
G1 X103.393 Y107.449 E9.47976
G1 X103.491 Y107.201 E9.49307
G1 X103.682 Y106.795 E9.51545
G1 X103.83 Y106.521 E9.53099
G1 X103.97 Y106.278 E9.54498
G1 X104.197 Y105.938 E9.56538
G1 X104.404 Y105.659 E9.58271
G1 X104.561 Y105.458 E9.59543
G1 X104.856 Y105.129 E9.61748
G1 X105.106 Y104.879 E9.63512
G0 F6000 X105.388 Y105.161
