;FLAVOR:Marlin
;TIME:168
;Filament used: 0.0837531m
;Layer height: 0.15
;MINX:96.85
;MINY:101.2
;MINZ:0.3
;MAXX:123.15
;MAXY:118.7
;MAXZ:2.55
;Generated with Cura_SteamEngine 4.10.0
M140 S60
M105
M190 S60
M104 S200
M105
M109 S200
M82 ;absolute extrusion mode
G21
G90
M107
G28 X0 Y0
G28 Z0
G1 Z15.0 F{travel_xy_speed}
G29
G92 E0
G1 F200 E10
G92 E0
G1 F{travel_xy_speed}
M117 Printing...
G92 E0
G92 E0
G1 F1500 E-6.5
;LAYER_COUNT:16
;LAYER:0
M107
M204 S1000
G0 F6000 X98.266 Y102.384 Z0.3
;TYPE:SKIRT
G1 F1500 E0
G1 F1200 X98.727 Y102.011 E0.02958
G1 X99.234 Y101.703 E0.05918
G1 X99.777 Y101.466 E0.08874
G1 X100.348 Y101.304 E0.11835
G1 X101.136 Y101.211 E0.15794
G1 X101.58 Y101.2 E0.1801
G1 X118.106 Y101.2 E1.00458
G1 X118.804 Y101.21 E1.03941
G1 X119.395 Y101.259 E1.06899
G1 X119.974 Y101.386 E1.09857
G1 X120.531 Y101.59 E1.12816
G1 X121.055 Y101.868 E1.15775
G1 X121.537 Y102.213 E1.18733
G1 X121.969 Y102.62 E1.21694
G1 X122.341 Y103.081 E1.24649
G1 X122.649 Y103.588 E1.27609
G1 X122.885 Y104.132 E1.30567
G1 X123.046 Y104.702 E1.33522
G1 X123.139 Y105.486 E1.37461
G1 X123.15 Y105.93 E1.39677
G1 X123.15 Y113.618 E1.78032
G1 X123.141 Y114.345 E1.8166
G1 X123.093 Y114.937 E1.84623
G1 X122.967 Y115.516 E1.87579
G1 X122.764 Y116.073 E1.90537
G1 X122.488 Y116.598 E1.93496
G1 X122.144 Y117.081 E1.96454
G1 X121.738 Y117.513 E1.99412
G1 X121.277 Y117.886 E2.02371
G1 X120.771 Y118.195 E2.05328
G1 X120.228 Y118.432 E2.08284
G1 X119.657 Y118.595 E2.11247
G1 X118.864 Y118.689 E2.15231
G1 X118.42 Y118.7 E2.17447
G1 X101.9 Y118.7 E2.99865
G1 X101.202 Y118.691 E3.03348
G1 X100.611 Y118.643 E3.06306
G1 X100.032 Y118.516 E3.09263
G1 X99.475 Y118.313 E3.12221
G1 X98.95 Y118.037 E3.1518
G1 X98.468 Y117.692 E3.18137
G1 X98.036 Y117.286 E3.21095
G1 X97.662 Y116.825 E3.24057
G1 X97.354 Y116.319 E3.27012
G1 X97.117 Y115.775 E3.29973
G1 X96.955 Y115.205 E3.32929
G1 X96.861 Y114.41 E3.36923
G1 X96.85 Y113.958 E3.39178
G1 X96.85 Y106.214 E3.77813
G1 X96.859 Y105.549 E3.81131
G1 X96.907 Y104.958 E3.8409
G1 X97.034 Y104.379 E3.87047
G1 X97.238 Y103.822 E3.90006
G1 X97.515 Y103.298 E3.92963
G1 X97.86 Y102.816 E3.95921
G1 X98.266 Y102.384 E3.98878
G0 F6000 X98.656 Y102.572
G1 F1200 X99.11 Y102.235 E4.01699
G1 X99.607 Y101.966 E4.04519
G1 X100.137 Y101.769 E4.0734
G1 X100.69 Y101.65 E4.10162
G1 X101.147 Y101.611 E4.1245
G1 X101.58 Y101.6 E4.14611
G1 X118.1 Y101.6 E4.97029
G1 X118.798 Y101.61 E5.00512
G1 X119.362 Y101.658 E5.03336
G1 X119.912 Y101.785 E5.06152
G1 X120.44 Y101.989 E5.08976
G1 X120.934 Y102.264 E5.11797
G1 X121.383 Y102.607 E5.14616
G1 X121.78 Y103.009 E5.17435
G1 X122.117 Y103.464 E5.20259
G1 X122.385 Y103.961 E5.23077
G1 X122.581 Y104.491 E5.25896
G1 X122.701 Y105.044 E5.28719
G1 X122.739 Y105.498 E5.30992
G1 X122.75 Y105.93 E5.33148
G1 X122.75 Y113.614 E5.71483
G1 X122.741 Y114.341 E5.75111
G1 X122.694 Y114.904 E5.77929
G1 X122.568 Y115.455 E5.80749
G1 X122.366 Y115.983 E5.8357
G1 X122.091 Y116.477 E5.8639
G1 X121.749 Y116.927 E5.8921
G1 X121.347 Y117.325 E5.92032
G1 X120.894 Y117.662 E5.94849
G1 X120.397 Y117.932 E5.97671
G1 X119.867 Y118.129 E6.00492
G1 X119.315 Y118.25 E6.03311
G1 X118.853 Y118.289 E6.05624
G1 X118.42 Y118.3 E6.07785
G1 X101.905 Y118.3 E6.90179
G1 X101.207 Y118.291 E6.93662
G1 X100.644 Y118.243 E6.96481
G1 X100.093 Y118.117 E6.99301
G1 X99.565 Y117.915 E7.02121
G1 X99.071 Y117.64 E7.04942
G1 X98.621 Y117.298 E7.07762
G1 X98.223 Y116.896 E7.10584
G1 X97.887 Y116.442 E7.13402
G1 X97.617 Y115.945 E7.16223
G1 X97.42 Y115.415 E7.19044
G1 X97.3 Y114.863 E7.21863
G1 X97.26 Y114.399 E7.24186
G1 X97.251 Y114.066 E7.25848
G1 X97.25 Y106.22 E7.64992
G1 X97.259 Y105.555 E7.6831
G1 X97.307 Y104.992 E7.71129
G1 X97.433 Y104.441 E7.73949
G1 X97.636 Y103.913 E7.76771
G1 X97.912 Y103.419 E7.79594
G1 X98.254 Y102.969 E7.82414
G1 X98.656 Y102.572 E7.85233
G0 F6000 X98.647 Y103.131
G1 F1200 X99.044 Y102.771 E7.87907
G1 X99.491 Y102.473 E7.90587
G1 X99.976 Y102.245 E7.9326
G1 X100.49 Y102.092 E7.95936
G1 X101.158 Y102.01 E7.99294
G1 X101.58 Y102 E8.014
G1 X118.095 Y102 E8.83793
G1 X118.793 Y102.01 E8.87276
G1 X119.327 Y102.058 E8.89951
G1 X119.848 Y102.184 E8.92625
G1 X120.345 Y102.387 E8.95304
G1 X120.806 Y102.661 E8.97979
G1 X121.221 Y103 E9.00652
G1 X121.581 Y103.398 E9.0333
G1 X121.878 Y103.844 E9.06003
G1 X122.106 Y104.33 E9.08681
G1 X122.258 Y104.844 E9.11356
G1 X122.34 Y105.509 E9.14698
G1 X122.35 Y105.93 E9.16799
G1 X122.35 Y113.609 E9.5511
G1 X122.341 Y114.336 E9.58737
G1 X122.294 Y114.87 E9.61412
G1 X122.169 Y115.391 E9.64085
G1 X121.967 Y115.888 E9.66761
G1 X121.694 Y116.35 E9.69439
G1 X121.356 Y116.766 E9.72113
G1 X120.959 Y117.127 E9.7479
G1 X120.513 Y117.425 E9.77466
G1 X120.028 Y117.653 E9.8014
G1 X119.514 Y117.807 E9.82817
G1 X118.842 Y117.89 E9.86195
G1 X118.42 Y117.9 E9.88301
G1 X101.911 Y117.9 E10.70664
G1 X101.213 Y117.891 E10.74147
G1 X100.678 Y117.844 E10.76826
G1 X100.157 Y117.718 E10.79501
G1 X99.66 Y117.516 E10.82177
G1 X99.199 Y117.243 E10.8485
G1 X98.783 Y116.904 E10.87527
G1 X98.422 Y116.508 E10.90201
G1 X98.124 Y116.062 E10.92877
G1 X97.896 Y115.576 E10.95555
G1 X97.743 Y115.062 E10.98231
G1 X97.66 Y114.388 E11.01619
G1 X97.65 Y113.958 E11.03764
G1 X97.65 Y106.225 E11.42345
G1 X97.659 Y105.56 E11.45663
G1 X97.707 Y105.026 E11.48337
G1 X97.833 Y104.505 E11.51012
G1 X98.035 Y104.008 E11.53688
G1 X98.308 Y103.547 E11.56361
G1 X98.647 Y103.131 E11.59038
G0 F6000 X99.039 Y103.304
G1 F1200 X99.43 Y102.983 E11.61562
G1 X99.867 Y102.728 E11.64087
G1 X100.338 Y102.544 E11.66609
G1 X100.832 Y102.438 E11.6913
G1 X101.169 Y102.41 E11.70817
G1 X101.58 Y102.4 E11.72868
G1 X118.089 Y102.4 E12.55232
G1 X118.787 Y102.41 E12.58715
G1 X119.29 Y102.457 E12.61235
G1 X119.78 Y102.583 E12.63759
G1 X120.244 Y102.785 E12.66284
G1 X120.67 Y103.057 E12.68806
G1 X121.048 Y103.392 E12.71325
G1 X121.368 Y103.783 E12.73846
G1 X121.623 Y104.22 E12.7637
G1 X121.806 Y104.691 E12.78891
G1 X121.913 Y105.185 E12.81413
G1 X121.94 Y105.52 E12.8309
G1 X121.95 Y105.93 E12.85136
G1 X121.95 Y113.604 E13.23422
G1 X121.941 Y114.331 E13.27049
G1 X121.895 Y114.834 E13.29569
G1 X121.77 Y115.324 E13.32092
G1 X121.569 Y115.788 E13.34615
G1 X121.298 Y116.215 E13.37138
G1 X120.963 Y116.594 E13.39661
G1 X120.573 Y116.915 E13.42181
G1 X120.137 Y117.171 E13.44704
G1 X119.666 Y117.354 E13.47225
G1 X119.172 Y117.462 E13.49748
G1 X118.831 Y117.49 E13.51455
G1 X118.42 Y117.5 E13.53506
G1 X101.916 Y117.5 E14.35844
G1 X101.218 Y117.491 E14.39327
G1 X100.714 Y117.444 E14.41852
G1 X100.224 Y117.319 E14.44375
G1 X99.76 Y117.118 E14.46898
G1 X99.334 Y116.847 E14.49417
G1 X98.955 Y116.512 E14.51941
G1 X98.634 Y116.121 E14.54464
G1 X98.379 Y115.685 E14.56984
G1 X98.195 Y115.214 E14.59507
G1 X98.088 Y114.72 E14.62029
G1 X98.06 Y114.377 E14.63746
G1 X98.05 Y113.958 E14.65837
G1 X98.05 Y106.231 E15.04387
G1 X98.059 Y105.566 E15.07705
G1 X98.106 Y105.062 E15.1023
G1 X98.232 Y104.573 E15.1275
G1 X98.433 Y104.109 E15.15272
G1 X98.704 Y103.682 E15.17796
G1 X99.039 Y103.304 E15.20315
G1 F1500 E8.70315
;MESH:cover_usb.stl
G0 F6000 X101.664 Y104.935
G0 X101.664 Y106.014
G0 X117.968 Y106.382
G0 X118.15 Y113.7
;TYPE:WALL-INNER
G1 F1500 E15.20315
G1 F1200 X101.85 Y113.7 E16.01637
G1 X101.85 Y106.2 E16.39054
G1 X118.15 Y106.2 E17.20375
G1 X118.15 Y113.7 E17.57793
G0 F6000 X118.55 Y114.1
;TYPE:WALL-OUTER
G1 F1200 X101.45 Y114.1 E18.43105
G1 X101.45 Y105.8 E18.84514
G1 X118.55 Y105.8 E19.69826
G1 X118.55 Y114.1 E20.11235
G0 F6000 X118.35 Y114.1
G0 X118.11 Y113.66
G0 X117.76 Y113.31
;TYPE:SKIN
G1 F1200 X102.24 Y113.31 E20.88665
G1 X102.24 Y106.59 E21.22191
G1 X117.76 Y106.59 E21.9962
G1 X117.76 Y113.31 E22.33147
G0 F6000 X118.04 Y113.31
G0 X118.04 Y106.851
G0 X117.599 Y106.851
G1 F1200 X117.497 Y106.749 E22.33866
G0 F6000 X116.932 Y106.749
G1 F1200 X117.599 Y107.417 E22.38576
G0 F6000 X117.599 Y107.982
G1 F1200 X116.366 Y106.749 E22.47275
G0 F6000 X115.8 Y106.749
G1 F1200 X117.599 Y108.548 E22.59968
G0 F6000 X117.599 Y109.114
G1 F1200 X115.235 Y106.749 E22.76651
G0 F6000 X114.669 Y106.749
G1 F1200 X117.599 Y109.68 E22.97327
G0 F6000 X117.599 Y110.245
G1 F1200 X114.103 Y106.749 E23.21994
G0 F6000 X113.538 Y106.749
G1 F1200 X117.599 Y110.811 E23.5065
G0 F6000 X117.599 Y111.377
G1 F1200 X112.972 Y106.749 E23.83299
G0 F6000 X112.406 Y106.749
G1 F1200 X117.599 Y111.942 E24.19939
G0 F6000 X117.599 Y112.508
G1 F1200 X111.84 Y106.749 E24.60571
G0 F6000 X111.275 Y106.749
G1 F1200 X117.599 Y113.074 E25.05194
G0 F6000 X117.108 Y113.149
G1 F1200 X110.709 Y106.749 E25.50346
G0 F6000 X110.143 Y106.749
G1 F1200 X116.543 Y113.149 E25.95502
G0 F6000 X115.977 Y113.149
G1 F1200 X109.578 Y106.749 E26.40654
G0 F6000 X109.012 Y106.749
G1 F1200 X115.411 Y113.149 E26.85805
G0 F6000 X114.846 Y113.149
G1 F1200 X108.446 Y106.749 E27.30961
G0 F6000 X107.881 Y106.749
G1 F1200 X114.28 Y113.149 E27.76113
G0 F6000 X113.714 Y113.149
G1 F1200 X107.315 Y106.749 E28.21265
G0 F6000 X106.749 Y106.749
G1 F1200 X113.149 Y113.149 E28.6642
G0 F6000 X112.583 Y113.149
G1 F1200 X106.184 Y106.749 E29.11572
G0 F6000 X105.618 Y106.749
G1 F1200 X112.017 Y113.149 E29.56724
G0 F6000 X111.452 Y113.149
G1 F1200 X105.052 Y106.749 E30.0188
G0 F6000 X104.487 Y106.749
G1 F1200 X110.886 Y113.149 E30.47031
G0 F6000 X110.32 Y113.149
G1 F1200 X103.921 Y106.749 E30.92183
G0 F6000 X103.355 Y106.749
G1 F1200 X109.754 Y113.149 E31.37335
G0 F6000 X109.189 Y113.149
G1 F1200 X102.789 Y106.749 E31.82491
G0 F6000 X102.399 Y106.925
G1 F1200 X108.623 Y113.149 E32.26404
G0 F6000 X108.057 Y113.149
G1 F1200 X102.399 Y107.49 E32.66328
G0 F6000 X102.399 Y108.056
G1 F1200 X107.492 Y113.149 E33.02262
G0 F6000 X106.926 Y113.149
G1 F1200 X102.399 Y108.622 E33.34203
G0 F6000 X102.399 Y109.187
G1 F1200 X106.36 Y113.149 E33.62153
G0 F6000 X105.795 Y113.149
G1 F1200 X102.399 Y109.753 E33.86114
G0 F6000 X102.399 Y110.319
G1 F1200 X105.229 Y113.149 E34.06081
G0 F6000 X104.663 Y113.149
G1 F1200 X102.399 Y110.884 E34.22058
G0 F6000 X102.399 Y111.45
G1 F1200 X104.098 Y113.149 E34.34045
G0 F6000 X103.532 Y113.149
G1 F1200 X102.399 Y112.016 E34.42039
G0 F6000 X102.399 Y112.582
G1 F1200 X102.966 Y113.149 E34.4604
G0 F6000 X102.966 Y113.5
;MESH:NONMESH
G0 F300 X102.966 Y113.5 Z0.45
G0 F6000 X102.966 Y113.59
G0 X118.15 Y113.7
;TIME_ELAPSED:44.180504
;LAYER:1
M106 S85
;TYPE:WALL-INNER
;MESH:cover_usb.stl
G1 F2220 X101.85 Y113.7 E34.867
G1 X101.85 Y106.2 E35.05409
G1 X118.15 Y106.2 E35.4607
G1 X118.15 Y113.7 E35.64779
G0 F7500 X118.55 Y114.1
;TYPE:WALL-OUTER
G1 F1410 X101.45 Y114.1 E36.07435
G1 X101.45 Y105.8 E36.28139
G1 X118.55 Y105.8 E36.70795
G1 X118.55 Y114.1 E36.915
G0 F7500 X118.35 Y114.1
G0 X118.11 Y113.66
G0 X117.76 Y113.31
;TYPE:SKIN
G1 F1200 X102.24 Y113.31 E37.30214
G1 X102.24 Y106.59 E37.46978
G1 X117.76 Y106.59 E37.85692
G1 X117.76 Y113.31 E38.02456
G0 F7500 X117.598 Y112.635
G1 F1200 X117.084 Y113.149 E38.04269
G0 F7500 X116.518 Y113.149
G1 F1200 X117.598 Y112.069 E38.08079
G0 F7500 X117.598 Y111.503
G1 F1200 X115.952 Y113.149 E38.13885
G0 F7500 X115.387 Y113.149
G1 F1200 X117.598 Y110.937 E38.21687
G0 F7500 X117.598 Y110.372
G1 F1200 X114.821 Y113.149 E38.31484
G0 F7500 X114.255 Y113.149
G1 F1200 X117.598 Y109.806 E38.43277
G0 F7500 X117.598 Y109.24
G1 F1200 X113.69 Y113.149 E38.57065
G0 F7500 X113.124 Y113.149
G1 F1200 X117.598 Y108.675 E38.72849
G0 F7500 X117.598 Y108.109
G1 F1200 X112.558 Y113.149 E38.90629
G0 F7500 X111.992 Y113.149
G1 F1200 X117.598 Y107.543 E39.10405
G0 F7500 X117.598 Y106.978
G1 F1200 X111.427 Y113.149 E39.32175
G0 F7500 X110.861 Y113.149
G1 F1200 X117.262 Y106.749 E39.54755
G0 F7500 X116.696 Y106.749
G1 F1200 X110.295 Y113.149 E39.77334
G0 F7500 X109.73 Y113.149
G1 F1200 X116.13 Y106.749 E39.99912
G0 F7500 X115.565 Y106.749
G1 F1200 X109.164 Y113.149 E40.22491
G0 F7500 X108.598 Y113.149
G1 F1200 X114.999 Y106.749 E40.45071
G0 F7500 X114.433 Y106.749
G1 F1200 X108.033 Y113.149 E40.67649
G0 F7500 X107.467 Y113.149
G1 F1200 X113.868 Y106.749 E40.90228
G0 F7500 X113.302 Y106.749
G1 F1200 X106.901 Y113.149 E41.12808
G0 F7500 X106.336 Y113.149
G1 F1200 X112.736 Y106.749 E41.35385
G0 F7500 X112.171 Y106.749
G1 F1200 X105.77 Y113.149 E41.57965
G0 F7500 X105.204 Y113.149
G1 F1200 X111.605 Y106.749 E41.80544
G0 F7500 X111.039 Y106.749
G1 F1200 X104.639 Y113.149 E42.03122
G0 F7500 X104.073 Y113.149
G1 F1200 X110.474 Y106.749 E42.25701
G0 F7500 X109.908 Y106.749
G1 F1200 X103.507 Y113.149 E42.48281
G0 F7500 X102.942 Y113.149
G1 F1200 X109.342 Y106.749 E42.70859
G0 F7500 X108.777 Y106.749
G1 F1200 X102.4 Y113.125 E42.93354
G0 F7500 X102.4 Y112.56
G1 F1200 X108.211 Y106.749 E43.13853
G0 F7500 X107.645 Y106.749
G1 F1200 X102.4 Y111.994 E43.32357
G0 F7500 X102.4 Y111.428
G1 F1200 X107.08 Y106.749 E43.48865
G0 F7500 X106.514 Y106.749
G1 F1200 X102.4 Y110.863 E43.63378
G0 F7500 X102.4 Y110.297
G1 F1200 X105.948 Y106.749 E43.75895
G0 F7500 X105.382 Y106.749
G1 F1200 X102.4 Y109.731 E43.86414
G0 F7500 X102.4 Y109.165
G1 F1200 X104.817 Y106.749 E43.94939
G0 F7500 X104.251 Y106.749
G1 F1200 X102.4 Y108.6 E44.01469
G0 F7500 X102.4 Y108.034
G1 F1200 X103.685 Y106.749 E44.06002
G0 F7500 X103.12 Y106.749
G1 F1200 X102.4 Y107.468 E44.08541
G0 F7500 X102.4 Y106.903
G1 F1200 X102.554 Y106.749 E44.09084
G0 F7500 X102.554 Y106.4
;MESH:NONMESH
G0 F300 X102.554 Y106.4 Z0.6
G0 F7500 X102.554 Y106.31
G0 X117.968 Y106.382
G0 X118.15 Y113.7
;TIME_ELAPSED:65.894502
;LAYER:2
M106 S170
;TYPE:WALL-INNER
;MESH:cover_usb.stl
G1 F3240 X101.85 Y113.7 E44.49744
G1 X101.85 Y106.2 E44.68453
G1 X118.15 Y106.2 E45.09114
G1 X118.15 Y113.7 E45.27822
G0 F9000 X118.55 Y114.1
;TYPE:WALL-OUTER
G1 F1620 X101.45 Y114.1 E45.70479
G1 X101.45 Y105.8 E45.91183
G1 X118.55 Y105.8 E46.33839
G1 X118.55 Y114.1 E46.54544
G0 F9000 X118.35 Y114.1
G0 X118.11 Y113.66
G0 X117.76 Y113.31
;TYPE:SKIN
G1 F1200 X102.24 Y113.31 E46.93258
G1 X102.24 Y106.59 E47.10021
G1 X117.76 Y106.59 E47.48736
G1 X117.76 Y113.31 E47.65499
G0 F9000 X118.04 Y113.31
G0 X118.04 Y106.851
G0 X117.599 Y106.851
G1 F1200 X117.497 Y106.749 E47.65859
G0 F9000 X116.932 Y106.749
G1 F1200 X117.599 Y107.417 E47.68214
G0 F9000 X117.599 Y107.982
G1 F1200 X116.366 Y106.749 E47.72564
G0 F9000 X115.8 Y106.749
G1 F1200 X117.599 Y108.548 E47.7891
G0 F9000 X117.599 Y109.114
G1 F1200 X115.235 Y106.749 E47.87252
G0 F9000 X114.669 Y106.749
G1 F1200 X117.599 Y109.68 E47.9759
G0 F9000 X117.599 Y110.245
G1 F1200 X114.103 Y106.749 E48.09923
G0 F9000 X113.538 Y106.749
G1 F1200 X117.599 Y110.811 E48.24251
G0 F9000 X117.599 Y111.377
G1 F1200 X112.972 Y106.749 E48.40576
G0 F9000 X112.406 Y106.749
G1 F1200 X117.599 Y111.942 E48.58895
G0 F9000 X117.599 Y112.508
G1 F1200 X111.84 Y106.749 E48.79212
G0 F9000 X111.275 Y106.749
G1 F1200 X117.599 Y113.074 E49.01523
G0 F9000 X117.108 Y113.149
G1 F1200 X110.709 Y106.749 E49.24099
G0 F9000 X110.143 Y106.749
G1 F1200 X116.543 Y113.149 E49.46677
G0 F9000 X115.977 Y113.149
G1 F1200 X109.578 Y106.749 E49.69253
G0 F9000 X109.012 Y106.749
G1 F1200 X115.411 Y113.149 E49.91829
G0 F9000 X114.846 Y113.149
G1 F1200 X108.446 Y106.749 E50.14407
G0 F9000 X107.881 Y106.749
G1 F1200 X114.28 Y113.149 E50.36982
G0 F9000 X113.714 Y113.149
G1 F1200 X107.315 Y106.749 E50.59558
G0 F9000 X106.749 Y106.749
G1 F1200 X113.149 Y113.149 E50.82136
G0 F9000 X112.583 Y113.149
G1 F1200 X106.184 Y106.749 E51.04712
G0 F9000 X105.618 Y106.749
G1 F1200 X112.017 Y113.149 E51.27288
G0 F9000 X111.452 Y113.149
G1 F1200 X105.052 Y106.749 E51.49866
G0 F9000 X104.487 Y106.749
G1 F1200 X110.886 Y113.149 E51.72442
G0 F9000 X110.32 Y113.149
G1 F1200 X103.921 Y106.749 E51.95018
G0 F9000 X103.355 Y106.749
G1 F1200 X109.754 Y113.149 E52.17594
G0 F9000 X109.189 Y113.149
G1 F1200 X102.789 Y106.749 E52.40171
G0 F9000 X102.399 Y106.925
G1 F1200 X108.623 Y113.149 E52.62128
G0 F9000 X108.057 Y113.149
G1 F1200 X102.399 Y107.49 E52.8209
G0 F9000 X102.399 Y108.056
G1 F1200 X107.492 Y113.149 E53.00057
G0 F9000 X106.926 Y113.149
G1 F1200 X102.399 Y108.622 E53.16027
G0 F9000 X102.399 Y109.187
G1 F1200 X106.36 Y113.149 E53.30003
G0 F9000 X105.795 Y113.149
G1 F1200 X102.399 Y109.753 E53.41983
G0 F9000 X102.399 Y110.319
G1 F1200 X105.229 Y113.149 E53.51966
