;FLAVOR:Marlin
;TIME:6011
;Filament used: 4.93392m
;Layer height: 0.3
;MINX:73.079
;MINY:73.079
;MINZ:0.3
;MAXX:146.921
;MAXY:146.921
;MAXZ:17.1
;Generated with Cura_SteamEngine 4.10.0
M140 S60
M105
M190 S60
M104 S200
M105
M109 S200
M82 ;absolute extrusion mode
G21
G90
M107
G28 X0 Y0
G28 Z0
G1 Z15.0 F{travel_xy_speed}
G29
G92 E0
G1 F200 E10
G92 E0
G1 F{travel_xy_speed}
M117 Printing...
G92 E0
G92 E0
G1 F1500 E-6.5
;LAYER_COUNT:57
;LAYER:0
M107
M204 S1000
G0 F6000 X78.855 Y88.93 Z0.3
;TYPE:SKIRT
G1 F1500 E0
G1 F1200 X89.262 Y78.525 E0.7342
G1 X89.995 Y77.813 E0.78518
G1 X90.202 Y77.621 E0.79927
G1 X90.717 Y77.164 E0.83362
G1 X90.873 Y77.033 E0.84378
G1 X91.466 Y76.566 E0.88144
G1 X91.874 Y76.262 E0.90682
G1 X92.05 Y76.139 E0.91754
G1 X92.623 Y75.763 E0.95173
G1 X93.159 Y75.432 E0.98316
G1 X93.337 Y75.329 E0.99342
G1 X93.98 Y74.984 E1.02982
G1 X94.453 Y74.746 E1.05624
G1 X94.647 Y74.655 E1.06693
G1 X95.237 Y74.401 E1.09898
G1 X95.802 Y74.175 E1.12934
G1 X96.005 Y74.101 E1.14012
G1 X96.778 Y73.846 E1.18072
G1 X97.259 Y73.703 E1.20576
G1 X97.455 Y73.651 E1.21588
G1 X98.162 Y73.485 E1.25211
G1 X98.712 Y73.371 E1.28013
G1 X98.922 Y73.334 E1.29077
G1 X99.627 Y73.232 E1.32631
G1 X100.148 Y73.17 E1.35248
G1 X100.361 Y73.151 E1.36315
G1 X100.835 Y73.123 E1.38684
G1 X100.971 Y73.118 E1.39363
G1 X102.855 Y73.079 E1.48765
G1 X117.566 Y73.079 E2.22158
G1 X118.709 Y73.097 E2.27861
G1 X118.903 Y73.106 E2.2883
G1 X119.57 Y73.145 E2.32163
G1 X119.776 Y73.163 E2.33195
G1 X120.538 Y73.253 E2.37023
G1 X121.061 Y73.33 E2.39661
G1 X121.264 Y73.366 E2.40689
G1 X121.919 Y73.501 E2.44026
G1 X122.032 Y73.526 E2.44603
G1 X122.511 Y73.641 E2.47061
G1 X122.699 Y73.692 E2.48033
G1 X123.333 Y73.881 E2.51333
G1 X123.441 Y73.915 E2.51898
G1 X123.94 Y74.081 E2.54522
G1 X124.132 Y74.151 E2.55541
G1 X124.866 Y74.444 E2.59484
G1 X125.311 Y74.637 E2.61904
G1 X125.493 Y74.722 E2.62906
G1 X126.111 Y75.032 E2.66356
G1 X126.642 Y75.317 E2.69362
G1 X126.818 Y75.419 E2.70377
G1 X127.396 Y75.775 E2.73764
G1 X127.911 Y76.112 E2.76834
G1 X128.081 Y76.231 E2.7787
G1 X128.678 Y76.676 E2.81584
G1 X129.067 Y76.982 E2.84054
G1 X129.237 Y77.124 E2.85159
G1 X129.606 Y77.453 E2.87625
G1 X129.7 Y77.54 E2.88264
G1 X131.039 Y78.824 E2.9752
G1 X141.475 Y89.262 E3.71158
G1 X142.187 Y89.995 E3.76256
G1 X142.379 Y90.202 E3.77665
G1 X142.836 Y90.717 E3.811
G1 X142.967 Y90.873 E3.82116
G1 X143.434 Y91.466 E3.85882
G1 X143.738 Y91.874 E3.88421
G1 X143.861 Y92.05 E3.89492
G1 X144.237 Y92.623 E3.92911
G1 X144.563 Y93.15 E3.96003
G1 X144.667 Y93.329 E3.97035
G1 X144.969 Y93.889 E4.0021
G1 X145.255 Y94.457 E4.03382
G1 X145.343 Y94.645 E4.04418
G1 X145.636 Y95.327 E4.08121
G1 X145.825 Y95.802 E4.10672
G1 X145.896 Y95.998 E4.11712
G1 X146.153 Y96.776 E4.158
G1 X146.296 Y97.256 E4.18298
G1 X146.349 Y97.456 E4.19331
G1 X146.515 Y98.162 E4.22949
G1 X146.629 Y98.712 E4.25751
G1 X146.666 Y98.922 E4.26815
G1 X146.768 Y99.629 E4.30379
G1 X146.83 Y100.153 E4.33011
G1 X146.849 Y100.363 E4.34063
G1 X146.889 Y101.037 E4.37432
G1 X146.919 Y102.026 E4.42368
G1 X146.921 Y102.132 E4.42897
G1 X146.921 Y117.567 E5.19903
G1 X146.903 Y118.71 E5.25606
G1 X146.894 Y118.904 E5.26575
G1 X146.855 Y119.572 E5.29913
G1 X146.837 Y119.778 E5.30945
G1 X146.747 Y120.539 E5.34768
G1 X146.67 Y121.062 E5.37405
G1 X146.633 Y121.267 E5.38444
G1 X146.497 Y121.925 E5.41797
G1 X146.472 Y122.037 E5.42369
G1 X146.356 Y122.52 E5.44847
G1 X146.306 Y122.706 E5.45808
G1 X146.089 Y123.43 E5.49579
G1 X145.919 Y123.941 E5.52266
G1 X145.848 Y124.136 E5.53301
G1 X145.597 Y124.767 E5.56689
G1 X145.364 Y125.309 E5.59632
G1 X145.278 Y125.494 E5.6065
G1 X144.966 Y126.116 E5.64122
G1 X144.915 Y126.214 E5.64673
G1 X144.682 Y126.645 E5.67117
G1 X144.58 Y126.822 E5.68137
G1 X144.225 Y127.398 E5.71512
G1 X143.899 Y127.896 E5.74482
G1 X143.78 Y128.066 E5.75517
G1 X143.366 Y128.623 E5.78979
G1 X142.989 Y129.103 E5.82025
G1 X142.85 Y129.269 E5.83105
G1 X142.369 Y129.806 E5.86701
G1 X141.74 Y130.473 E5.91275
G1 X130.774 Y141.44 E6.6865
G1 X130.005 Y142.187 E6.73999
G1 X129.798 Y142.379 E6.75407
G1 X129.283 Y142.836 E6.78842
G1 X129.127 Y142.967 E6.79859
G1 X128.534 Y143.434 E6.83624
G1 X128.126 Y143.738 E6.86163
G1 X127.95 Y143.861 E6.87234
G1 X127.377 Y144.237 E6.90653
G1 X126.841 Y144.568 E6.93796
G1 X126.663 Y144.671 E6.94822
G1 X126.02 Y145.016 E6.98463
G1 X125.547 Y145.254 E7.01104
G1 X125.354 Y145.344 E7.02167
G1 X124.673 Y145.636 E7.05863
G1 X124.198 Y145.825 E7.08414
G1 X124.002 Y145.896 E7.09454
G1 X123.222 Y146.154 E7.13553
G1 X122.741 Y146.297 E7.16056
G1 X122.545 Y146.349 E7.17068
G1 X121.838 Y146.515 E7.20691
G1 X121.288 Y146.629 E7.23493
G1 X121.078 Y146.666 E7.24557
G1 X120.372 Y146.768 E7.28116
G1 X119.849 Y146.83 E7.30744
G1 X119.636 Y146.849 E7.3181
G1 X119.158 Y146.877 E7.34199
G1 X119.022 Y146.882 E7.34878
G1 X117.133 Y146.921 E7.44305
G1 X102.434 Y146.921 E8.17638
G1 X101.291 Y146.903 E8.23341
G1 X101.097 Y146.894 E8.2431
G1 X100.429 Y146.855 E8.27649
G1 X100.223 Y146.837 E8.2868
G1 X99.462 Y146.747 E8.32503
G1 X98.939 Y146.67 E8.35141
G1 X98.736 Y146.634 E8.36169
G1 X98.081 Y146.499 E8.39506
G1 X97.968 Y146.474 E8.40083
G1 X97.489 Y146.359 E8.42541
G1 X97.301 Y146.308 E8.43513
G1 X96.667 Y146.119 E8.46813
G1 X96.559 Y146.085 E8.47378
G1 X96.057 Y145.918 E8.50018
G1 X95.864 Y145.848 E8.51042
G1 X95.237 Y145.599 E8.54408
G1 X94.686 Y145.361 E8.57402
G1 X94.505 Y145.277 E8.58398
G1 X93.885 Y144.966 E8.61858
G1 X93.352 Y144.679 E8.64878
G1 X93.18 Y144.58 E8.65868
G1 X92.605 Y144.226 E8.69237
G1 X92.089 Y143.888 E8.72315
G1 X91.919 Y143.769 E8.7335
G1 X91.318 Y143.321 E8.7709
G1 X90.939 Y143.022 E8.79498
G1 X90.772 Y142.882 E8.80585
G1 X90.39 Y142.541 E8.8314
G1 X90.298 Y142.456 E8.83765
G1 X88.933 Y141.148 E8.93197
G1 X78.525 Y130.738 E9.66638
G1 X77.814 Y130.006 E9.71729
G1 X77.62 Y129.797 E9.73152
G1 X77.163 Y129.282 E9.76587
G1 X77.031 Y129.125 E9.7761
G1 X76.628 Y128.615 E9.80853
G1 X76.262 Y128.126 E9.839
G1 X76.137 Y127.948 E9.84985
G1 X75.762 Y127.376 E9.88398
G1 X75.427 Y126.832 E9.91585
G1 X75.326 Y126.658 E9.92589
G1 X75.031 Y126.111 E9.95689
G1 X74.744 Y125.541 E9.98873
G1 X74.656 Y125.352 E9.99913
G1 X74.365 Y124.674 E10.03594
G1 X74.175 Y124.197 E10.06156
G1 X74.102 Y123.999 E10.07209
G1 X73.88 Y123.33 E10.10725
G1 X73.704 Y122.745 E10.13773
G1 X73.649 Y122.54 E10.14832
G1 X73.485 Y121.838 E10.18429
G1 X73.371 Y121.288 E10.21231
G1 X73.334 Y121.078 E10.22295
G1 X73.232 Y120.369 E10.25868
G1 X73.172 Y119.86 E10.28425
G1 X73.153 Y119.65 E10.29477
G1 X73.124 Y119.157 E10.31941
G1 X73.119 Y119.023 E10.3261
G1 X73.079 Y117.113 E10.42141
G1 X73.079 Y102.434 E11.15375
G1 X73.097 Y101.291 E11.21078
G1 X73.106 Y101.097 E11.22047
G1 X73.145 Y100.429 E11.25386
G1 X73.163 Y100.223 E11.26417
G1 X73.253 Y99.462 E11.3024
G1 X73.33 Y98.939 E11.32878
G1 X73.366 Y98.736 E11.33906
G1 X73.501 Y98.081 E11.37243
G1 X73.526 Y97.968 E11.3782
G1 X73.641 Y97.489 E11.40278
G1 X73.692 Y97.301 E11.4125
G1 X73.881 Y96.667 E11.4455
G1 X73.915 Y96.559 E11.45115
G1 X74.082 Y96.057 E11.47755
G1 X74.152 Y95.864 E11.48779
G1 X74.401 Y95.237 E11.52145
G1 X74.637 Y94.689 E11.55121
G1 X74.722 Y94.507 E11.56123
G1 X75.034 Y93.885 E11.59595
G1 X75.085 Y93.787 E11.60146
G1 X75.318 Y93.356 E11.62591
G1 X75.42 Y93.179 E11.6361
G1 X75.775 Y92.603 E11.66985
G1 X76.112 Y92.089 E11.70052
G1 X76.231 Y91.919 E11.71087
G1 X76.676 Y91.321 E11.74806
G1 X76.983 Y90.931 E11.77282
G1 X77.124 Y90.763 E11.78376
G1 X77.435 Y90.414 E11.80709
G1 X77.523 Y90.319 E11.81355
G1 X78.855 Y88.93 E11.90956
G0 F6000 X79.137 Y89.213
G1 F1200 X89.54 Y78.812 E12.64348
G1 X90.268 Y78.105 E12.6941
G1 X90.467 Y77.92 E12.70766
G1 X90.982 Y77.463 E12.74201
G1 X91.121 Y77.347 E12.75104
G1 X91.705 Y76.887 E12.78813
G1 X92.113 Y76.583 E12.81352
G1 X92.269 Y76.474 E12.82301
G1 X92.921 Y76.047 E12.86189
G1 X93.368 Y75.772 E12.88808
G1 X93.527 Y75.681 E12.89722
G1 X94.16 Y75.341 E12.93307
G1 X94.633 Y75.103 E12.95948
G1 X94.806 Y75.023 E12.96899
G1 X95.475 Y74.736 E13.00531
G1 X95.951 Y74.546 E13.03088
G1 X96.131 Y74.48 E13.04044
G1 X96.798 Y74.259 E13.0755
G1 X97.373 Y74.087 E13.10544
G1 X97.548 Y74.04 E13.11448
G1 X98.156 Y73.896 E13.14566
G1 X98.794 Y73.763 E13.17817
G1 X98.98 Y73.73 E13.18759
G1 X99.674 Y73.629 E13.22258
G1 X100.195 Y73.567 E13.24876
G1 X100.384 Y73.551 E13.25822
G1 X100.858 Y73.523 E13.28191
G1 X100.98 Y73.518 E13.288
G1 X102.855 Y73.479 E13.38157
G1 X117.56 Y73.479 E14.1152
G1 X118.6 Y73.494 E14.16709
G1 X118.88 Y73.505 E14.18107
G1 X119.547 Y73.544 E14.21441
G1 X119.729 Y73.56 E14.22352
G1 X120.383 Y73.636 E14.25637
G1 X121.003 Y73.726 E14.28763
G1 X121.183 Y73.758 E14.29675
G1 X121.939 Y73.915 E14.33527
G1 X122.418 Y74.03 E14.35985
G1 X122.585 Y74.075 E14.36847
G1 X123.219 Y74.264 E14.40148
G1 X123.814 Y74.461 E14.43275
G1 X123.984 Y74.523 E14.44178
G1 X124.707 Y74.811 E14.4806
G1 X125.152 Y75.004 E14.5048
G1 X125.314 Y75.08 E14.51373
G1 X125.932 Y75.39 E14.54823
G1 X126.451 Y75.669 E14.57762
G1 X126.608 Y75.759 E14.58665
G1 X127.266 Y76.166 E14.62525
G1 X127.692 Y76.446 E14.65068
G1 X127.843 Y76.552 E14.65989
G1 X128.43 Y76.99 E14.69643
G1 X128.819 Y77.296 E14.72112
G1 X128.971 Y77.423 E14.731
G1 X129.424 Y77.829 E14.76135
G1 X130.756 Y79.106 E14.85341
G1 X141.188 Y89.54 E15.58952
G1 X141.895 Y90.268 E15.64014
G1 X142.08 Y90.467 E15.6537
G1 X142.537 Y90.982 E15.68805
G1 X142.653 Y91.121 E15.69708
G1 X143.113 Y91.705 E15.73417
G1 X143.417 Y92.113 E15.75956
G1 X143.526 Y92.269 E15.76905
G1 X143.952 Y92.92 E15.80787
G1 X144.223 Y93.36 E15.83365
G1 X144.315 Y93.519 E15.84281
G1 X144.66 Y94.162 E15.87922
G1 X144.898 Y94.636 E15.90568
G1 X144.976 Y94.804 E15.91492
G1 X145.264 Y95.475 E15.95135
G1 X145.453 Y95.95 E15.97685
G1 X145.517 Y96.124 E15.9861
G1 X145.77 Y96.89 E16.02635
G1 X145.913 Y97.37 E16.05134
G1 X145.96 Y97.548 E16.06052
G1 X146.123 Y98.244 E16.09618
G1 X146.237 Y98.794 E16.12421
G1 X146.27 Y98.98 E16.13363
G1 X146.371 Y99.676 E16.16872
G1 X146.433 Y100.2 E16.19504
G1 X146.449 Y100.386 E16.20436
G1 X146.494 Y101.156 E16.24284
G1 X146.52 Y102.038 E16.28686
G1 X146.521 Y117.561 E17.06131
G1 X146.506 Y118.601 E17.1132
G1 X146.495 Y118.881 E17.12718
G1 X146.456 Y119.549 E17.16056
G1 X146.44 Y119.732 E17.16973
G1 X146.364 Y120.385 E17.20252
G1 X146.274 Y121.004 E17.23373
G1 X146.242 Y121.186 E17.24295
G1 X146.084 Y121.943 E17.28153
G1 X145.968 Y122.426 E17.30631
G1 X145.923 Y122.592 E17.31489
G1 X145.74 Y123.207 E17.34691
G1 X145.539 Y123.815 E17.37885
G1 X145.476 Y123.988 E17.38804
G1 X145.189 Y124.706 E17.42662
G1 X144.997 Y125.15 E17.45075
G1 X144.92 Y125.315 E17.45983
G1 X144.563 Y126.024 E17.49944
G1 X144.33 Y126.455 E17.52388
G1 X144.239 Y126.612 E17.53293
G1 X143.834 Y127.267 E17.57135
G1 X143.565 Y127.676 E17.59578
G1 X143.459 Y127.827 E17.60498
G1 X142.989 Y128.457 E17.6442
G1 X142.675 Y128.855 E17.66949
G1 X142.551 Y129.003 E17.67912
G1 X142.078 Y129.531 E17.71449
G1 X141.384 Y130.266 E17.76492
G1 X130.46 Y141.188 E18.5356
G1 X129.732 Y141.895 E18.58622
G1 X129.533 Y142.08 E18.59978
G1 X129.018 Y142.537 E18.63413
G1 X128.879 Y142.653 E18.64316
G1 X128.295 Y143.113 E18.68025
G1 X127.887 Y143.417 E18.70564
G1 X127.731 Y143.526 E18.71513
G1 X127.079 Y143.953 E18.75401
G1 X126.632 Y144.228 E18.7802
G1 X126.473 Y144.319 E18.78934
G1 X125.84 Y144.659 E18.82519
G1 X125.367 Y144.897 E18.8516
G1 X125.196 Y144.977 E18.86102
G1 X124.609 Y145.23 E18.89291
G1 X124.05 Y145.453 E18.92294
G1 X123.876 Y145.517 E18.93219
G1 X123.205 Y145.74 E18.96746
G1 X122.627 Y145.913 E18.99756
G1 X122.452 Y145.96 E19.0066
G1 X121.844 Y146.104 E19.03778
G1 X121.206 Y146.237 E19.07029
G1 X121.02 Y146.27 E19.07971
G1 X120.325 Y146.371 E19.11475
G1 X119.802 Y146.433 E19.14103
G1 X119.612 Y146.45 E19.15054
G1 X119.134 Y146.478 E19.17443
G1 X117.2 Y146.52 E19.27094
G1 X102.44 Y146.521 E20.00732
G1 X101.4 Y146.506 E20.05921
G1 X101.12 Y146.495 E20.07319
G1 X100.452 Y146.456 E20.10658
G1 X100.269 Y146.44 E20.11574
G1 X99.616 Y146.364 E20.14854
G1 X98.997 Y146.274 E20.17975
G1 X98.817 Y146.242 E20.18887
G1 X98.061 Y146.085 E20.22739
G1 X97.582 Y145.97 E20.25197
G1 X97.415 Y145.925 E20.2606
G1 X96.781 Y145.736 E20.2936
G1 X96.183 Y145.538 E20.32503
G1 X96.012 Y145.476 E20.3341
G1 X95.385 Y145.227 E20.36776
G1 X94.845 Y144.994 E20.3971
G1 X94.684 Y144.919 E20.40596
G1 X93.975 Y144.562 E20.44557
G1 X93.543 Y144.328 E20.47008
G1 X93.389 Y144.239 E20.47895
G1 X92.734 Y143.834 E20.51737
G1 X92.308 Y143.554 E20.54281
G1 X92.157 Y143.448 E20.55201
G1 X91.566 Y143.007 E20.5888
G1 X91.187 Y142.708 E20.61288
G1 X91.038 Y142.583 E20.62259
G1 X90.574 Y142.167 E20.65368
G1 X89.216 Y140.866 E20.7475
G1 X78.812 Y130.46 E21.48163
G1 X78.106 Y129.733 E21.53219
G1 X77.919 Y129.532 E21.54589
G1 X77.462 Y129.017 E21.58024
G1 X77.345 Y128.877 E21.58934
G1 X76.942 Y128.367 E21.62177
G1 X76.583 Y127.887 E21.65167
G1 X76.472 Y127.728 E21.66135
G1 X76.046 Y127.076 E21.7002
G1 X75.768 Y126.623 E21.72672
G1 X75.678 Y126.468 E21.73566
G1 X75.34 Y125.838 E21.77133
G1 X75.101 Y125.362 E21.7979
G1 X75.023 Y125.194 E21.80714
G1 X74.736 Y124.526 E21.84342
G1 X74.546 Y124.049 E21.86903
G1 X74.482 Y123.873 E21.87838
G1 X74.231 Y123.112 E21.91835
G1 X74.087 Y122.63 E21.94345
G1 X74.038 Y122.448 E21.95285
G1 X73.895 Y121.841 E21.98397
G1 X73.763 Y121.206 E22.01632
G1 X73.73 Y121.02 E22.02575
G1 X73.629 Y120.323 E22.06089
G1 X73.569 Y119.814 E22.08646
G1 X73.553 Y119.627 E22.09582
G1 X73.524 Y119.134 E22.12046
G1 X73.519 Y119.014 E22.12645
G1 X73.479 Y117.113 E22.22131
G1 X73.479 Y102.44 E22.95335
G1 X73.494 Y101.4 E23.00524
G1 X73.505 Y101.12 E23.01922
G1 X73.544 Y100.452 E23.05261
G1 X73.56 Y100.269 E23.06177
G1 X73.636 Y99.616 E23.09457
G1 X73.726 Y98.997 E23.12578
G1 X73.758 Y98.817 E23.1349
G1 X73.915 Y98.061 E23.17342
G1 X74.03 Y97.582 E23.19799
G1 X74.075 Y97.415 E23.20662
G1 X74.264 Y96.781 E23.23963
G1 X74.462 Y96.183 E23.27106
G1 X74.524 Y96.012 E23.28013
G1 X74.811 Y95.293 E23.31875
G1 X75.004 Y94.848 E23.34295
G1 X75.08 Y94.686 E23.35188
G1 X75.437 Y93.977 E23.39148
G1 X75.67 Y93.546 E23.41593
G1 X75.761 Y93.389 E23.42498
G1 X76.166 Y92.734 E23.4634
G1 X76.446 Y92.308 E23.48883
G1 X76.552 Y92.157 E23.49804
G1 X76.991 Y91.569 E23.53465
G1 X77.298 Y91.179 E23.55941
G1 X77.423 Y91.029 E23.56915
G1 X77.812 Y90.595 E23.59823
G1 X79.137 Y89.213 E23.69375
G1 F1500 E17.19375
;MESH:ehat.stl
G0 F6000 X80.2 Y91.737
G0 X81.243 Y92.779
G0 X118.15 Y142.721
;TYPE:WALL-INNER
G1 F1500 E23.69375
G1 F1200 X101.806 Y142.721 E24.50915
G1 X100.651 Y142.67 E24.56683
G1 X99.529 Y142.521 E24.6233
G1 X98.449 Y142.28 E24.67851
G1 X97.368 Y141.938 E24.73507
G1 X96.333 Y141.509 E24.79097
G1 X95.333 Y140.986 E24.84727
G1 X94.378 Y140.378 E24.90375
G1 X93.495 Y139.701 E24.95926
G1 X92.639 Y138.914 E25.01728
G1 X81.056 Y127.33 E25.83455
G1 X80.293 Y126.497 E25.89091
G1 X79.6 Y125.591 E25.94782
G1 X78.998 Y124.641 E26.00393
G1 X78.489 Y123.661 E26.05902
G1 X78.058 Y122.62 E26.11523
G1 X77.715 Y121.529 E26.17229
G1 X77.475 Y120.439 E26.22797
G1 X77.329 Y119.334 E26.28358
G1 X77.279 Y118.162 E26.34211
G1 X77.279 Y101.806 E27.15811
G1 X77.331 Y100.636 E27.21654
G1 X77.477 Y99.54 E27.2717
G1 X77.719 Y98.451 E27.32736
G1 X78.062 Y97.367 E27.38408
G1 X78.495 Y96.325 E27.44038
G1 X79.013 Y95.334 E27.49616
G1 X79.622 Y94.378 E27.55271
G1 X80.294 Y93.502 E27.6078
G1 X81.088 Y92.637 E27.66638
G1 X92.67 Y81.056 E28.48351
G1 X93.506 Y80.291 E28.54005
G1 X94.405 Y79.603 E28.59653
G1 X95.359 Y78.998 E28.65289
G1 X96.335 Y78.491 E28.70776
G1 X97.38 Y78.058 E28.76419
G1 X98.468 Y77.716 E28.82109
G1 X99.561 Y77.475 E28.87693
G1 X100.66 Y77.329 E28.93224
G1 X101.84 Y77.279 E28.99116
G1 X118.194 Y77.279 E29.80707
G1 X119.349 Y77.33 E29.86475
G1 X120.471 Y77.479 E29.92122
G1 X121.551 Y77.72 E29.97642
G1 X122.632 Y78.062 E30.03299
G1 X123.667 Y78.491 E30.08888
G1 X124.666 Y79.013 E30.14512
G1 X125.622 Y79.622 E30.20167
G1 X126.498 Y80.294 E30.25675
G1 X127.367 Y81.092 E30.31561
G1 X138.944 Y92.67 E31.13247
G1 X139.705 Y93.501 E31.18868
G1 X140.4 Y94.409 E31.24573
G1 X141.002 Y95.359 E31.30184
G1 X141.514 Y96.345 E31.35727
G1 X141.938 Y97.367 E31.41247
