;FLAVOR:Marlin
;TIME:4585
;Filament used: 3.39524m
;Layer height: 0.3
;MINX:83.049
;MINY:75.879
;MINZ:0.3
;MAXX:136.891
;MAXY:144.121
;MAXZ:15.9
;Generated with Cura_SteamEngine 4.8.0
M140 S60
M105
M190 S60
M104 S200
M105
M109 S200
M82 ;absolute extrusion mode
G21 
G90
M107
G28 X0 Y0
G28 Z0
G1 Z15.0 F{travel_xy_speed}
G29
G92 E0
G1 F200 E10
G92 E0
G1 F{travel_xy_speed}
M117 Printing...
G92 E0
G92 E0
G1 F1500 E-6.5
;LAYER_COUNT:53
;LAYER:0
M107
M204 S1000
G0 F6000 X84.435 Y87.281 Z0.3
;TYPE:SKIRT
G1 F1500 E0
G1 F1200 X94.343 Y77.372 E0.6991
G1 X94.83 Y76.901 E0.7329
G1 X95.242 Y76.558 E0.75964
G1 X95.701 Y76.28 E0.78642
G1 X96.196 Y76.073 E0.81318
G1 X96.716 Y75.942 E0.83994
G1 X97.211 Y75.891 E0.86476
G1 X97.437 Y75.884 E0.87605
G1 X97.846 Y75.879 E0.89645
G1 X121.956 Y75.879 E2.0993
G1 X122.657 Y75.889 E2.13428
G1 X123.192 Y75.937 E2.16108
G1 X123.713 Y76.063 E2.18782
G1 X124.209 Y76.266 E2.21456
G1 X124.67 Y76.54 E2.24131
G1 X125.046 Y76.842 E2.26538
G1 X125.273 Y77.053 E2.28084
G1 X125.469 Y77.244 E2.29449
G1 X135.398 Y87.174 E2.99507
G1 X135.869 Y87.661 E3.02887
G1 X136.212 Y88.073 E3.05562
G1 X136.49 Y88.532 E3.08239
G1 X136.697 Y89.027 E3.10916
G1 X136.828 Y89.547 E3.13591
G1 X136.879 Y90.042 E3.16074
G1 X136.886 Y90.268 E3.17202
G1 X136.891 Y90.677 E3.19242
G1 X136.891 Y129.186 E5.11365
G1 X136.881 Y129.888 E5.14867
G1 X136.833 Y130.422 E5.17542
G1 X136.707 Y130.944 E5.20221
G1 X136.504 Y131.44 E5.22895
G1 X136.23 Y131.901 E5.25571
G1 X135.92 Y132.285 E5.28033
G1 X135.713 Y132.507 E5.29547
G1 X135.505 Y132.72 E5.31032
G1 X125.607 Y142.617 E6.00865
G1 X125.113 Y143.096 E6.04297
G1 X124.701 Y143.439 E6.06972
G1 X124.243 Y143.718 E6.09648
G1 X123.749 Y143.925 E6.1232
G1 X123.229 Y144.057 E6.14996
G1 X122.729 Y144.109 E6.17504
G1 X122.503 Y144.116 E6.18632
G1 X122.094 Y144.121 E6.20673
G1 X97.984 Y144.121 E7.40958
G1 X97.282 Y144.111 E7.44461
G1 X96.748 Y144.063 E7.47136
G1 X96.226 Y143.937 E7.49815
G1 X95.73 Y143.734 E7.52489
G1 X95.269 Y143.46 E7.55164
G1 X94.885 Y143.15 E7.57626
G1 X94.662 Y142.942 E7.59148
G1 X94.441 Y142.725 E7.60693
G1 X84.542 Y132.827 E8.30532
G1 X84.071 Y132.34 E8.33912
G1 X83.728 Y131.928 E8.36587
G1 X83.45 Y131.469 E8.39264
G1 X83.243 Y130.974 E8.41941
G1 X83.112 Y130.454 E8.44616
G1 X83.061 Y129.959 E8.47099
G1 X83.054 Y129.733 E8.48227
G1 X83.049 Y129.324 E8.50268
G1 X83.049 Y90.814 E10.42395
G1 X83.059 Y90.112 E10.45897
G1 X83.107 Y89.578 E10.48572
G1 X83.233 Y89.056 E10.51251
G1 X83.436 Y88.56 E10.53925
G1 X83.71 Y88.099 E10.56601
G1 X84.02 Y87.715 E10.59063
G1 X84.227 Y87.493 E10.60577
G1 X84.435 Y87.281 E10.62059
G0 F6000 X84.718 Y87.563
G1 F1200 X94.621 Y77.66 E11.3193
G1 X95.108 Y77.189 E11.3531
G1 X95.498 Y76.867 E11.37833
G1 X95.934 Y76.611 E11.40356
G1 X96.405 Y76.427 E11.42878
G1 X96.899 Y76.319 E11.45401
G1 X97.225 Y76.291 E11.47034
G1 X97.442 Y76.284 E11.48117
G1 X97.851 Y76.279 E11.50157
G1 X121.951 Y76.279 E12.70393
G1 X122.652 Y76.289 E12.7389
G1 X123.155 Y76.336 E12.76411
G1 X123.645 Y76.462 E12.78935
G1 X124.108 Y76.664 E12.81455
G1 X124.535 Y76.936 E12.83981
G1 X124.775 Y77.136 E12.8554
G1 X124.994 Y77.339 E12.87029
G1 X125.158 Y77.499 E12.88173
G1 X135.11 Y87.452 E13.58393
G1 X135.581 Y87.939 E13.61773
G1 X135.903 Y88.329 E13.64296
G1 X136.159 Y88.765 E13.66819
G1 X136.343 Y89.236 E13.69341
G1 X136.451 Y89.73 E13.71864
G1 X136.479 Y90.056 E13.73496
G1 X136.486 Y90.273 E13.7458
G1 X136.491 Y90.682 E13.7662
G1 X136.491 Y129.181 E15.68693
G1 X136.481 Y129.883 E15.72195
G1 X136.434 Y130.386 E15.74716
G1 X136.308 Y130.876 E15.7724
G1 X136.106 Y131.339 E15.7976
G1 X135.835 Y131.766 E15.82283
G1 X135.627 Y132.013 E15.83894
G1 X135.427 Y132.227 E15.85355
G1 X135.222 Y132.437 E15.8682
G1 X125.329 Y142.329 E16.56617
G1 X124.835 Y142.808 E16.60049
G1 X124.445 Y143.131 E16.62576
G1 X124.009 Y143.387 E16.65098
G1 X123.539 Y143.572 E16.67618
G1 X123.045 Y143.681 E16.70142
G1 X122.715 Y143.709 E16.71794
G1 X122.498 Y143.716 E16.72878
G1 X122.089 Y143.721 E16.74918
G1 X97.989 Y143.721 E17.95154
G1 X97.287 Y143.711 E17.98656
G1 X96.784 Y143.664 E18.01177
G1 X96.294 Y143.538 E18.03701
G1 X95.831 Y143.336 E18.06221
G1 X95.404 Y143.065 E18.08744
G1 X95.157 Y142.857 E18.10355
G1 X94.942 Y142.656 E18.11824
G1 X94.723 Y142.442 E18.13351
G1 X84.83 Y132.549 E18.83152
G1 X84.359 Y132.062 E18.86532
G1 X84.037 Y131.672 E18.89055
G1 X83.781 Y131.236 E18.91577
G1 X83.597 Y130.765 E18.941
G1 X83.489 Y130.271 E18.96623
G1 X83.461 Y129.945 E18.98255
G1 X83.454 Y129.728 E18.99339
G1 X83.449 Y129.319 E19.01379
G1 X83.449 Y90.819 E20.93456
G1 X83.459 Y90.117 E20.96959
G1 X83.506 Y89.614 E20.9948
G1 X83.632 Y89.124 E21.02004
G1 X83.834 Y88.661 E21.04524
G1 X84.105 Y88.234 E21.07047
G1 X84.313 Y87.987 E21.08658
G1 X84.513 Y87.773 E21.10119
G1 X84.718 Y87.563 E21.11583
G1 F1500 E14.61583
;MESH:chasis_b.stl
G0 F6000 X130.079 Y128.736
G0 X129.039 Y127.699
G0 X128.977 Y128.95
G0 X129.023 Y129.289
G0 X129.128 Y129.545
G0 X129.884 Y130.473
;TYPE:WALL-INNER
G1 F1500 E21.11583
G1 F1200 X130.291 Y130.526 E21.13631
G1 X130.698 Y130.473 E21.15679
G1 X131.079 Y130.315 E21.17737
G1 X131.404 Y130.066 E21.19779
G1 X131.656 Y129.739 E21.21839
G1 X131.814 Y129.357 E21.23901
G1 X131.867 Y128.95 E21.25949
G1 X131.814 Y128.543 E21.27997
G1 X131.657 Y128.162 E21.30052
G1 X131.405 Y127.835 E21.32112
G1 X131.078 Y127.584 E21.34169
G1 X130.698 Y127.427 E21.3622
G1 X130.291 Y127.374 E21.38268
G1 X129.884 Y127.427 E21.40315
G1 X129.503 Y127.584 E21.42371
G1 X129.175 Y127.835 E21.44432
G1 X128.925 Y128.163 E21.46489
G1 X128.768 Y128.543 E21.48541
G1 X128.715 Y128.95 E21.50588
G1 X128.768 Y129.357 E21.52636
G1 X128.925 Y129.738 E21.54692
G1 X129.176 Y130.065 E21.56748
G1 X129.503 Y130.316 E21.58805
G1 X129.884 Y130.473 E21.60861
G0 F6000 X129.988 Y130.083
;TYPE:WALL-OUTER
G1 F1200 X130.291 Y130.123 E21.62386
G1 X130.594 Y130.083 E21.6391
G1 X130.877 Y129.966 E21.65438
G1 X131.119 Y129.78 E21.66961
G1 X131.307 Y129.537 E21.68494
G1 X131.424 Y129.253 E21.70026
G1 X131.464 Y128.95 E21.71551
G1 X131.424 Y128.647 E21.73076
G1 X131.307 Y128.364 E21.74604
G1 X131.12 Y128.12 E21.76137
G1 X130.877 Y127.934 E21.77664
G1 X130.594 Y127.817 E21.79192
G1 X130.291 Y127.777 E21.80717
G1 X129.988 Y127.817 E21.82241
G1 X129.704 Y127.934 E21.83774
G1 X129.461 Y128.12 E21.85301
G1 X129.275 Y128.364 E21.86831
G1 X129.158 Y128.647 E21.88359
G1 X129.118 Y128.95 E21.89884
G1 X129.158 Y129.253 E21.91409
G1 X129.275 Y129.537 E21.92941
G1 X129.461 Y129.78 E21.94468
G1 X129.704 Y129.966 E21.95994
G1 X129.988 Y130.083 E21.97527
G0 F6000 X130.186 Y130.109
G0 X130.128 Y130.546
G1 F1500 E15.47527
G0 F6000 X129.362 Y129.879
G0 X129.154 Y129.606
G0 X129.023 Y129.289
G0 X128.977 Y128.95
G0 X129.023 Y128.611
G0 X129.154 Y128.295
G0 X130.291 Y127.182
G0 X130.291 Y128.65
G0 X130.291 Y100.85
G0 X130.291 Y102.318
G0 X129.884 Y102.073
;TYPE:WALL-INNER
G1 F1500 E21.97527
G1 F1200 X130.291 Y102.126 E21.99574
G1 X130.698 Y102.073 E22.01622
G1 X131.079 Y101.915 E22.0368
G1 X131.405 Y101.664 E22.05733
G1 X131.656 Y101.338 E22.07785
G1 X131.814 Y100.957 E22.09843
G1 X131.867 Y100.55 E22.11891
G1 X131.814 Y100.143 E22.13938
G1 X131.656 Y99.761 E22.16001
G1 X131.404 Y99.434 E22.1806
G1 X131.079 Y99.185 E22.20103
G1 X130.698 Y99.027 E22.22161
G1 X130.291 Y98.974 E22.24208
G1 X129.884 Y99.027 E22.26256
G1 X129.503 Y99.184 E22.28312
G1 X129.176 Y99.435 E22.30369
G1 X128.925 Y99.762 E22.32425
G1 X128.768 Y100.143 E22.34481
G1 X128.715 Y100.55 E22.36529
G1 X128.768 Y100.957 E22.38576
G1 X128.926 Y101.338 E22.40634
G1 X129.175 Y101.663 E22.42677
G1 X129.502 Y101.915 E22.44736
G1 X129.884 Y102.073 E22.46799
G0 F6000 X129.988 Y101.683
;TYPE:WALL-OUTER
G1 F1200 X130.291 Y101.723 E22.48324
G1 X130.594 Y101.683 E22.49848
G1 X130.877 Y101.566 E22.51376
G1 X131.12 Y101.379 E22.52906
G1 X131.307 Y101.136 E22.54436
G1 X131.424 Y100.853 E22.55964
G1 X131.464 Y100.55 E22.57488
G1 X131.424 Y100.247 E22.59013
G1 X131.307 Y99.963 E22.60546
G1 X131.119 Y99.72 E22.62078
G1 X130.877 Y99.534 E22.63601
G1 X130.594 Y99.417 E22.65129
G1 X130.291 Y99.377 E22.66654
G1 X129.988 Y99.417 E22.68178
G1 X129.704 Y99.534 E22.69711
G1 X129.461 Y99.72 E22.71238
G1 X129.275 Y99.963 E22.72764
G1 X129.158 Y100.247 E22.74297
G1 X129.118 Y100.55 E22.75822
G1 X129.158 Y100.853 E22.77346
G1 X129.275 Y101.136 E22.78874
G1 X129.461 Y101.378 E22.80397
G1 X129.704 Y101.566 E22.8193
G1 X129.988 Y101.683 E22.83462
G0 F6000 X130.186 Y101.709
G0 X130.128 Y102.146
G1 F1500 E16.33462
G0 F6000 X129.362 Y101.477
G0 X129.154 Y101.206
G0 X128.758 Y99.665
G0 X130.031 Y100.398
G0 X115.317 Y88.847
G0 X116.629 Y89.67
G0 X116.031 Y89.971
;TYPE:WALL-INNER
G1 F1500 E22.83462
G1 F1200 X116.441 Y89.561 E22.86355
G1 X116.57 Y89.079 E22.88844
G1 X116.569 Y80.913 E23.29585
G1 X116.446 Y80.463 E23.31912
G1 X116.44 Y80.438 E23.3204
G1 X116.081 Y80.079 E23.34573
G1 X116.44 Y80.079 E23.35264
G1 X116.466 Y80.079 E23.35388
G1 X122.364 Y80.079 E23.64814
G1 X132.691 Y90.406 E24.37676
G1 X132.691 Y129.594 E26.33186
G1 X122.364 Y139.921 E27.06048
G1 X97.576 Y139.921 E28.29716
G1 X87.249 Y129.594 E29.02579
G1 X87.249 Y90.406 E30.98089
G1 X97.576 Y80.079 E31.70951
G1 X103.474 Y80.079 E32.00376
G1 X103.499 Y80.079 E32.00501
G1 X103.859 Y80.079 E32.02297
G1 X103.499 Y80.439 E32.03736
G1 X103.493 Y80.463 E32.03855
G1 X103.37 Y80.921 E32.06221
G1 X103.371 Y89.087 E32.46961
G1 X103.5 Y89.562 E32.49416
G1 X103.909 Y89.971 E32.52302
G1 X104.391 Y90.1 E32.54792
G1 X115.549 Y90.1 E33.10459
G1 X116.031 Y89.971 E33.12948
G0 F6000 X115.824 Y89.612
;TYPE:WALL-OUTER
G1 F1200 X116.082 Y89.354 E33.14769
G1 X116.17 Y89.026 E33.16463
G1 X116.169 Y80.966 E33.56674
G1 X116.082 Y80.646 E33.58329
G1 X115.824 Y80.388 E33.60149
G1 X115.496 Y80.3 E33.61843
G1 X104.436 Y80.301 E34.17022
G1 X104.116 Y80.388 E34.18676
G1 X103.858 Y80.646 E34.20497
G1 X103.77 Y80.974 E34.22191
G1 X103.771 Y89.034 E34.62403
G1 X103.858 Y89.354 E34.64057
G1 X104.116 Y89.612 E34.65877
G1 X104.444 Y89.7 E34.67572
G1 X115.496 Y89.7 E35.2271
G1 X115.824 Y89.612 E35.24405
G0 F6000 X115.965 Y89.471
G0 X116.276 Y89.782
G1 F1500 E28.74405
G0 F6000 X104.363 Y90.31
G0 X104.624 Y88.847
G0 X89.91 Y100.4
G0 X91.18 Y99.665
G0 X90.917 Y100.889
G0 X90.812 Y101.145
G0 X90.056 Y102.073
;TYPE:WALL-INNER
G1 F1500 E35.24405
G1 F1200 X90.437 Y101.915 E35.26462
G1 X90.763 Y101.664 E35.28515
G1 X91.014 Y101.338 E35.30568
G1 X91.172 Y100.957 E35.32625
G1 X91.225 Y100.55 E35.34673
G1 X91.172 Y100.143 E35.36721
G1 X91.014 Y99.761 E35.38783
G1 X90.762 Y99.434 E35.40843
G1 X90.437 Y99.185 E35.42885
G1 X90.056 Y99.027 E35.44943
G1 X89.649 Y98.974 E35.46991
G1 X89.242 Y99.027 E35.49039
G1 X88.861 Y99.184 E35.51094
G1 X88.534 Y99.435 E35.53151
G1 X88.283 Y99.762 E35.55208
G1 X88.126 Y100.143 E35.57264
G1 X88.073 Y100.55 E35.59311
G1 X88.126 Y100.957 E35.61359
G1 X88.284 Y101.338 E35.63417
G1 X88.533 Y101.663 E35.65459
G1 X88.86 Y101.915 E35.67519
G1 X89.242 Y102.073 E35.69581
G1 X89.649 Y102.126 E35.71629
G1 X90.056 Y102.073 E35.73677
G0 F6000 X89.952 Y101.683
;TYPE:WALL-OUTER
G1 F1200 X90.235 Y101.566 E35.75204
G1 X90.478 Y101.379 E35.76734
G1 X90.665 Y101.136 E35.78264
G1 X90.782 Y100.853 E35.79792
G1 X90.822 Y100.55 E35.81317
G1 X90.782 Y100.247 E35.82841
G1 X90.665 Y99.963 E35.84374
G1 X90.477 Y99.72 E35.85907
G1 X90.235 Y99.534 E35.87429
G1 X89.952 Y99.417 E35.88957
G1 X89.649 Y99.377 E35.90482
G1 X89.346 Y99.417 E35.92007
G1 X89.062 Y99.534 E35.93539
G1 X88.819 Y99.72 E35.95066
G1 X88.633 Y99.963 E35.96592
G1 X88.516 Y100.247 E35.98125
G1 X88.476 Y100.55 E35.9965
G1 X88.516 Y100.853 E36.01174
G1 X88.633 Y101.136 E36.02702
G1 X88.819 Y101.378 E36.04225
G1 X89.062 Y101.566 E36.05758
G1 X89.346 Y101.683 E36.0729
G1 X89.649 Y101.723 E36.08815
G1 X89.952 Y101.683 E36.1034
G0 F6000 X90.136 Y101.607
G0 X90.303 Y102.013
G1 F1500 E29.6034
G0 F6000 X89.649 Y102.318
G0 X89.649 Y100.85
G0 X89.649 Y128.65
G0 X89.649 Y127.182
G0 X90.577 Y128.021
G0 X90.786 Y128.295
G0 X90.917 Y128.611
G0 X90.963 Y128.95
G0 X90.917 Y129.289
G0 X90.812 Y129.547
G0 X90.056 Y130.473
;TYPE:WALL-INNER
G1 F1500 E36.1034
G1 F1200 X90.437 Y130.315 E36.12398
G1 X90.762 Y130.066 E36.1444
G1 X91.014 Y129.739 E36.165
G1 X91.172 Y129.357 E36.18562
G1 X91.225 Y128.95 E36.2061
G1 X91.172 Y128.543 E36.22658
G1 X91.015 Y128.162 E36.24713
G1 X90.763 Y127.835 E36.26773
G1 X90.436 Y127.584 E36.2883
G1 X90.056 Y127.427 E36.30881
G1 X89.649 Y127.374 E36.32929
G1 X89.242 Y127.427 E36.34976
G1 X88.861 Y127.584 E36.37032
G1 X88.533 Y127.835 E36.39093
G1 X88.283 Y128.163 E36.4115
G1 X88.126 Y128.543 E36.43202
G1 X88.073 Y128.95 E36.45249
G1 X88.126 Y129.357 E36.47297
G1 X88.283 Y129.738 E36.49353
G1 X88.534 Y130.065 E36.51409
G1 X88.861 Y130.316 E36.53466
G1 X89.242 Y130.473 E36.55522
G1 X89.649 Y130.526 E36.5757
G1 X90.056 Y130.473 E36.59617
G0 F6000 X89.952 Y130.083
;TYPE:WALL-OUTER
G1 F1200 X90.235 Y129.966 E36.61145
G1 X90.477 Y129.78 E36.62668
G1 X90.665 Y129.537 E36.64201
G1 X90.782 Y129.253 E36.65733
G1 X90.822 Y128.95 E36.67258
G1 X90.782 Y128.647 E36.68783
G1 X90.665 Y128.364 E36.7031
G1 X90.478 Y128.12 E36.71844
G1 X90.235 Y127.934 E36.73371
G1 X89.952 Y127.817 E36.74899
G1 X89.649 Y127.777 E36.76423
G1 X89.346 Y127.817 E36.77948
G1 X89.062 Y127.934 E36.79481
G1 X88.819 Y128.12 E36.81007
G1 X88.633 Y128.364 E36.82538
G1 X88.516 Y128.647 E36.84066
G1 X88.476 Y128.95 E36.85591
G1 X88.516 Y129.253 E36.87115
G1 X88.633 Y129.537 E36.88648
G1 X88.819 Y129.78 E36.90174
G1 X89.062 Y129.966 E36.91701
G1 X89.346 Y130.083 E36.93234
G1 X89.649 Y130.123 E36.94758
G1 X89.952 Y130.083 E36.96283
G0 F6000 X90.136 Y130.007
G0 X90.303 Y130.413
G1 F1500 E30.46283
G0 F6000 X90.898 Y130.202
G0 X89.861 Y129.164
G0 X104.653 Y133.006
G0 X103.209 Y132.747
G0 X103.662 Y138.325
G0 X103.939 Y139.244
;TYPE:WALL-INNER
G1 F1500 E36.96283
G1 F1200 X104.421 Y139.373 E36.98772
G1 X115.587 Y139.372 E37.5448
G1 X116.062 Y139.243 E37.56936
G1 X116.471 Y138.834 E37.59821
G1 X116.6 Y138.352 E37.62311
G1 X116.599 Y132.765 E37.90184
G1 X116.47 Y132.29 E37.9264
G1 X116.061 Y131.881 E37.95526
G1 X115.579 Y131.752 E37.98015
G1 X104.413 Y131.753 E38.53722
G1 X103.938 Y131.882 E38.56178
G1 X103.529 Y132.291 E38.59064
G1 X103.4 Y132.773 E38.61553
G1 X103.401 Y138.36 E38.89427
G1 X103.53 Y138.835 E38.91882
G1 X103.939 Y139.244 E38.94768
G0 F6000 X104.146 Y138.885
;TYPE:WALL-OUTER
G1 F1200 X104.474 Y138.973 E38.96462
G1 X115.534 Y138.972 E39.51641
G1 X115.854 Y138.885 E39.53295
G1 X116.112 Y138.627 E39.55116
G1 X116.2 Y138.299 E39.5681
G1 X116.199 Y132.818 E39.84155
G1 X116.112 Y132.498 E39.85809
G1 X115.854 Y132.24 E39.87629
G1 X115.526 Y132.152 E39.89324
G1 X104.466 Y132.153 E40.44502
G1 X104.146 Y132.24 E40.46157
G1 X103.888 Y132.498 E40.47977
G1 X103.8 Y132.826 E40.49671
G1 X103.801 Y138.307 E40.77016
G1 X103.888 Y138.627 E40.78671
G1 X104.146 Y138.885 E40.80491
G0 F6000 X104.339 Y138.936
G0 X104.224 Y139.361
G1 F1500 E34.30491
G0 F6000 X115.552 Y139.111
G0 X116.642 Y138.934
G0 X116.642 Y139.711
G0 X122.445 Y140.124
G0 X122.53 Y140.321
G1 F1500 E40.80491
G1 F1200 X97.41 Y140.321 E42.05815
G1 X86.849 Y129.76 E42.80329
G1 X86.849 Y90.24 E44.77495
G1 X97.41 Y79.679 E45.52008
G1 X122.53 Y79.679 E46.77332
G1 X133.091 Y90.24 E47.51846
G1 X133.091 Y129.76 E49.49012
G1 X122.53 Y140.321 E50.23526
G0 F6000 X122.33 Y140.321
G0 X122.33 Y139.881
G0 X122.204 Y139.531
;TYPE:SKIN
G1 F1200 X116.326 Y139.531 E50.52851
G1 X116.82 Y139.036 E50.5634
G1 X116.99 Y138.403 E50.5961
G1 X116.989 Y132.713 E50.87998
G1 X116.819 Y132.087 E50.91234
G1 X116.263 Y131.532 E50.95153
G1 X115.63 Y131.362 E50.98423
G1 X104.361 Y131.363 E51.54644
G1 X103.735 Y131.533 E51.57881
G1 X103.18 Y132.089 E51.618
G1 X103.01 Y132.722 E51.6507
G1 X103.011 Y138.412 E51.93457
G1 X103.181 Y139.038 E51.96694
G1 X103.675 Y139.531 E52.00176
G1 X97.736 Y139.531 E52.29805
G1 X89 Y130.795 E52.91443
G1 X89.141 Y130.853 E52.92203
G1 X89.649 Y130.92 E52.9476
G1 X90.157 Y130.853 E52.97316
G1 X90.634 Y130.656 E52.99891
G1 X91.039 Y130.345 E53.02438
G1 X91.355 Y129.936 E53.05017
G1 X91.552 Y129.458 E53.07596
G1 X91.619 Y128.95 E53.10153
