;FLAVOR:Marlin
;TIME:300
;Filament used: 0.0880553m
;Layer height: 0.15
;MINX:101.321
;MINY:101.321
;MINZ:0.3
;MAXX:118.679
;MAXY:118.679
;MAXZ:10.35
;Generated with Cura_SteamEngine 4.10.0
M140 S60
M105
M190 S60
M104 S200
M105
M109 S200
M82 ;absolute extrusion mode
G21
G90
M107
G28 X0 Y0
G28 Z0
G1 Z15.0 F{travel_xy_speed}
G29
G92 E0
G1 F200 E10
G92 E0
G1 F{travel_xy_speed}
M117 Printing...
G92 E0
G92 E0
G1 F1500 E-6.5
;LAYER_COUNT:68
;LAYER:0
M107
M204 S1000
G0 F6000 X103.412 Y104.318 Z0.3
;TYPE:SKIRT
G1 F1500 E0
G1 F1200 X103.896 Y103.899 E0.03194
G1 X105.035 Y103.03 E0.10341
G1 X105.781 Y102.468 E0.15001
G1 X106.319 Y102.112 E0.1822
G1 X106.842 Y101.85 E0.21138
G1 X107.622 Y101.58 E0.25256
G1 X107.981 Y101.487 E0.27106
G1 X108.614 Y101.364 E0.30323
G1 X109.257 Y101.321 E0.33538
G1 X109.97 Y101.366 E0.37103
G1 X111.7 Y101.597 E0.4581
G1 X112.371 Y101.696 E0.49194
G1 X113.002 Y101.829 E0.52411
G1 X113.611 Y102.04 E0.55627
G1 X114.127 Y102.289 E0.58485
G1 X114.434 Y102.464 E0.60248
G1 X114.675 Y102.611 E0.61657
G1 X115.203 Y102.98 E0.6487
G1 X115.682 Y103.412 E0.68088
G1 X116.101 Y103.896 E0.71282
G1 X116.97 Y105.035 E0.7843
G1 X117.532 Y105.781 E0.83089
G1 X117.888 Y106.319 E0.86308
G1 X118.194 Y106.947 E0.89793
G1 X118.419 Y107.62 E0.93334
G1 X118.512 Y107.978 E0.95179
G1 X118.635 Y108.61 E0.98391
G1 X118.679 Y109.254 E1.01612
G1 X118.634 Y109.97 E1.05191
G1 X118.406 Y111.683 E1.13812
G1 X118.305 Y112.369 E1.17272
G1 X118.171 Y113 E1.2049
G1 X117.961 Y113.61 E1.23709
G1 X117.711 Y114.127 E1.26574
G1 X117.536 Y114.434 E1.28337
G1 X117.389 Y114.675 E1.29745
G1 X117.02 Y115.203 E1.32959
G1 X116.588 Y115.682 E1.36177
G1 X116.104 Y116.101 E1.39371
G1 X114.965 Y116.97 E1.46518
G1 X114.219 Y117.532 E1.51178
G1 X113.681 Y117.888 E1.54396
G1 X113.158 Y118.15 E1.57315
G1 X112.378 Y118.42 E1.61433
G1 X112.019 Y118.513 E1.63283
G1 X111.386 Y118.636 E1.665
G1 X110.743 Y118.679 E1.69715
G1 X110.03 Y118.634 E1.73279
G1 X108.297 Y118.403 E1.82002
G1 X107.622 Y118.303 E1.85406
G1 X106.991 Y118.169 E1.88624
G1 X106.382 Y117.958 E1.9184
G1 X105.855 Y117.703 E1.94761
G1 X105.566 Y117.537 E1.96423
G1 X105.331 Y117.394 E1.97796
G1 X104.802 Y117.026 E2.01011
G1 X104.323 Y116.594 E2.04229
G1 X103.899 Y116.105 E2.07458
G1 X103.03 Y114.966 E2.14605
G1 X102.467 Y114.219 E2.19272
G1 X102.112 Y113.681 E2.22488
G1 X101.786 Y113.005 E2.26232
G1 X101.58 Y112.378 E2.29525
G1 X101.487 Y112.019 E2.31375
G1 X101.364 Y111.386 E2.34592
G1 X101.321 Y110.743 E2.37807
G1 X101.366 Y110.029 E2.41377
G1 X101.601 Y108.271 E2.50225
G1 X101.696 Y107.628 E2.53468
G1 X101.829 Y106.997 E2.56685
G1 X102.04 Y106.388 E2.59901
G1 X102.289 Y105.873 E2.62755
G1 X102.464 Y105.566 E2.64518
G1 X102.611 Y105.325 E2.65926
G1 X102.98 Y104.797 E2.6914
G1 X103.412 Y104.318 E2.72358
G0 F6000 X103.726 Y104.57
G1 F1200 X104.138 Y104.217 E2.75065
G1 X105.276 Y103.349 E2.82205
G1 X106.022 Y102.787 E2.86865
G1 X106.539 Y102.447 E2.89952
G1 X107.002 Y102.216 E2.92533
G1 X107.722 Y101.967 E2.96334
G1 X108.081 Y101.874 E2.98184
G1 X108.69 Y101.758 E3.01277
G1 X109.308 Y101.721 E3.04366
G1 X109.917 Y101.763 E3.07412
G1 X111.642 Y101.992 E3.16093
G1 X112.313 Y102.091 E3.19477
G1 X112.918 Y102.221 E3.22564
G1 X113.502 Y102.428 E3.25656
G1 X113.934 Y102.639 E3.28054
G1 X114.226 Y102.805 E3.2973
G1 X114.467 Y102.952 E3.31138
G1 X114.973 Y103.308 E3.34225
G1 X115.43 Y103.726 E3.37315
G1 X115.783 Y104.138 E3.40021
G1 X116.651 Y105.276 E3.47162
G1 X117.213 Y106.022 E3.51822
G1 X117.553 Y106.539 E3.54909
G1 X117.824 Y107.099 E3.58013
G1 X118.032 Y107.72 E3.6128
G1 X118.125 Y108.078 E3.63125
G1 X118.242 Y108.686 E3.66214
G1 X118.279 Y109.305 E3.69308
G1 X118.237 Y109.917 E3.72369
G1 X118.01 Y111.625 E3.80965
G1 X117.909 Y112.311 E3.84424
G1 X117.779 Y112.917 E3.87516
G1 X117.573 Y113.501 E3.90606
G1 X117.361 Y113.934 E3.93011
G1 X117.195 Y114.226 E3.94687
G1 X117.048 Y114.467 E3.96095
G1 X116.692 Y114.973 E3.99182
G1 X116.274 Y115.43 E4.02272
G1 X115.862 Y115.783 E4.04978
G1 X114.724 Y116.651 E4.12119
G1 X113.978 Y117.213 E4.16779
G1 X113.461 Y117.553 E4.19866
G1 X112.998 Y117.784 E4.22447
G1 X112.278 Y118.033 E4.26248
G1 X111.919 Y118.126 E4.28098
G1 X111.31 Y118.242 E4.31191
G1 X110.692 Y118.279 E4.3428
G1 X110.083 Y118.237 E4.37325
G1 X108.356 Y118.007 E4.46018
G1 X107.681 Y117.907 E4.49422
G1 X107.075 Y117.777 E4.52514
G1 X106.491 Y117.57 E4.55605
G1 X106.05 Y117.353 E4.58057
G1 X105.774 Y117.195 E4.59644
G1 X105.539 Y117.052 E4.61016
G1 X105.032 Y116.697 E4.64104
G1 X104.574 Y116.279 E4.67198
G1 X104.217 Y115.863 E4.69933
G1 X103.35 Y114.725 E4.7707
G1 X102.787 Y113.978 E4.81737
G1 X102.447 Y113.46 E4.84828
G1 X102.157 Y112.857 E4.88166
G1 X101.967 Y112.278 E4.91207
G1 X101.874 Y111.919 E4.93057
G1 X101.758 Y111.31 E4.9615
G1 X101.721 Y110.692 E4.99238
G1 X101.763 Y110.082 E5.02289
G1 X101.997 Y108.329 E5.11112
G1 X102.092 Y107.686 E5.14355
G1 X102.221 Y107.081 E5.17441
G1 X102.428 Y106.497 E5.20532
G1 X102.639 Y106.066 E5.22927
G1 X102.805 Y105.774 E5.24602
G1 X102.952 Y105.533 E5.26011
G1 X103.308 Y105.027 E5.29097
G1 X103.726 Y104.57 E5.32187
G0 F6000 X104.04 Y104.824
G1 F1200 X104.381 Y104.535 E5.34417
G1 X105.516 Y103.669 E5.4154
G1 X106.262 Y103.107 E5.462
G1 X106.759 Y102.783 E5.49159
G1 X107.162 Y102.583 E5.51404
G1 X107.823 Y102.355 E5.54892
G1 X108.182 Y102.262 E5.56743
G1 X108.764 Y102.152 E5.59698
G1 X109.356 Y102.122 E5.62655
G1 X109.864 Y102.159 E5.65196
G1 X111.583 Y102.388 E5.73848
G1 X112.254 Y102.487 E5.77232
G1 X112.834 Y102.613 E5.80193
G1 X113.391 Y102.816 E5.83151
G1 X113.74 Y102.989 E5.85094
G1 X114.017 Y103.147 E5.86685
G1 X114.258 Y103.294 E5.88093
G1 X114.742 Y103.636 E5.9105
G1 X115.176 Y104.04 E5.94008
G1 X115.465 Y104.381 E5.96238
G1 X116.331 Y105.516 E6.03361
G1 X116.893 Y106.262 E6.08021
G1 X117.217 Y106.759 E6.1098
G1 X117.455 Y107.252 E6.13712
G1 X117.645 Y107.821 E6.16704
G1 X117.738 Y108.179 E6.1855
G1 X117.848 Y108.761 E6.21505
G1 X117.878 Y109.354 E6.24467
G1 X117.841 Y109.864 E6.27018
G1 X117.614 Y111.567 E6.3559
G1 X117.513 Y112.253 E6.39049
G1 X117.387 Y112.832 E6.42005
G1 X117.185 Y113.39 E6.44966
G1 X117.011 Y113.74 E6.46916
G1 X116.853 Y114.017 E6.48507
G1 X116.706 Y114.258 E6.49915
G1 X116.364 Y114.742 E6.52872
G1 X115.96 Y115.176 E6.5583
G1 X115.619 Y115.465 E6.5806
G1 X114.484 Y116.331 E6.65183
G1 X113.738 Y116.893 E6.69843
G1 X113.241 Y117.217 E6.72802
G1 X112.838 Y117.417 E6.75047
G1 X112.177 Y117.645 E6.78535
G1 X111.818 Y117.738 E6.80386
G1 X111.236 Y117.848 E6.83341
G1 X110.644 Y117.878 E6.86298
G1 X110.136 Y117.841 E6.88839
G1 X108.414 Y117.611 E6.97506
G1 X107.739 Y117.511 E7.00911
G1 X107.16 Y117.385 E7.03867
G1 X106.603 Y117.182 E7.06825
G1 X106.244 Y117.004 E7.08824
G1 X105.982 Y116.854 E7.1033
G1 X105.747 Y116.711 E7.11702
G1 X105.262 Y116.369 E7.14663
G1 X104.828 Y115.965 E7.17621
G1 X104.535 Y115.62 E7.1988
G1 X103.669 Y114.484 E7.27006
G1 X103.106 Y113.737 E7.31673
G1 X102.782 Y113.241 E7.34629
G1 X102.529 Y112.708 E7.37572
G1 X102.355 Y112.177 E7.4036
G1 X102.262 Y111.818 E7.4221
G1 X102.152 Y111.236 E7.45165
G1 X102.122 Y110.644 E7.48122
G1 X102.159 Y110.135 E7.50668
G1 X102.392 Y108.388 E7.59461
G1 X102.487 Y107.745 E7.62704
G1 X102.613 Y107.165 E7.65665
G1 X102.816 Y106.608 E7.68623
G1 X102.989 Y106.26 E7.70562
G1 X103.147 Y105.983 E7.72153
G1 X103.294 Y105.742 E7.73561
G1 X103.636 Y105.258 E7.76518
G1 X104.04 Y104.824 E7.79476
G0 F6000 X104.352 Y105.08
G1 F1200 X104.624 Y104.853 E7.81244
G1 X105.757 Y103.988 E7.88355
G1 X106.503 Y103.426 E7.93015
G1 X106.978 Y103.119 E7.95837
G1 X107.323 Y102.949 E7.97755
G1 X107.923 Y102.742 E8.00922
G1 X108.282 Y102.649 E8.02772
G1 X108.838 Y102.546 E8.05593
G1 X109.403 Y102.523 E8.08414
G1 X109.812 Y102.556 E8.10462
G1 X111.525 Y102.784 E8.19083
G1 X112.196 Y102.883 E8.22467
G1 X112.748 Y103.005 E8.25287
G1 X113.277 Y103.203 E8.28105
G1 X113.547 Y103.339 E8.29614
G1 X113.809 Y103.488 E8.31117
G1 X114.05 Y103.635 E8.32526
G1 X114.511 Y103.963 E8.35348
G1 X114.92 Y104.352 E8.38164
G1 X115.147 Y104.624 E8.39932
G1 X116.012 Y105.757 E8.47044
G1 X116.574 Y106.503 E8.51703
G1 X116.881 Y106.978 E8.54525
G1 X117.085 Y107.404 E8.56881
G1 X117.258 Y107.921 E8.59601
G1 X117.351 Y108.279 E8.61447
G1 X117.454 Y108.835 E8.64268
G1 X117.477 Y109.4 E8.67089
G1 X117.444 Y109.812 E8.69151
G1 X117.218 Y111.509 E8.77692
G1 X117.117 Y112.195 E8.81151
G1 X116.996 Y112.747 E8.83971
G1 X116.797 Y113.276 E8.8679
G1 X116.661 Y113.547 E8.88303
G1 X116.512 Y113.809 E8.89807
G1 X116.365 Y114.05 E8.91215
G1 X116.037 Y114.511 E8.94038
G1 X115.648 Y114.92 E8.96854
G1 X115.376 Y115.147 E8.98622
G1 X114.243 Y116.012 E9.05733
G1 X113.497 Y116.574 E9.10393
G1 X113.022 Y116.881 E9.13215
G1 X112.677 Y117.051 E9.15133
G1 X112.077 Y117.258 E9.183
G1 X111.718 Y117.351 E9.2015
G1 X111.162 Y117.454 E9.22971
G1 X110.597 Y117.477 E9.25792
G1 X110.188 Y117.444 E9.27839
G1 X108.473 Y117.216 E9.36471
G1 X107.798 Y117.116 E9.39875
G1 X107.246 Y116.994 E9.42696
G1 X106.717 Y116.795 E9.45515
G1 X106.439 Y116.654 E9.47071
G1 X106.19 Y116.512 E9.48501
G1 X105.955 Y116.369 E9.49873
G1 X105.494 Y116.042 E9.52693
G1 X105.083 Y115.653 E9.55516
G1 X104.853 Y115.377 E9.57309
G1 X103.989 Y114.244 E9.64417
G1 X103.426 Y113.497 E9.69084
G1 X103.118 Y113.022 E9.71908
G1 X102.9 Y112.56 E9.74457
G1 X102.742 Y112.077 E9.76992
G1 X102.649 Y111.718 E9.78842
G1 X102.546 Y111.162 E9.81664
G1 X102.523 Y110.597 E9.84485
G1 X102.556 Y110.188 E9.86532
G1 X102.788 Y108.446 E9.95299
G1 X102.883 Y107.803 E9.98542
G1 X103.005 Y107.251 E10.01363
G1 X103.203 Y106.722 E10.04181
G1 X103.339 Y106.453 E10.05684
G1 X103.488 Y106.191 E10.07188
G1 X103.635 Y105.95 E10.08596
G1 X103.963 Y105.489 E10.11419
G1 X104.352 Y105.08 E10.14235
G0 F6000 X104.289 Y105.723
G1 F1200 X104.866 Y105.171 E10.18219
G1 X105.998 Y104.308 E10.25321
G1 X106.744 Y103.746 E10.2998
G1 X107.195 Y103.456 E10.32655
G1 X107.483 Y103.316 E10.34253
G1 X108.023 Y103.129 E10.37104
G1 X108.382 Y103.036 E10.38954
G1 X108.91 Y102.941 E10.41631
G1 X109.446 Y102.925 E10.44306
G1 X109.759 Y102.952 E10.45873
G1 X111.466 Y103.18 E10.54465
G1 X112.137 Y103.279 E10.57849
G1 X112.661 Y103.396 E10.60528
G1 X113.353 Y103.689 E10.64277
G1 X113.601 Y103.83 E10.657
G1 X113.842 Y103.977 E10.67109
G1 X114.277 Y104.289 E10.69779
G1 X114.829 Y104.866 E10.73763
G1 X115.692 Y105.998 E10.80865
G1 X116.254 Y106.744 E10.85524
G1 X116.544 Y107.195 E10.882
G1 X116.715 Y107.556 E10.90192
G1 X116.87 Y108.022 E10.92643
G1 X116.963 Y108.38 E10.94488
G1 X117.059 Y108.908 E10.97165
G1 X117.076 Y109.444 E10.99841
G1 X117.048 Y109.759 E11.01418
G1 X116.823 Y111.45 E11.09929
G1 X116.722 Y112.136 E11.13389
G1 X116.604 Y112.66 E11.16068
G1 X116.311 Y113.353 E11.19822
G1 X116.17 Y113.601 E11.21245
G1 X116.023 Y113.842 E11.22654
G1 X115.711 Y114.277 E11.25324
G1 X115.134 Y114.829 E11.29308
G1 X114.002 Y115.692 E11.3641
G1 X113.256 Y116.254 E11.4107
G1 X112.805 Y116.544 E11.43745
G1 X112.517 Y116.684 E11.45342
G1 X111.977 Y116.871 E11.48193
G1 X111.618 Y116.964 E11.50043
G1 X111.09 Y117.059 E11.5272
G1 X110.554 Y117.075 E11.55395
G1 X110.241 Y117.048 E11.56963
G1 X108.585 Y116.828 E11.65297
G1 X107.856 Y116.72 E11.68974
G1 X107.333 Y116.602 E11.71649
G1 X106.633 Y116.305 E11.75442
G1 X106.398 Y116.17 E11.76794
G1 X106.163 Y116.027 E11.78167
G1 X105.727 Y115.715 E11.80842
G1 X105.171 Y115.135 E11.8485
G1 X104.308 Y114.003 E11.91952
G1 X103.745 Y113.256 E11.96618
G1 X103.455 Y112.805 E11.99293
G1 X103.271 Y112.411 E12.01463
G1 X103.129 Y111.977 E12.03741
G1 X103.036 Y111.618 E12.05591
G1 X102.941 Y111.09 E12.08268
G1 X102.925 Y110.554 E12.10943
G1 X102.952 Y110.24 E12.12515
G1 X103.184 Y108.505 E12.21248
G1 X103.279 Y107.862 E12.24491
G1 X103.396 Y107.339 E12.27165
G1 X103.689 Y106.647 E12.30914
G1 X103.83 Y106.399 E12.32337
G1 X103.977 Y106.158 E12.33746
G1 X104.289 Y105.723 E12.36416
G0 F6000 X104.615 Y105.957
G1 F1200 X105.109 Y105.489 E12.39811
G1 X106.239 Y104.627 E12.46902
G1 X106.985 Y104.065 E12.51562
G1 X107.627 Y103.689 E12.55274
G1 X108.124 Y103.516 E12.57899
G1 X108.483 Y103.423 E12.59749
G1 X108.98 Y103.336 E12.62266
G1 X109.706 Y103.349 E12.65889
G1 X111.408 Y103.575 E12.74455
G1 X112.079 Y103.674 E12.77839
G1 X112.572 Y103.787 E12.80362
G1 X113.16 Y104.039 E12.83554
G1 X113.392 Y104.171 E12.84885
G1 X113.633 Y104.318 E12.86294
G1 X114.043 Y104.615 E12.8882
G1 X114.511 Y105.109 E12.92215
G1 X115.373 Y106.239 E12.99305
G1 X115.935 Y106.985 E13.03965
G1 X116.206 Y107.411 E13.06484
G1 X116.345 Y107.709 E13.08124
G1 X116.483 Y108.122 E13.10297
G1 X116.576 Y108.48 E13.12142
G1 X116.664 Y108.978 E13.14665
G1 X116.651 Y109.706 E13.18298
G1 X116.427 Y111.392 E13.26783
G1 X116.326 Y112.078 E13.30243
G1 X116.213 Y112.571 E13.32766
G1 X115.961 Y113.16 E13.35962
G1 X115.829 Y113.392 E13.37294
G1 X115.682 Y113.633 E13.38702
G1 X115.385 Y114.043 E13.41228
G1 X114.891 Y114.511 E13.44623
G1 X113.761 Y115.373 E13.51714
G1 X113.015 Y115.935 E13.56373
G1 X112.373 Y116.311 E13.60085
G1 X111.876 Y116.484 E13.62711
G1 X111.517 Y116.577 E13.64561
G1 X111.02 Y116.664 E13.67078
G1 X110.294 Y116.651 E13.70701
G1 X108.59 Y116.424 E13.79277
G1 X107.915 Y116.324 E13.82681
G1 X107.422 Y116.211 E13.85205
G1 X106.828 Y115.955 E13.88432
G1 X106.606 Y115.829 E13.89705
G1 X106.371 Y115.686 E13.91078
G1 X105.961 Y115.39 E13.93601
G1 X105.489 Y114.892 E13.97024
G1 X104.628 Y113.762 E14.04111
G1 X104.065 Y113.015 E14.08778
G1 X103.793 Y112.588 E14.11304
G1 X103.643 Y112.262 E14.13094
G1 X103.516 Y111.876 E14.15121
G1 X103.423 Y111.517 E14.16972
G1 X103.336 Y111.02 E14.19489
G1 X103.349 Y110.293 E14.23117
G1 X103.579 Y108.563 E14.31823
G1 X103.674 Y107.92 E14.35066
G1 X103.788 Y107.428 E14.37586
G1 X104.039 Y106.84 E14.40775
G1 X104.171 Y106.608 E14.42107
G1 X104.318 Y106.367 E14.43516
G1 X104.615 Y105.957 E14.46041
G1 F1500 E7.96041
;MESH:encoder_gear.stl
G0 F6000 X106.39 Y107.8
G0 X107.316 Y108.434
G0 X108.311 Y109.007
G0 X108.536 Y109.304
G0 X108.751 Y110.356
G0 X109.364 Y111.123
G0 X110.392 Y111.5
;TYPE:WALL-INNER
G1 F1500 E14.46041
G1 F1200 X110.36 Y111.469 E14.46264
G1 X110.305 Y111.417 E14.46641
G1 X109.581 Y111.29 E14.50308
G1 X109.246 Y111.304 E14.51981
G1 X109.214 Y111.329 E14.52184
G1 X109.213 Y111.306
G1 X109.208 Y111.207 E14.52622
G1 X108.777 Y110.594 E14.5636
G1 X108.513 Y110.402 E14.57989
G1 X108.5 Y110.392 E14.58071
G1 X108.531 Y110.36
G1 X108.582 Y110.306 E14.58288
G1 X108.656 Y109.898 E14.60356
G1 X108.71 Y109.581 E14.61961
G1 X108.696 Y109.246 E14.63633
G1 X108.671 Y109.214 E14.63836
G1 X108.694 Y109.213
G1 X108.793 Y109.208 E14.64274
G1 X109.406 Y108.777 E14.68012
G1 X109.598 Y108.513 E14.69641
G1 X109.608 Y108.5 E14.69723
G1 X109.64 Y108.531
G1 X109.695 Y108.583 E14.69942
G1 X110.419 Y108.71 E14.73609
G1 X110.754 Y108.696 E14.75282
G1 X110.786 Y108.671 E14.75485
G1 X110.787 Y108.694
G1 X110.792 Y108.793 E14.75923
G1 X111.223 Y109.406 E14.79661
G1 X111.487 Y109.598 E14.8129
G1 X111.5 Y109.608 E14.81371
G1 X111.469 Y109.64
G1 X111.418 Y109.694 E14.81588
G1 X111.344 Y110.102 E14.83657
G1 X111.29 Y110.419 E14.85261
G1 X111.304 Y110.754 E14.86934
G1 X111.329 Y110.786 E14.87137
G1 X111.306 Y110.787
G1 X111.207 Y110.792 E14.87575
G1 X110.594 Y111.223 E14.91313
G1 X110.402 Y111.487 E14.92477
G1 X110.392 Y111.5
G1 F1500 E8.42477
G0 F6000 X110.773 Y112.929
G0 X110.765 Y113.273
;TYPE:WALL-OUTER
G1 F1500 E14.92477
G1 F1200 X110.557 Y113.071 E14.93924
G1 X110.372 Y112.804 E14.95544
G1 X110.321 Y112.656 E14.96325
G1 X110.291 Y112.058 E14.99313
G1 X110.236 Y111.903 E15.00133
G1 X110.117 Y111.79 E15.00952
G1 X109.825 Y111.738 E15.02431
G1 X109.555 Y111.691 E15.03799
G1 X109.388 Y111.698 E15.04633
G1 X109.195 Y111.845 E15.05843
G1 X109.162 Y111.912 E15.06216
G1 X108.98 Y112.462 E15.09106
G1 X108.808 Y112.678 E15.10483
G1 X108.522 Y112.877 E15.12222
G1 X108.356 Y112.933 E15.13096
G1 X108.227 Y112.857 E15.13843
G1 X108.222 Y112.559 E15.1533
G1 X108.279 Y112.253 E15.16883
G1 X108.353 Y112.099 E15.17735
G1 X108.748 Y111.664 E15.20666
G1 X108.822 Y111.509 E15.21523
G1 X108.814 Y111.342 E15.22357
G1 X108.642 Y111.097 E15.23851
