;FLAVOR:Marlin
;TIME:189
;Filament used: 0.0898914m
;Layer height: 0.1
;MINX:96.086
;MINY:86.178
;MINZ:0.3
;MAXX:116.714
;MAXY:133.76
;MAXZ:0.4
;Generated with Cura_SteamEngine 4.8.0
M140 S60
M105
M190 S60
M104 S200
M105
M109 S200
M82 ;absolute extrusion mode
G21 
G90
M107
G28 X0 Y0
G28 Z0
G1 Z15.0 F{travel_xy_speed}
G29
G92 E0
G1 F200 E10
G92 E0
G1 F{travel_xy_speed}
M117 Printing...
G92 E0
G92 E0
G1 F1500 E-6.5
;LAYER_COUNT:2
;LAYER:0
M107
M204 S1000
G0 F6000 X97.087 Y87.307 Z0.3
;TYPE:SKIRT
G1 F1500 E0
G1 F1200 X97.484 Y86.947 E0.02674
G1 X97.931 Y86.65 E0.05351
G1 X98.416 Y86.422 E0.08025
G1 X98.93 Y86.269 E0.107
G1 X99.595 Y86.188 E0.14043
G1 X100.016 Y86.178 E0.16144
G1 X105.258 Y86.178 E0.42296
G1 X107.028 Y86.203 E0.51128
G1 X107.041 Y86.201 E0.51193
G1 X107.406 Y86.191 E0.53015
G1 X108.892 Y86.223 E0.6043
G1 X112.459 Y86.223 E0.78226
G1 X113.157 Y86.233 E0.81709
G1 X113.691 Y86.281 E0.84384
G1 X114.212 Y86.407 E0.87058
G1 X114.709 Y86.61 E0.89736
G1 X115.17 Y86.884 E0.92412
G1 X115.585 Y87.223 E0.95085
G1 X115.945 Y87.621 E0.97763
G1 X116.242 Y88.067 E1.00436
G1 X116.47 Y88.553 E1.03114
G1 X116.622 Y89.067 E1.05788
G1 X116.703 Y89.729 E1.09116
G1 X116.714 Y90.144 E1.11187
G1 X116.714 Y129.486 E3.07465
G1 X116.705 Y130.211 E3.11082
G1 X116.658 Y130.745 E3.13757
G1 X116.533 Y131.266 E3.1643
G1 X116.331 Y131.763 E3.19106
G1 X116.058 Y132.225 E3.21783
G1 X115.72 Y132.641 E3.24458
G1 X115.323 Y133.002 E3.27135
G1 X114.877 Y133.3 E3.29811
G1 X114.392 Y133.528 E3.32484
G1 X113.878 Y133.682 E3.35161
G1 X113.347 Y133.758 E3.37838
G1 X112.906 Y133.76 E3.40038
G1 X111.484 Y133.681 E3.47143
G1 X111.242 Y133.664 E3.48353
G1 X108.524 Y133.556 E3.61924
G1 X105.793 Y133.523 E3.7555
G1 X103.045 Y133.568 E3.89262
G1 X99.924 Y133.715 E4.0485
G1 X99.772 Y133.719 E4.05609
G1 X99.237 Y133.69 E4.08282
G1 X98.712 Y133.581 E4.10957
G1 X98.209 Y133.395 E4.13632
G1 X97.739 Y133.137 E4.16307
G1 X97.312 Y132.811 E4.18987
G1 X96.939 Y132.426 E4.21662
G1 X96.627 Y131.99 E4.24336
G1 X96.383 Y131.513 E4.27009
G1 X96.213 Y131.004 E4.29687
G1 X96.121 Y130.476 E4.32361
G1 X96.104 Y130.185 E4.33815
G1 X96.086 Y129.176 E4.3885
G1 X96.086 Y90.424 E6.32184
G1 X96.096 Y89.735 E6.35622
G1 X96.144 Y89.201 E6.38297
G1 X96.271 Y88.679 E6.40977
G1 X96.473 Y88.183 E6.43649
G1 X96.747 Y87.722 E6.46325
G1 X97.087 Y87.307 E6.49001
G0 F6000 X97.479 Y87.48
G1 F1200 X97.87 Y87.159 E6.51525
G1 X98.306 Y86.904 E6.54045
G1 X98.778 Y86.722 E6.56569
G1 X99.272 Y86.615 E6.5909
G1 X99.606 Y86.588 E6.60762
G1 X100.016 Y86.578 E6.62808
G1 X105.252 Y86.578 E6.88931
G1 X107.172 Y86.605 E6.98511
G1 X107.397 Y86.591 E6.99635
G1 X108.883 Y86.623 E7.07051
G1 X112.453 Y86.623 E7.24862
G1 X113.151 Y86.633 E7.28344
G1 X113.654 Y86.68 E7.30865
G1 X114.144 Y86.806 E7.33389
G1 X114.608 Y87.008 E7.35914
G1 X115.034 Y87.28 E7.38435
G1 X115.412 Y87.615 E7.40955
G1 X115.732 Y88.006 E7.43476
G1 X115.987 Y88.443 E7.46
G1 X116.17 Y88.914 E7.48521
G1 X116.277 Y89.408 E7.51043
G1 X116.304 Y89.74 E7.52705
G1 X116.314 Y90.144 E7.54721
G1 X116.314 Y129.481 E9.50974
G1 X116.305 Y130.206 E9.54591
G1 X116.259 Y130.709 E9.57111
G1 X116.134 Y131.199 E9.59634
G1 X115.933 Y131.663 E9.62157
G1 X115.662 Y132.09 E9.6468
G1 X115.327 Y132.469 E9.67204
G1 X114.937 Y132.79 E9.69724
G1 X114.501 Y133.046 E9.72246
G1 X114.03 Y133.229 E9.74767
G1 X113.536 Y133.337 E9.7729
G1 X112.928 Y133.361 E9.80325
G1 X111.512 Y133.282 E9.87401
G1 X111.253 Y133.264 E9.88696
G1 X108.545 Y133.156 E10.02217
G1 X105.791 Y133.123 E10.15958
G1 X103.019 Y133.169 E10.29789
G1 X99.817 Y133.318 E10.45782
G1 X99.765 Y133.319 E10.46041
G1 X99.26 Y133.289 E10.48565
G1 X98.766 Y133.18 E10.51089
G1 X98.296 Y132.994 E10.53611
G1 X97.861 Y132.737 E10.56131
G1 X97.472 Y132.414 E10.58654
G1 X97.138 Y132.034 E10.61178
G1 X96.869 Y131.606 E10.637
G1 X96.67 Y131.141 E10.66223
G1 X96.547 Y130.651 E10.68744
G1 X96.504 Y130.178 E10.71113
G1 X96.486 Y129.176 E10.76113
G1 X96.486 Y90.43 E12.69418
G1 X96.496 Y89.741 E12.72855
G1 X96.544 Y89.237 E12.75381
G1 X96.67 Y88.748 E12.77901
G1 X96.871 Y88.284 E12.80423
G1 X97.143 Y87.858 E12.82945
G1 X97.479 Y87.48 E12.85468
G1 F1500 E6.35468
;MESH:chasis_b_adjust.stl(1)
G0 F6000 X102.775 Y94.92
G0 X102.007 Y93.665
G0 X101.596 Y94.683
G0 X101.499 Y95.172
G0 X101.574 Y95.611
G0 X101.758 Y95.971
G0 X102.554 Y96.718
;TYPE:WALL-INNER
G1 F1500 E12.85468
G1 F1200 X103.056 Y96.742 E12.87975
G1 X103.593 Y96.605 E12.9074
G1 X103.999 Y96.314 E12.93232
G1 X104.335 Y95.87 E12.9601
G1 X104.465 Y95.406 E12.98414
G1 X104.478 Y95.031 E13.00286
G1 X104.341 Y94.499 E13.03027
G1 X104.05 Y94.093 E13.05519
G1 X103.608 Y93.758 E13.08286
G1 X103.125 Y93.621 E13.10791
G1 X102.569 Y93.635 E13.13566
G1 X102.108 Y93.829 E13.16061
G1 X101.682 Y94.186 E13.18834
G1 X101.443 Y94.627 E13.21337
G1 X101.334 Y95.17 E13.241
G1 X101.419 Y95.663 E13.26595
G1 X101.673 Y96.158 E13.29371
G1 X102.049 Y96.489 E13.3187
G1 X102.554 Y96.718 E13.34637
G0 F6000 X102.65 Y96.322
;TYPE:WALL-OUTER
G1 F1200 X103.015 Y96.34 E13.3646
G1 X103.421 Y96.236 E13.38551
G1 X103.717 Y96.024 E13.40367
G1 X103.97 Y95.689 E13.42462
G1 X104.067 Y95.344 E13.4425
G1 X104.076 Y95.075 E13.45592
G1 X103.972 Y94.671 E13.47674
G1 X103.76 Y94.375 E13.4949
G1 X103.426 Y94.122 E13.51581
G1 X103.074 Y94.022 E13.53406
G1 X102.655 Y94.033 E13.55497
G1 X102.319 Y94.174 E13.57315
G1 X101.997 Y94.444 E13.59412
G1 X101.823 Y94.765 E13.61233
G1 X101.741 Y95.175 E13.63319
G1 X101.803 Y95.535 E13.65142
G1 X101.994 Y95.908 E13.67233
G1 X102.268 Y96.149 E13.69053
G1 X102.65 Y96.322 E13.71145
G0 F6000 X102.85 Y96.331
G0 X102.828 Y96.771
G1 F1500 E7.21145
G0 F6000 X103.075 Y96.934
G0 X102.929 Y95.471
G0 X102.968 Y123.29
G0 X103.15 Y121.811
G0 X103.082 Y122.181
G0 X102.606 Y122.196
G0 X102.194 Y122.367
G0 X101.809 Y122.69
G0 X101.596 Y123.083
G0 X101.499 Y123.572
G0 X101.574 Y124.011
G0 X101.758 Y124.371
G0 X102.555 Y125.118
;TYPE:WALL-INNER
G1 F1500 E13.71145
G1 F1200 X103.056 Y125.142 E13.73648
G1 X103.354 Y125.066 E13.75182
G1 X103.593 Y125.005 E13.76413
G1 X103.999 Y124.714 E13.78905
G1 X104.335 Y124.27 E13.81683
G1 X104.407 Y124.011 E13.83024
G1 X104.465 Y123.806 E13.84087
G1 X104.478 Y123.431 E13.85959
G1 X104.341 Y122.899 E13.88699
G1 X104.05 Y122.493 E13.91191
G1 X103.606 Y122.157 E13.93969
G1 X103.124 Y122.022 E13.96467
G1 X102.571 Y122.036 E13.99226
G1 X102.109 Y122.228 E14.01722
G1 X101.682 Y122.586 E14.04502
G1 X101.443 Y123.027 E14.07005
G1 X101.334 Y123.57 E14.09768
G1 X101.419 Y124.063 E14.12264
G1 X101.672 Y124.558 E14.15037
G1 X102.049 Y124.89 E14.17544
G1 X102.555 Y125.118 E14.20312
G0 F6000 X102.65 Y124.722
;TYPE:WALL-OUTER
G1 F1200 X103.015 Y124.74 E14.22136
G1 X103.421 Y124.636 E14.24227
G1 X103.717 Y124.424 E14.26043
G1 X103.97 Y124.089 E14.28137
G1 X104.067 Y123.744 E14.29925
G1 X104.076 Y123.475 E14.31268
G1 X103.972 Y123.071 E14.33349
G1 X103.76 Y122.775 E14.35166
G1 X103.425 Y122.522 E14.3726
G1 X103.074 Y122.423 E14.3908
G1 X102.656 Y122.434 E14.41166
G1 X102.319 Y122.574 E14.42987
G1 X101.997 Y122.844 E14.45083
G1 X101.823 Y123.165 E14.46905
G1 X101.741 Y123.575 E14.48991
G1 X101.803 Y123.935 E14.50813
G1 X101.994 Y124.308 E14.52904
G1 X102.268 Y124.55 E14.54728
G1 X102.65 Y124.722 E14.56818
G0 F6000 X102.85 Y124.731
G0 X102.828 Y125.171
G0 X103.438 Y125.251
G0 X100.286 Y128.684
;TYPE:WALL-INNER
G1 F1200 X100.286 Y128.204 E14.59212
G1 X100.286 Y128.203 E14.59217
G1 X100.286 Y90.378 E16.47927
G1 X105.314 Y90.378 E16.73012
G1 X105.314 Y123.657 E18.39042
G1 X104.708 Y124.263 E18.43317
G1 X104.518 Y124.453 E18.44428
G1 X104.128 Y124.843 E18.45942
G1 X103.78 Y125.191 E18.47351
G1 X103.606 Y125.365 E18.48377
G1 X100.626 Y128.344 E18.69399
G1 X100.286 Y128.684 E18.70689
G0 F6000 X100.124 Y129.076
G0 X99.886 Y129.65
;TYPE:WALL-OUTER
G1 F1200 X99.886 Y89.978 E20.68614
G1 X105.714 Y89.978 E20.9769
G1 X105.714 Y123.823 E22.66543
G1 X99.886 Y129.65 E23.07659
G0 F6000 X99.886 Y129.45
G0 X100.124 Y129.076
G0 X100.872 Y127.941
G0 X100.676 Y127.744
;TYPE:SKIN
G1 F1200 X100.676 Y90.768 E24.92133
G1 X104.924 Y90.768 E25.13327
G1 X104.924 Y123.497 E26.76612
G1 X104.864 Y123.557 E26.77036
G1 X104.87 Y123.388 E26.77879
G1 X104.7 Y122.731 E26.81265
G1 X104.333 Y122.218 E26.84412
G1 X103.782 Y121.802 E26.87857
G1 X103.173 Y121.63 E26.91014
G1 X102.489 Y121.648 E26.94427
G1 X101.904 Y121.891 E26.97588
G1 X101.374 Y122.335 E27.01037
G1 X101.072 Y122.893 E27.04203
G1 X100.938 Y123.564 E27.07616
G1 X101.045 Y124.188 E27.10775
G1 X101.358 Y124.802 E27.14213
G1 X101.835 Y125.221 E27.17381
G1 X102.462 Y125.504 E27.20813
G1 X102.896 Y125.525 E27.2298
G1 X100.676 Y127.744 E27.3864
G1 F1500 E20.8864
G0 F6000 X100.872 Y127.942
G0 X103.438 Y125.251
G0 X101.503 Y124.636
G0 X101.499 Y123.572
G0 X101.596 Y123.083
G0 X101.885 Y122.641
G0 X101.999 Y122.046
G0 X102.775 Y123.32
G0 X102.929 Y95.471
G0 X103.075 Y96.934
G0 X102.527 Y96.827
G0 X102.461 Y97.104
G1 F1500 E27.3864
G1 F1200 X103.095 Y97.134 E27.41807
G1 X103.761 Y96.964 E27.45236
G1 X104.274 Y96.597 E27.48383
G1 X104.69 Y96.046 E27.51827
G1 X104.853 Y95.466 E27.54833
G1 X104.87 Y94.988 E27.57219
G1 X104.7 Y94.331 E27.60605
G1 X104.333 Y93.818 E27.63752
G1 X103.785 Y93.403 E27.67181
G1 X103.174 Y93.229 E27.70351
G1 X102.485 Y93.247 E27.7379
G1 X101.903 Y93.492 E27.7694
G1 X101.374 Y93.935 E27.80382
G1 X101.072 Y94.493 E27.83548
G1 X100.938 Y95.164 E27.86962
G1 X101.045 Y95.788 E27.9012
G1 X101.359 Y96.402 E27.93561
G1 X101.835 Y96.82 E27.96721
G1 X102.461 Y97.104 E28.00151
G1 F1500 E21.50151
G0 F6000 X102.527 Y96.827
G0 X103.523 Y96.456
G0 X103.885 Y96.197
G0 X104.187 Y95.796
G0 X104.305 Y95.381
G0 X104.316 Y95.049
G0 X104.247 Y94.778
G0 X103.695 Y93.584
G0 X105.104 Y93.584
G0 X105.204 Y91.187
G0 X104.763 Y91.187
G1 F1500 E28.00151
G1 F1200 X104.504 Y90.928 E28.01978
G0 F6000 X103.939 Y90.928
G1 F1200 X104.763 Y91.752 E28.07792
G0 F6000 X104.763 Y92.318
G1 F1200 X103.373 Y90.928 E28.17599
G0 F6000 X102.807 Y90.928
G1 F1200 X104.763 Y92.884 E28.314
G0 F6000 X104.763 Y93.449
G1 F1200 X102.241 Y90.928 E28.4919
G0 F6000 X101.676 Y90.928
G1 F1200 X104.763 Y94.015 E28.70971
G1 F1500 E22.20971
G0 F6000 X105.204 Y94.015
G0 X105.104 Y93.513
G0 X104.188 Y93.958
G0 X103.151 Y93.513
G0 X103.272 Y93.089
G1 F1500 E28.70971
G1 F1200 X101.11 Y90.928 E28.86221
G0 F6000 X100.835 Y91.218
G1 F1200 X102.697 Y93.08 E28.99359
G0 F6000 X102.23 Y93.179
G1 F1200 X100.835 Y91.784 E29.09201
G0 F6000 X100.835 Y92.35
G1 F1200 X101.832 Y93.347 E29.16235
G0 F6000 X101.521 Y93.601
G1 F1200 X100.835 Y92.915 E29.21076
G0 F6000 X100.835 Y93.481
G1 F1200 X101.225 Y93.871 E29.23827
G0 F6000 X101.027 Y94.238
G1 F1200 X100.835 Y94.047 E29.25178
G0 F6000 X100.396 Y94.047
G0 X100.396 Y96.31
G0 X100.835 Y96.31
G1 F1200 X104.763 Y100.238 E29.52893
G0 F6000 X104.763 Y100.803
G1 F1200 X100.835 Y96.875 E29.80607
G0 F6000 X100.835 Y97.441
G1 F1200 X104.763 Y101.369 E30.08321
G0 F6000 X104.763 Y101.935
G1 F1200 X100.835 Y98.007 E30.36035
G0 F6000 X100.835 Y98.572
G1 F1200 X104.763 Y102.5 E30.63749
G0 F6000 X104.763 Y103.066
G1 F1200 X100.835 Y99.138 E30.91463
G0 F6000 X100.835 Y99.704
G1 F1200 X104.763 Y103.632 E31.19177
G0 F6000 X104.763 Y104.197
G1 F1200 X100.835 Y100.269 E31.46892
G0 F6000 X100.835 Y100.835
G1 F1200 X104.763 Y104.763 E31.74606
G0 F6000 X104.763 Y105.329
G1 F1200 X100.835 Y101.401 E32.0232
G0 F6000 X100.835 Y101.966
G1 F1200 X104.763 Y105.894 E32.30034
G0 F6000 X104.763 Y106.46
G1 F1200 X100.835 Y102.532 E32.57748
G0 F6000 X100.835 Y103.098
G1 F1200 X104.763 Y107.026 E32.85462
G0 F6000 X104.763 Y107.591
G1 F1200 X100.835 Y103.663 E33.13177
G0 F6000 X100.835 Y104.229
G1 F1200 X104.763 Y108.157 E33.40891
G0 F6000 X104.763 Y108.723
G1 F1200 X100.835 Y104.795 E33.68605
G0 F6000 X100.835 Y105.361
G1 F1200 X104.763 Y109.289 E33.96319
G0 F6000 X104.764 Y109.855
G1 F1200 X100.835 Y105.926 E34.2404
G0 F6000 X100.835 Y106.492
G1 F1200 X104.764 Y110.421 E34.51762
G0 F6000 X104.764 Y110.986
G1 F1200 X100.835 Y107.058 E34.79479
G0 F6000 X100.835 Y107.623
G1 F1200 X104.764 Y111.552 E35.072
G0 F6000 X104.764 Y112.118
G1 F1200 X100.835 Y108.189 E35.34922
G0 F6000 X100.835 Y108.755
G1 F1200 X104.764 Y112.683 E35.62639
G0 F6000 X104.764 Y113.249
G1 F1200 X100.835 Y109.32 E35.90361
G0 F6000 X100.835 Y109.886
G1 F1200 X104.764 Y113.815 E36.18082
G0 F6000 X104.764 Y114.38
G1 F1200 X100.835 Y110.452 E36.45799
G0 F6000 X100.835 Y111.017
G1 F1200 X104.764 Y114.946 E36.73521
G0 F6000 X104.764 Y115.512
G1 F1200 X100.835 Y111.583 E37.01242
G0 F6000 X100.835 Y112.149
G1 F1200 X104.764 Y116.077 E37.2896
G0 F6000 X104.764 Y116.643
G1 F1200 X100.835 Y112.714 E37.56681
G0 F6000 X100.835 Y113.28
G1 F1200 X104.764 Y117.209 E37.84402
G0 F6000 X104.764 Y117.774
G1 F1200 X100.835 Y113.846 E38.1212
G0 F6000 X100.835 Y114.411
G1 F1200 X104.764 Y118.34 E38.39841
G0 F6000 X104.764 Y118.906
G1 F1200 X100.835 Y114.977 E38.67562
G0 F6000 X100.835 Y115.543
G1 F1200 X104.764 Y119.472 E38.95283
G0 F6000 X104.764 Y120.037
G1 F1200 X100.835 Y116.109 E39.23001
G0 F6000 X100.835 Y116.674
G1 F1200 X104.764 Y120.603 E39.50722
G0 F6000 X104.764 Y121.169
G1 F1200 X100.835 Y117.24 E39.78443
G0 F6000 X100.835 Y117.806
G1 F1200 X104.764 Y121.734 E40.06161
G0 F6000 X104.764 Y122.3
G1 F1200 X100.835 Y118.371 E40.33882
G0 F6000 X100.835 Y118.937
G1 F1200 X103.434 Y121.536 E40.5222
G0 F6000 X102.811 Y121.478
G1 F1200 X100.835 Y119.503 E40.66158
G0 F6000 X100.835 Y120.068
G1 F1200 X102.313 Y121.546 E40.76586
G0 F6000 X101.913 Y121.712
G1 F1200 X100.835 Y120.634 E40.84192
G0 F6000 X100.835 Y121.2
G1 F1200 X101.584 Y121.949 E40.89477
G0 F6000 X101.276 Y122.207
G1 F1200 X100.835 Y121.765 E40.92592
G0 F6000 X100.835 Y122.331
G1 F1200 X101.068 Y122.564 E40.94235
G0 F6000 X101.454 Y122.773
G0 X101.534 Y124.665
G0 X103.438 Y125.251
G0 X100.481 Y128.213
G0 X100.396 Y124.594
G0 X100.835 Y124.594
G1 F1200 X102.217 Y125.976 E41.03986
G0 F6000 X101.934 Y126.258
G1 F1200 X100.835 Y125.16 E41.11737
G0 F6000 X100.835 Y125.725
G1 F1200 X101.651 Y126.541 E41.17494
G0 F6000 X101.368 Y126.824
G1 F1200 X100.835 Y126.291 E41.21255
G0 F6000 X100.835 Y126.857
G1 F1200 X101.085 Y127.107 E41.23019
G1 F1500 E34.73019
G0 F6000 X101.395 Y127.418
G0 X103.438 Y125.251
G0 X101.745 Y124.859
G0 X101.499 Y123.572
G0 X101.596 Y123.083
G0 X102.134 Y122.026
G0 X104.174 Y122.372
G0 X104.591 Y124.097
G0 X105.14 Y123.585
G0 X105.204 Y99.672
G0 X104.763 Y99.672
G1 F1500 E41.23019
G1 F1200 X102.297 Y97.205 E41.40421
G0 F6000 X102.944 Y97.287
G1 F1200 X104.763 Y99.106 E41.53255
G0 F6000 X104.763 Y98.54
G1 F1200 X103.434 Y97.212 E41.62628
G0 F6000 X103.871 Y97.082
G1 F1200 X104.763 Y97.975 E41.68925
G0 F6000 X104.763 Y97.409
G1 F1200 X104.199 Y96.846 E41.72901
G0 F6000 X104.491 Y96.571
G1 F1200 X104.763 Y96.843 E41.7482
G0 F6000 X105.114 Y96.843
G1 F1500 E35.2482
;MESH:chasis_b_adjust.stl
G0 F6000 X105.204 Y96.843
G0 X105.486 Y90.206
G0 X105.514 Y89.113
G0 X109.624 Y95.358
G0 X108.283 Y95.984
G0 X109.078 Y96.398
G0 X110.231 Y96.766
;TYPE:WALL-INNER
G1 F1500 E41.7482
G1 F1200 X110.692 Y96.572 E41.77316
G1 X111.118 Y96.215 E41.80089
G1 X111.357 Y95.774 E41.82591
G1 X111.466 Y95.231 E41.85354
G1 X111.381 Y94.738 E41.8785
G1 X111.128 Y94.243 E41.90623
G1 X110.751 Y93.911 E41.9313
G1 X110.245 Y93.683 E41.95899
G1 X109.744 Y93.659 E41.98401
G1 X109.207 Y93.796 E42.01166
G1 X108.801 Y94.087 E42.03658
G1 X108.476 Y94.516 E42.06343
G1 X108.347 Y94.891 E42.08322
G1 X108.321 Y95.364 E42.10685
G1 X108.459 Y95.902 E42.13456
G1 X108.75 Y96.308 E42.15948
G1 X109.192 Y96.643 E42.18715
G1 X109.675 Y96.78 E42.2122
G1 X110.231 Y96.766 E42.23994
G0 F6000 X110.145 Y96.368
;TYPE:WALL-OUTER
G1 F1200 X110.481 Y96.227 E42.25812
G1 X110.803 Y95.957 E42.27909
G1 X110.977 Y95.636 E42.29731
G1 X111.059 Y95.226 E42.31817
G1 X110.997 Y94.866 E42.33639
G1 X110.806 Y94.493 E42.3573
G1 X110.532 Y94.251 E42.37554
G1 X110.15 Y94.079 E42.39644
G1 X109.785 Y94.061 E42.41467
G1 X109.379 Y94.165 E42.43558
G1 X109.083 Y94.377 E42.45374
G1 X108.833 Y94.707 E42.4744
G1 X108.743 Y94.968 E42.48817
G1 X108.724 Y95.324 E42.50596
G1 X108.828 Y95.73 E42.52687
G1 X109.04 Y96.026 E42.54503
