;FLAVOR:Marlin
;TIME:6882
;Filament used: 5.50769m
;Layer height: 0.3
;MINX:83.079
;MINY:75.879
;MINZ:0.3
;MAXX:136.921
;MAXY:144.121
;MAXZ:23.4
;Generated with Cura_SteamEngine 4.8.0
M140 S60
M105
M190 S60
M104 S200
M105
M109 S200
M82 ;absolute extrusion mode
G21 
G90
M107
G28 X0 Y0
G28 Z0
G1 Z15.0 F{travel_xy_speed}
G29
G92 E0
G1 F200 E10
G92 E0
G1 F{travel_xy_speed}
M117 Printing...
G92 E0
G92 E0
G1 F1500 E-6.5
;LAYER_COUNT:78
;LAYER:0
M107
M204 S1000
G0 F6000 X84.465 Y87.281 Z0.3
;TYPE:SKIRT
G1 F1500 E0
G1 F1200 X94.373 Y77.372 E0.6991
G1 X94.86 Y76.901 E0.7329
G1 X95.272 Y76.558 E0.75964
G1 X95.731 Y76.28 E0.78642
G1 X96.226 Y76.073 E0.81318
G1 X96.746 Y75.942 E0.83994
G1 X97.241 Y75.891 E0.86476
G1 X97.467 Y75.884 E0.87605
G1 X97.876 Y75.879 E0.89645
G1 X121.986 Y75.879 E2.0993
G1 X122.687 Y75.889 E2.13428
G1 X123.222 Y75.937 E2.16108
G1 X123.743 Y76.063 E2.18782
G1 X124.239 Y76.266 E2.21456
G1 X124.7 Y76.54 E2.24131
G1 X125.076 Y76.842 E2.26538
G1 X125.303 Y77.053 E2.28084
G1 X125.499 Y77.244 E2.29449
G1 X135.428 Y87.174 E2.99507
G1 X135.899 Y87.661 E3.02887
G1 X136.242 Y88.073 E3.05562
G1 X136.52 Y88.532 E3.08239
G1 X136.727 Y89.027 E3.10916
G1 X136.858 Y89.547 E3.13591
G1 X136.909 Y90.042 E3.16074
G1 X136.916 Y90.268 E3.17202
G1 X136.921 Y90.677 E3.19242
G1 X136.921 Y129.186 E5.11365
G1 X136.911 Y129.888 E5.14867
G1 X136.863 Y130.422 E5.17542
G1 X136.737 Y130.944 E5.20221
G1 X136.534 Y131.44 E5.22895
G1 X136.26 Y131.901 E5.25571
G1 X135.95 Y132.285 E5.28033
G1 X135.743 Y132.507 E5.29547
G1 X135.535 Y132.72 E5.31032
G1 X125.637 Y142.617 E6.00865
G1 X125.143 Y143.096 E6.04297
G1 X124.731 Y143.439 E6.06972
G1 X124.273 Y143.718 E6.09648
G1 X123.779 Y143.925 E6.1232
G1 X123.259 Y144.057 E6.14996
G1 X122.759 Y144.109 E6.17504
G1 X122.533 Y144.116 E6.18632
G1 X122.124 Y144.121 E6.20673
G1 X98.014 Y144.121 E7.40958
G1 X97.312 Y144.111 E7.44461
G1 X96.778 Y144.063 E7.47136
G1 X96.256 Y143.937 E7.49815
G1 X95.76 Y143.734 E7.52489
G1 X95.299 Y143.46 E7.55164
G1 X94.915 Y143.15 E7.57626
G1 X94.692 Y142.942 E7.59148
G1 X94.471 Y142.725 E7.60693
G1 X84.572 Y132.827 E8.30532
G1 X84.101 Y132.34 E8.33912
G1 X83.758 Y131.928 E8.36587
G1 X83.48 Y131.469 E8.39264
G1 X83.273 Y130.974 E8.41941
G1 X83.142 Y130.454 E8.44616
G1 X83.091 Y129.959 E8.47099
G1 X83.084 Y129.733 E8.48227
G1 X83.079 Y129.324 E8.50268
G1 X83.079 Y90.814 E10.42395
G1 X83.089 Y90.112 E10.45897
G1 X83.137 Y89.578 E10.48572
G1 X83.263 Y89.056 E10.51251
G1 X83.466 Y88.56 E10.53925
G1 X83.74 Y88.099 E10.56601
G1 X84.05 Y87.715 E10.59063
G1 X84.257 Y87.493 E10.60577
G1 X84.465 Y87.281 E10.62059
G0 F6000 X84.748 Y87.563
G1 F1200 X94.651 Y77.66 E11.3193
G1 X95.138 Y77.189 E11.3531
G1 X95.528 Y76.867 E11.37833
G1 X95.964 Y76.611 E11.40356
G1 X96.435 Y76.427 E11.42878
G1 X96.929 Y76.319 E11.45401
G1 X97.255 Y76.291 E11.47034
G1 X97.472 Y76.284 E11.48117
G1 X97.881 Y76.279 E11.50157
G1 X121.981 Y76.279 E12.70393
G1 X122.682 Y76.289 E12.7389
G1 X123.185 Y76.336 E12.76411
G1 X123.675 Y76.462 E12.78935
G1 X124.138 Y76.664 E12.81455
G1 X124.565 Y76.936 E12.83981
G1 X124.805 Y77.136 E12.8554
G1 X125.024 Y77.339 E12.87029
G1 X125.188 Y77.499 E12.88173
G1 X135.14 Y87.452 E13.58393
G1 X135.611 Y87.939 E13.61773
G1 X135.933 Y88.329 E13.64296
G1 X136.189 Y88.765 E13.66819
G1 X136.373 Y89.236 E13.69341
G1 X136.481 Y89.73 E13.71864
G1 X136.509 Y90.056 E13.73496
G1 X136.516 Y90.273 E13.7458
G1 X136.521 Y90.682 E13.7662
G1 X136.521 Y129.181 E15.68693
G1 X136.511 Y129.883 E15.72195
G1 X136.464 Y130.386 E15.74716
G1 X136.338 Y130.876 E15.7724
G1 X136.136 Y131.339 E15.7976
G1 X135.865 Y131.766 E15.82283
G1 X135.657 Y132.013 E15.83894
G1 X135.457 Y132.227 E15.85355
G1 X135.252 Y132.437 E15.8682
G1 X125.359 Y142.329 E16.56617
G1 X124.865 Y142.808 E16.60049
G1 X124.475 Y143.131 E16.62576
G1 X124.039 Y143.387 E16.65098
G1 X123.569 Y143.572 E16.67618
G1 X123.075 Y143.681 E16.70142
G1 X122.745 Y143.709 E16.71794
G1 X122.528 Y143.716 E16.72878
G1 X122.119 Y143.721 E16.74918
G1 X98.019 Y143.721 E17.95154
G1 X97.317 Y143.711 E17.98656
G1 X96.814 Y143.664 E18.01177
G1 X96.324 Y143.538 E18.03701
G1 X95.861 Y143.336 E18.06221
G1 X95.434 Y143.065 E18.08744
G1 X95.187 Y142.857 E18.10355
G1 X94.972 Y142.656 E18.11824
G1 X94.753 Y142.442 E18.13351
G1 X84.86 Y132.549 E18.83152
G1 X84.389 Y132.062 E18.86532
G1 X84.067 Y131.672 E18.89055
G1 X83.811 Y131.236 E18.91577
G1 X83.627 Y130.765 E18.941
G1 X83.519 Y130.271 E18.96623
G1 X83.491 Y129.945 E18.98255
G1 X83.484 Y129.728 E18.99339
G1 X83.479 Y129.319 E19.01379
G1 X83.479 Y90.819 E20.93456
G1 X83.489 Y90.117 E20.96959
G1 X83.536 Y89.614 E20.9948
G1 X83.662 Y89.124 E21.02004
G1 X83.864 Y88.661 E21.04524
G1 X84.135 Y88.234 E21.07047
G1 X84.343 Y87.987 E21.08658
G1 X84.543 Y87.773 E21.10119
G1 X84.748 Y87.563 E21.11583
G1 F1500 E14.61583
;MESH:chassis_a.stl
G0 F6000 X86.541 Y89.356
G0 X87.237 Y90.052
G0 X97.677 Y80.253
G0 X107.739 Y80.28
G0 X105.276 Y83.638
G0 X106.148 Y87.626
G0 X107.619 Y88.694
G0 X109.866 Y89.484
;TYPE:WALL-INNER
G1 F1500 E21.11583
G1 F1200 X110.34 Y89.474 E21.13949
G1 X110.615 Y89.447 E21.15327
G1 X111.09 Y89.356 E21.1774
G1 X111.403 Y89.262 E21.19371
G1 X111.552 Y89.214 E21.20152
G1 X111.876 Y89.078 E21.21905
G1 X111.98 Y89.029 E21.22478
G1 X112.316 Y88.846 E21.24387
G1 X112.69 Y88.61 E21.26593
G1 X113.066 Y88.348 E21.2888
G1 X113.117 Y88.299 E21.29233
G1 X113.401 Y88.055 E21.31101
G1 X113.719 Y87.718 E21.33412
G1 X114.006 Y87.346 E21.35756
G1 X114.253 Y86.943 E21.38115
G1 X114.46 Y86.517 E21.40478
G1 X114.623 Y86.071 E21.42847
G1 X114.724 Y85.683 E21.44847
G1 X114.791 Y85.29 E21.46836
G1 X114.825 Y84.934 E21.4862
G1 X114.834 Y84.54 E21.50586
G1 X114.808 Y84.131 E21.52631
G1 X114.742 Y83.72 E21.54708
G1 X114.643 Y83.312 E21.56802
G1 X114.556 Y83.036 E21.58246
G1 X114.457 Y82.775 E21.59639
G1 X114.4 Y82.639 E21.60374
G1 X114.206 Y82.254 E21.62525
G1 X113.974 Y81.882 E21.64712
G1 X113.906 Y81.781 E21.6532
G1 X113.678 Y81.492 E21.67156
G1 X113.569 Y81.36 E21.6801
G1 X113.243 Y81.026 E21.70339
G1 X112.839 Y80.687 E21.7297
G1 X112.567 Y80.502 E21.74611
G1 X112.514 Y80.471 E21.74917
G1 X112.361 Y80.383 E21.75798
G1 X111.866 Y80.161 E21.78505
G1 X111.613 Y80.079 E21.79831
G1 X111.866 Y80.079 E21.79948
G1 X112.361 Y80.079 E21.81111
G1 X112.538 Y80.079 E21.81893
G1 X122.394 Y80.079 E22.31065
G1 X132.721 Y90.406 E23.03928
G1 X132.721 Y129.594 E24.99437
G1 X122.394 Y139.921 E25.723
G1 X97.606 Y139.921 E26.95968
G1 X87.279 Y129.594 E27.6883
G1 X87.279 Y90.406 E29.6434
G1 X97.606 Y80.079 E30.37202
G1 X107.771 Y80.079 E30.87916
G1 X108.124 Y80.079 E30.89677
G1 X108.214 Y80.079 E30.90126
G1 X108.622 Y80.079 E30.92162
G1 X108.667 Y80.079 E30.92386
G1 X108.622 Y80.095 E30.92398
G1 X108.214 Y80.26 E30.93031
G1 X108.124 Y80.304 E30.93303
G1 X107.812 Y80.468 E30.94689
G1 X107.758 Y80.496 E30.94993
G1 X107.655 Y80.561 E30.956
G1 X107.333 Y80.775 E30.97529
G1 X107.22 Y80.863 E30.98244
G1 X106.94 Y81.095 E31.00058
G1 X106.822 Y81.209 E31.00876
G1 X106.586 Y81.449 E31.02556
G1 X106.466 Y81.591 E31.03483
G1 X106.241 Y81.875 E31.05291
G1 X106.133 Y82.037 E31.06262
G1 X105.949 Y82.337 E31.08018
G1 X105.782 Y82.663 E31.09845
G1 X105.635 Y83.01 E31.11726
G1 X105.535 Y83.325 E31.13374
G1 X105.442 Y83.675 E31.15181
G1 X105.377 Y84.053 E31.17095
G1 X105.343 Y84.443 E31.19048
G1 X105.344 Y84.844 E31.21048
G1 X105.36 Y85.086 E31.22258
G1 X105.396 Y85.378 E31.23726
G1 X105.434 Y85.581 E31.24757
G1 X105.502 Y85.878 E31.26277
G1 X105.531 Y85.974 E31.26777
G1 X105.641 Y86.299 E31.28489
G1 X105.688 Y86.418 E31.29127
G1 X105.85 Y86.771 E31.31065
G1 X105.991 Y87.011 E31.32454
G1 X106.057 Y87.15 E31.33221
G1 X106.289 Y87.529 E31.35438
G1 X106.564 Y87.891 E31.37706
G1 X106.873 Y88.223 E31.39969
G1 X107.216 Y88.524 E31.42246
G1 X107.588 Y88.787 E31.44519
G1 X107.983 Y89.012 E31.46787
G1 X108.397 Y89.194 E31.49043
G1 X108.604 Y89.263 E31.50131
G1 X108.887 Y89.349 E31.51607
G1 X109.376 Y89.444 E31.54092
G1 X109.866 Y89.484 E31.56545
G0 F6000 X109.878 Y89.084
;TYPE:WALL-OUTER
G1 F1200 X110.316 Y89.074 E31.58731
G1 X110.558 Y89.051 E31.59944
G1 X110.995 Y88.967 E31.62164
G1 X111.285 Y88.88 E31.63674
G1 X111.413 Y88.839 E31.64345
G1 X111.714 Y88.712 E31.65975
G1 X111.8 Y88.672 E31.66448
G1 X112.113 Y88.501 E31.68227
G1 X112.469 Y88.277 E31.70326
G1 X112.811 Y88.038 E31.72407
G1 X112.839 Y88.011 E31.72601
G1 X113.124 Y87.765 E31.7448
G1 X113.415 Y87.458 E31.7659
G1 X113.676 Y87.119 E31.78724
G1 X113.902 Y86.751 E31.80879
G1 X114.091 Y86.361 E31.83041
G1 X114.241 Y85.951 E31.85219
G1 X114.333 Y85.599 E31.87034
G1 X114.394 Y85.238 E31.88861
G1 X114.425 Y84.91 E31.90505
G1 X114.434 Y84.548 E31.92311
G1 X114.41 Y84.175 E31.94176
G1 X114.35 Y83.799 E31.96076
G1 X114.258 Y83.42 E31.98021
G1 X114.178 Y83.168 E31.9934
G1 X114.085 Y82.923 E32.00648
G1 X114.036 Y82.806 E32.01281
G1 X113.857 Y82.45 E32.03269
G1 X113.638 Y82.099 E32.05333
G1 X113.583 Y82.017 E32.05825
G1 X113.367 Y81.744 E32.07562
G1 X113.271 Y81.628 E32.08313
G1 X112.97 Y81.319 E32.10465
G1 X112.597 Y81.006 E32.12895
G1 X112.354 Y80.841 E32.1436
G1 X112.179 Y80.74 E32.15368
G1 X111.722 Y80.535 E32.17867
G1 X111.247 Y80.381 E32.20358
G1 X111.034 Y80.333 E32.21447
G1 X110.756 Y80.274 E32.22865
G1 X110.259 Y80.222 E32.25358
G1 X109.943 Y80.221 E32.26935
G1 X109.741 Y80.237 E32.27946
G1 X109.275 Y80.32 E32.30307
G1 X108.82 Y80.449 E32.32667
G1 X108.764 Y80.469 E32.32963
G1 X108.378 Y80.625 E32.35041
G1 X108.305 Y80.661 E32.35447
G1 X107.958 Y80.843 E32.37401
G1 X107.873 Y80.897 E32.37904
G1 X107.567 Y81.1 E32.39736
G1 X107.471 Y81.175 E32.40344
G1 X107.207 Y81.393 E32.42052
G1 X107.104 Y81.493 E32.42768
G1 X106.882 Y81.719 E32.44349
G1 X106.776 Y81.844 E32.45166
G1 X106.565 Y82.111 E32.46864
G1 X106.47 Y82.253 E32.47716
G1 X106.298 Y82.533 E32.49356
G1 X106.145 Y82.832 E32.51031
G1 X106.011 Y83.149 E32.52748
G1 X105.919 Y83.437 E32.54257
G1 X105.833 Y83.76 E32.55924
G1 X105.774 Y84.104 E32.57666
G1 X105.743 Y84.46 E32.59449
G1 X105.744 Y84.831 E32.61299
G1 X105.758 Y85.049 E32.62389
G1 X105.791 Y85.316 E32.63732
G1 X105.826 Y85.499 E32.64661
G1 X105.889 Y85.776 E32.66078
G1 X105.912 Y85.853 E32.66479
G1 X106.016 Y86.16 E32.68096
G1 X106.056 Y86.26 E32.68634
G1 X106.205 Y86.586 E32.70422
G1 X106.342 Y86.819 E32.7177
G1 X106.409 Y86.958 E32.7254
G1 X106.62 Y87.303 E32.74558
G1 X106.871 Y87.633 E32.76626
G1 X107.152 Y87.936 E32.78688
G1 X107.464 Y88.209 E32.80756
G1 X107.803 Y88.449 E32.82829
G1 X108.163 Y88.654 E32.84895
G1 X108.541 Y88.82 E32.86955
G1 X108.726 Y88.882 E32.87929
G1 X108.983 Y88.96 E32.89268
G1 X109.431 Y89.047 E32.91545
G1 X109.878 Y89.084 E32.93783
G0 F6000 X110.078 Y89.08
G0 X110.087 Y89.52
G1 F1500 E26.43783
G0 F6000 X109.866 Y139.711
G0 X109.866 Y139.484
;TYPE:WALL-INNER
G1 F1500 E32.93783
G1 F1200 X110.34 Y139.474 E32.96148
G1 X110.615 Y139.447 E32.97527
G1 X111.09 Y139.356 E32.9994
G1 X111.403 Y139.262 E33.0157
G1 X111.552 Y139.214 E33.02351
G1 X111.876 Y139.078 E33.04104
G1 X111.98 Y139.029 E33.04678
G1 X112.316 Y138.846 E33.06587
G1 X112.69 Y138.61 E33.08793
G1 X113.066 Y138.348 E33.11079
G1 X113.117 Y138.299 E33.11432
G1 X113.401 Y138.055 E33.133
G1 X113.719 Y137.718 E33.15612
G1 X114.006 Y137.346 E33.17956
G1 X114.253 Y136.943 E33.20314
G1 X114.46 Y136.517 E33.22677
G1 X114.623 Y136.071 E33.25046
G1 X114.724 Y135.683 E33.27046
G1 X114.791 Y135.29 E33.29035
G1 X114.825 Y134.934 E33.3082
G1 X114.834 Y134.54 E33.32786
G1 X114.808 Y134.131 E33.3483
G1 X114.742 Y133.72 E33.36907
G1 X114.643 Y133.312 E33.39002
G1 X114.556 Y133.036 E33.40445
G1 X114.457 Y132.775 E33.41838
G1 X114.4 Y132.639 E33.42574
G1 X114.206 Y132.254 E33.44725
G1 X113.974 Y131.882 E33.46912
G1 X113.906 Y131.781 E33.47519
G1 X113.678 Y131.492 E33.49356
G1 X113.569 Y131.36 E33.5021
G1 X113.243 Y131.026 E33.52538
G1 X112.839 Y130.687 E33.5517
G1 X112.567 Y130.502 E33.56811
G1 X112.361 Y130.383 E33.57998
G1 X111.866 Y130.161 E33.60704
G1 X111.353 Y129.995 E33.63394
G1 X111.119 Y129.942 E33.64591
G1 X110.819 Y129.878 E33.66122
G1 X110.28 Y129.822 E33.68825
G1 X109.928 Y129.821 E33.70581
G1 X109.69 Y129.84 E33.71772
G1 X109.185 Y129.93 E33.74332
G1 X108.698 Y130.068 E33.76857
G1 X108.622 Y130.095 E33.77259
G1 X108.214 Y130.26 E33.79455
G1 X108.124 Y130.304 E33.79955
G1 X107.758 Y130.496 E33.82017
G1 X107.655 Y130.561 E33.82624
G1 X107.333 Y130.775 E33.84553
G1 X107.22 Y130.863 E33.85268
G1 X106.94 Y131.095 E33.87082
G1 X106.822 Y131.209 E33.87901
G1 X106.586 Y131.449 E33.8958
G1 X106.466 Y131.591 E33.90507
G1 X106.241 Y131.875 E33.92315
G1 X106.133 Y132.037 E33.93286
G1 X105.949 Y132.337 E33.95042
G1 X105.782 Y132.663 E33.9687
G1 X105.635 Y133.01 E33.9875
G1 X105.535 Y133.325 E34.00398
G1 X105.442 Y133.675 E34.02205
G1 X105.377 Y134.053 E34.04119
G1 X105.343 Y134.443 E34.06072
G1 X105.344 Y134.844 E34.08072
G1 X105.36 Y135.086 E34.09282
G1 X105.396 Y135.378 E34.1075
G1 X105.434 Y135.581 E34.11781
G1 X105.502 Y135.878 E34.13301
G1 X105.531 Y135.974 E34.13801
G1 X105.641 Y136.299 E34.15513
G1 X105.688 Y136.418 E34.16151
G1 X105.85 Y136.771 E34.18089
G1 X105.991 Y137.011 E34.19478
G1 X106.057 Y137.15 E34.20245
G1 X106.289 Y137.529 E34.22462
G1 X106.564 Y137.891 E34.2473
G1 X106.873 Y138.223 E34.26993
G1 X107.216 Y138.524 E34.2927
G1 X107.588 Y138.787 E34.31543
G1 X107.983 Y139.012 E34.33811
G1 X108.397 Y139.194 E34.36067
G1 X108.604 Y139.263 E34.37155
G1 X108.887 Y139.349 E34.38631
G1 X109.376 Y139.444 E34.41116
G1 X109.866 Y139.484 E34.43569
G0 F6000 X109.878 Y139.084
;TYPE:WALL-OUTER
G1 F1200 X110.316 Y139.074 E34.45755
G1 X110.558 Y139.051 E34.46968
G1 X110.995 Y138.967 E34.49188
G1 X111.285 Y138.88 E34.50698
G1 X111.413 Y138.839 E34.51369
G1 X111.714 Y138.712 E34.52999
G1 X111.8 Y138.672 E34.53472
G1 X112.113 Y138.501 E34.55251
G1 X112.469 Y138.277 E34.5735
G1 X112.811 Y138.038 E34.59431
G1 X112.839 Y138.011 E34.59625
G1 X113.124 Y137.765 E34.61504
G1 X113.415 Y137.458 E34.63614
G1 X113.676 Y137.119 E34.65748
G1 X113.902 Y136.751 E34.67903
G1 X114.091 Y136.361 E34.70065
G1 X114.241 Y135.951 E34.72243
G1 X114.333 Y135.599 E34.74058
G1 X114.394 Y135.238 E34.75885
G1 X114.425 Y134.91 E34.77529
G1 X114.434 Y134.548 E34.79335
G1 X114.41 Y134.175 E34.812
G1 X114.35 Y133.799 E34.831
G1 X114.258 Y133.42 E34.85045
G1 X114.178 Y133.168 E34.86364
G1 X114.085 Y132.923 E34.87672
G1 X114.036 Y132.806 E34.88305
G1 X113.857 Y132.45 E34.90293
G1 X113.638 Y132.099 E34.92357
G1 X113.583 Y132.017 E34.92849
G1 X113.367 Y131.744 E34.94586
G1 X113.271 Y131.628 E34.95337
G1 X112.97 Y131.319 E34.97489
G1 X112.597 Y131.006 E34.99919
G1 X112.354 Y130.841 E35.01384
G1 X112.179 Y130.74 E35.02392
G1 X111.722 Y130.535 E35.04891
G1 X111.247 Y130.381 E35.07382
G1 X111.034 Y130.333 E35.08472
G1 X110.756 Y130.274 E35.09889
G1 X110.259 Y130.222 E35.12382
G1 X109.943 Y130.221 E35.13959
G1 X109.741 Y130.237 E35.1497
G1 X109.275 Y130.32 E35.17331
G1 X108.82 Y130.449 E35.19691
G1 X108.764 Y130.469 E35.19988
G1 X108.378 Y130.625 E35.22065
G1 X108.305 Y130.661 E35.22471
G1 X107.958 Y130.843 E35.24426
G1 X107.873 Y130.897 E35.24928
G1 X107.567 Y131.1 E35.2676
G1 X107.471 Y131.175 E35.27368
G1 X107.207 Y131.393 E35.29076
G1 X107.104 Y131.493 E35.29792
G1 X106.882 Y131.719 E35.31373
G1 X106.776 Y131.844 E35.3219
G1 X106.565 Y132.111 E35.33888
G1 X106.47 Y132.253 E35.3474
G1 X106.298 Y132.533 E35.3638
G1 X106.145 Y132.832 E35.38056
G1 X106.011 Y133.149 E35.39773
G1 X105.919 Y133.437 E35.41281
G1 X105.833 Y133.76 E35.42949
G1 X105.774 Y134.104 E35.4469
G1 X105.743 Y134.46 E35.46473
G1 X105.744 Y134.831 E35.48324
G1 X105.758 Y135.049 E35.49413
G1 X105.791 Y135.316 E35.50756
G1 X105.826 Y135.499 E35.51685
G1 X105.889 Y135.776 E35.53102
G1 X105.912 Y135.853 E35.53503
G1 X106.016 Y136.16 E35.5512
G1 X106.056 Y136.26 E35.55658
G1 X106.205 Y136.586 E35.57446
G1 X106.342 Y136.819 E35.58795
G1 X106.409 Y136.958 E35.59564
G1 X106.62 Y137.303 E35.61582
G1 X106.871 Y137.633 E35.6365
G1 X107.152 Y137.936 E35.65712
G1 X107.464 Y138.209 E35.6778
G1 X107.803 Y138.449 E35.69853
G1 X108.163 Y138.654 E35.7192
G1 X108.541 Y138.82 E35.73979
G1 X108.726 Y138.882 E35.74953
