;FLAVOR:Marlin
;TIME:661
;Filament used: 0.214135m
;Layer height: 0.2
;MINX:100.762
;MINY:100.711
;MINZ:0.3
;MAXX:119.238
;MAXY:119.289
;MAXZ:11.3
;Generated with Cura_SteamEngine 4.8.0
M140 S60
M105
M190 S60
M104 S200
M105
M109 S200
M82 ;absolute extrusion mode
G21 
G90
M107
G28 X0 Y0
G28 Z0
G1 Z15.0 F{travel_xy_speed}
G29
G92 E0
G1 F200 E10
G92 E0
G1 F{travel_xy_speed}
M117 Printing...
G92 E0
G92 E0
G1 F1500 E-6.5
;LAYER_COUNT:56
;LAYER:0
M107
M204 S1000
G0 F6000 X103.453 Y103.411 Z0.3
;TYPE:SKIRT
G1 F1500 E0
G1 F1200 X103.66 Y103.212 E0.01433
G1 X103.896 Y103 E0.03015
G1 X104.111 Y102.819 E0.04417
G1 X104.454 Y102.549 E0.06595
G1 X104.696 Y102.375 E0.08082
G1 X104.92 Y102.224 E0.0943
G1 X105.157 Y102.074 E0.10829
G1 X105.526 Y101.86 E0.12957
G1 X105.698 Y101.767 E0.13933
G1 X106.035 Y101.601 E0.15807
G1 X106.443 Y101.42 E0.18034
G1 X106.761 Y101.293 E0.19742
G1 X107.084 Y101.181 E0.21448
G1 X107.386 Y101.087 E0.23026
G1 X107.683 Y101.005 E0.24563
G1 X107.939 Y100.943 E0.25877
G1 X108.235 Y100.881 E0.27386
G1 X108.541 Y100.827 E0.28936
G1 X108.823 Y100.786 E0.30358
G1 X109.275 Y100.739 E0.32625
G1 X109.502 Y100.724 E0.3376
G1 X109.766 Y100.714 E0.35078
G1 X110.042 Y100.711 E0.36455
G1 X110.352 Y100.718 E0.38002
G1 X110.612 Y100.732 E0.39301
G1 X111.063 Y100.772 E0.4156
G1 X111.469 Y100.827 E0.43604
G1 X111.794 Y100.887 E0.45253
G1 X112.195 Y100.975 E0.47301
G1 X112.547 Y101.066 E0.49115
G1 X112.75 Y101.127 E0.50173
G1 X112.999 Y101.209 E0.5148
G1 X113.312 Y101.322 E0.53141
G1 X113.573 Y101.425 E0.54541
G1 X113.83 Y101.54 E0.55945
G1 X114.219 Y101.726 E0.58096
G1 X114.572 Y101.913 E0.60089
G1 X114.841 Y102.073 E0.61651
G1 X115.02 Y102.185 E0.62704
G1 X115.265 Y102.349 E0.64175
G1 X115.535 Y102.542 E0.65831
G1 X115.777 Y102.727 E0.67351
G1 X115.972 Y102.886 E0.68606
G1 X116.309 Y103.182 E0.70844
G1 X116.512 Y103.376 E0.72245
G1 X116.806 Y103.677 E0.74344
G1 X116.874 Y103.75 E0.74841
G1 X117.153 Y104.078 E0.7699
G1 X117.49 Y104.512 E0.79731
G1 X117.699 Y104.803 E0.81519
G1 X117.853 Y105.041 E0.82933
G1 X118.089 Y105.434 E0.8522
G1 X118.198 Y105.631 E0.86343
G1 X118.354 Y105.938 E0.88061
G1 X118.492 Y106.236 E0.897
G1 X118.598 Y106.485 E0.9105
G1 X118.682 Y106.697 E0.92187
G1 X118.78 Y106.965 E0.93611
G1 X118.856 Y107.196 E0.94824
G1 X118.936 Y107.469 E0.96244
G1 X119.018 Y107.779 E0.97843
G1 X119.09 Y108.09 E0.99436
G1 X119.145 Y108.373 E1.00874
G1 X119.233 Y109.242 E1.05232
G1 X119.238 Y109.849 E1.0826
G1 X119.233 Y110.381 E1.10915
G1 X119.233 Y110.669 E1.12351
G1 X119.162 Y111.489 E1.16458
G1 X119.097 Y111.864 E1.18357
G1 X118.974 Y112.394 E1.21071
G1 X118.855 Y112.8 E1.23182
G1 X118.768 Y113.069 E1.24592
G1 X118.662 Y113.355 E1.26114
G1 X118.585 Y113.549 E1.27155
G1 X118.417 Y113.925 E1.2921
G1 X118.186 Y114.387 E1.31787
G1 X117.904 Y114.877 E1.34607
G1 X117.62 Y115.309 E1.37187
G1 X117.31 Y115.729 E1.39791
G1 X117.044 Y116.051 E1.41875
G1 X116.857 Y116.264 E1.43289
G1 X116.696 Y116.437 E1.44468
G1 X116.478 Y116.657 E1.46013
G1 X116.28 Y116.844 E1.47372
G1 X116.067 Y117.033 E1.48793
G1 X115.708 Y117.327 E1.51108
G1 X115.486 Y117.495 E1.52497
G1 X115.28 Y117.642 E1.53759
G1 X115.119 Y117.751 E1.54729
G1 X114.851 Y117.92 E1.5631
G1 X114.47 Y118.142 E1.5851
G1 X114.377 Y118.194 E1.59041
G1 X113.973 Y118.395 E1.61293
G1 X113.563 Y118.576 E1.63529
G1 X113.249 Y118.702 E1.65216
G1 X112.996 Y118.793 E1.66558
G1 X112.718 Y118.883 E1.68016
G1 X112.424 Y118.965 E1.69538
G1 X112.018 Y119.066 E1.71626
G1 X111.638 Y119.144 E1.73561
G1 X111.317 Y119.194 E1.75182
G1 X111.085 Y119.224 E1.76349
G1 X110.822 Y119.251 E1.77668
G1 X110.51 Y119.274 E1.79229
G1 X110.213 Y119.287 E1.80712
G1 X110.042 Y119.289 E1.81565
G1 X109.774 Y119.284 E1.82902
G1 X109.412 Y119.268 E1.8471
G1 X109.106 Y119.245 E1.86241
G1 X108.653 Y119.19 E1.88518
G1 X108.244 Y119.121 E1.90587
G1 X108.053 Y119.083 E1.91559
G1 X107.674 Y118.991 E1.93504
G1 X107.225 Y118.863 E1.95834
G1 X106.843 Y118.737 E1.97841
G1 X106.605 Y118.647 E1.9911
G1 X106.224 Y118.483 E2.01179
G1 X105.735 Y118.248 E2.03886
G1 X105.433 Y118.09 E2.05587
G1 X105.21 Y117.958 E2.06879
G1 X104.903 Y117.765 E2.08689
G1 X104.593 Y117.552 E2.10565
G1 X104.304 Y117.337 E2.12362
G1 X104.059 Y117.142 E2.13924
G1 X103.897 Y117.002 E2.14993
G1 X103.693 Y116.819 E2.1636
G1 X103.461 Y116.596 E2.17965
G1 X103.176 Y116.301 E2.20012
G1 X103.094 Y116.212 E2.20615
G1 X102.84 Y115.913 E2.22573
G1 X102.513 Y115.494 E2.25224
G1 X102.243 Y115.112 E2.27558
G1 X102.087 Y114.866 E2.29011
G1 X101.902 Y114.546 E2.30856
G1 X101.688 Y114.143 E2.33132
G1 X101.514 Y113.78 E2.3514
G1 X101.353 Y113.392 E2.37236
G1 X101.201 Y112.979 E2.39432
G1 X101.151 Y112.828 E2.40225
G1 X101.067 Y112.543 E2.41708
G1 X100.98 Y112.213 E2.4341
G1 X100.91 Y111.908 E2.44971
G1 X100.855 Y111.626 E2.46405
G1 X100.766 Y110.742 E2.50837
G1 X100.762 Y110.107 E2.54006
G1 X100.767 Y109.607 E2.565
G1 X100.767 Y109.317 E2.57947
G1 X100.835 Y108.51 E2.61987
G1 X100.887 Y108.205 E2.63531
G1 X100.966 Y107.833 E2.65428
G1 X101.056 Y107.495 E2.67173
G1 X101.141 Y107.209 E2.68662
G1 X101.247 Y106.893 E2.70325
G1 X101.375 Y106.551 E2.72147
G1 X101.53 Y106.183 E2.74139
G1 X101.614 Y106.008 E2.75107
G1 X101.767 Y105.7 E2.76823
G1 X101.927 Y105.404 E2.78502
G1 X102.141 Y105.049 E2.8057
G1 X102.291 Y104.818 E2.81944
G1 X102.44 Y104.6 E2.83261
G1 X102.687 Y104.276 E2.85294
G1 X103.039 Y103.853 E2.88039
G1 X103.302 Y103.562 E2.89996
G1 X103.453 Y103.411 E2.91061
G0 F6000 X103.731 Y103.699
G1 F1200 X103.938 Y103.5 E2.92494
G1 X104.153 Y103.306 E2.93939
G1 X104.368 Y103.125 E2.95341
G1 X104.698 Y102.866 E2.97434
G1 X104.92 Y102.707 E2.98796
G1 X105.144 Y102.556 E3.00144
G1 X105.361 Y102.418 E3.01427
G1 X105.716 Y102.212 E3.03475
G1 X105.888 Y102.119 E3.0445
G1 X106.197 Y101.967 E3.06168
G1 X106.605 Y101.786 E3.08395
G1 X106.896 Y101.669 E3.0996
G1 X107.203 Y101.563 E3.1158
G1 X107.505 Y101.469 E3.13158
G1 X107.777 Y101.394 E3.14566
G1 X108.033 Y101.332 E3.1588
G1 X108.304 Y101.275 E3.17261
G1 X108.61 Y101.221 E3.18812
G1 X108.869 Y101.183 E3.20118
G1 X109.301 Y101.139 E3.22284
G1 X109.77 Y101.114 E3.24627
G1 X110.046 Y101.111 E3.26004
G1 X110.331 Y101.117 E3.27426
G1 X110.591 Y101.131 E3.28725
G1 X111.023 Y101.17 E3.3089
G1 X111.411 Y101.223 E3.32843
G1 X111.708 Y101.277 E3.34349
G1 X112.109 Y101.365 E3.36397
G1 X112.432 Y101.449 E3.38063
G1 X112.863 Y101.585 E3.40317
G1 X113.176 Y101.698 E3.41977
G1 X113.415 Y101.793 E3.43261
G1 X113.657 Y101.9 E3.44581
G1 X114.046 Y102.086 E3.46732
G1 X114.37 Y102.258 E3.48562
G1 X114.629 Y102.412 E3.50065
G1 X114.808 Y102.524 E3.51119
G1 X115.033 Y102.674 E3.52468
G1 X115.303 Y102.867 E3.54124
G1 X115.525 Y103.037 E3.55519
G1 X115.72 Y103.196 E3.56774
G1 X116.041 Y103.479 E3.58909
G1 X116.227 Y103.657 E3.60193
G1 X116.514 Y103.95 E3.6224
G1 X116.582 Y104.023 E3.62737
G1 X116.837 Y104.323 E3.64702
G1 X117.174 Y104.757 E3.67443
G1 X117.366 Y105.024 E3.69084
G1 X117.512 Y105.25 E3.70426
G1 X117.739 Y105.628 E3.72626
G1 X117.848 Y105.825 E3.73749
G1 X117.991 Y106.106 E3.75322
G1 X118.129 Y106.404 E3.7696
G1 X118.311 Y106.844 E3.79336
G1 X118.4 Y107.09 E3.80641
G1 X118.476 Y107.321 E3.81854
G1 X118.55 Y107.571 E3.83155
G1 X118.632 Y107.881 E3.84755
G1 X118.697 Y108.167 E3.86218
G1 X118.752 Y108.45 E3.87656
G1 X118.833 Y109.246 E3.91648
G1 X118.838 Y109.845 E3.94637
G1 X118.833 Y110.377 E3.97291
G1 X118.833 Y110.669 E3.98748
G1 X118.768 Y111.42 E4.02509
G1 X118.703 Y111.795 E4.04407
G1 X118.59 Y112.282 E4.06902
G1 X118.471 Y112.688 E4.09012
G1 X118.391 Y112.934 E4.10303
G1 X118.291 Y113.207 E4.11753
G1 X118.214 Y113.401 E4.12795
G1 X118.059 Y113.746 E4.14682
G1 X117.828 Y114.208 E4.17259
G1 X117.57 Y114.657 E4.19842
G1 X117.286 Y115.089 E4.22421
G1 X117.001 Y115.474 E4.24811
G1 X116.735 Y115.796 E4.26895
G1 X116.564 Y115.992 E4.28193
G1 X116.403 Y116.165 E4.29372
G1 X116.203 Y116.366 E4.30786
G1 X116.005 Y116.553 E4.32145
G1 X115.81 Y116.726 E4.33446
G1 X115.466 Y117.008 E4.35665
G1 X115.244 Y117.176 E4.37054
G1 X114.895 Y117.42 E4.39178
G1 X114.649 Y117.574 E4.40626
G1 X114.274 Y117.792 E4.4279
G1 X114.181 Y117.844 E4.43322
G1 X113.811 Y118.029 E4.45386
G1 X113.401 Y118.21 E4.47622
G1 X113.113 Y118.325 E4.49169
G1 X112.86 Y118.416 E4.5051
G1 X112.606 Y118.499 E4.51843
G1 X112.327 Y118.577 E4.53289
G1 X111.921 Y118.678 E4.55376
G1 X111.573 Y118.75 E4.57149
G1 X111.265 Y118.798 E4.58704
G1 X110.792 Y118.852 E4.61079
G1 X110.48 Y118.875 E4.6264
G1 X110.208 Y118.887 E4.63998
G1 X109.792 Y118.885 E4.66074
G1 X109.43 Y118.869 E4.67882
G1 X109.149 Y118.847 E4.69288
G1 X108.716 Y118.795 E4.71464
G1 X108.322 Y118.728 E4.73457
G1 X108.131 Y118.69 E4.74429
G1 X107.784 Y118.606 E4.7621
G1 X107.335 Y118.478 E4.78539
G1 X106.985 Y118.363 E4.80377
G1 X106.747 Y118.273 E4.81647
G1 X106.397 Y118.123 E4.83547
G1 X105.908 Y117.888 E4.86253
G1 X105.631 Y117.742 E4.87816
G1 X105.423 Y117.619 E4.89021
G1 X105.116 Y117.426 E4.9083
G1 X104.832 Y117.231 E4.92549
G1 X104.543 Y117.016 E4.94346
G1 X104.318 Y116.837 E4.95781
G1 X104.164 Y116.704 E4.96796
G1 X103.96 Y116.521 E4.98163
G1 X103.747 Y116.317 E4.99634
G1 X103.47 Y116.03 E5.01624
G1 X103.388 Y115.941 E5.02228
G1 X103.155 Y115.667 E5.04023
G1 X102.828 Y115.248 E5.06674
G1 X102.581 Y114.897 E5.08815
G1 X102.425 Y114.651 E5.10269
G1 X102.255 Y114.359 E5.11954
G1 X102.041 Y113.956 E5.14231
G1 X101.882 Y113.623 E5.16072
G1 X101.727 Y113.251 E5.18082
G1 X101.581 Y112.853 E5.20197
G1 X101.531 Y112.702 E5.20991
G1 X101.453 Y112.441 E5.2235
G1 X101.366 Y112.111 E5.24053
G1 X101.302 Y111.831 E5.25486
G1 X101.247 Y111.549 E5.26919
G1 X101.166 Y110.739 E5.3098
G1 X101.162 Y110.111 E5.34114
G1 X101.167 Y109.611 E5.36608
G1 X101.167 Y109.317 E5.38075
G1 X101.23 Y108.578 E5.41775
G1 X101.282 Y108.273 E5.43319
G1 X101.354 Y107.931 E5.45062
G1 X101.439 Y107.608 E5.46729
G1 X101.524 Y107.322 E5.48217
G1 X101.621 Y107.034 E5.49733
G1 X101.749 Y106.692 E5.51555
G1 X101.892 Y106.354 E5.53386
G1 X101.972 Y106.186 E5.54315
G1 X102.125 Y105.878 E5.5603
G1 X102.272 Y105.607 E5.57569
G1 X102.477 Y105.267 E5.59549
G1 X102.708 Y104.914 E5.61654
G1 X102.768 Y104.828 E5.62177
G1 X102.995 Y104.532 E5.64038
G1 X103.347 Y104.109 E5.66784
G1 X103.588 Y103.842 E5.68578
G1 X103.731 Y103.699 E5.69587
G0 F6000 X104.008 Y103.987
G1 F1200 X104.215 Y103.788 E5.7102
G1 X104.411 Y103.612 E5.72334
G1 X104.626 Y103.431 E5.73736
G1 X104.942 Y103.183 E5.7574
G1 X105.143 Y103.038 E5.76976
G1 X105.367 Y102.887 E5.78324
G1 X105.771 Y102.64 E5.80687
G1 X106.079 Y102.47 E5.82442
G1 X106.359 Y102.333 E5.83997
G1 X106.767 Y102.152 E5.86224
G1 X107.032 Y102.045 E5.8765
G1 X107.322 Y101.945 E5.8918
G1 X107.624 Y101.851 E5.90758
G1 X107.871 Y101.782 E5.92037
G1 X108.127 Y101.72 E5.93352
G1 X108.374 Y101.669 E5.9461
G1 X108.68 Y101.615 E5.9616
G1 X109.131 Y101.556 E5.98429
G1 X109.554 Y101.523 E6.00546
G1 X109.775 Y101.514 E6.0165
G1 X110.051 Y101.511 E6.03027
G1 X110.309 Y101.517 E6.04314
G1 X110.569 Y101.531 E6.05613
G1 X110.983 Y101.568 E6.07687
G1 X111.352 Y101.618 E6.09545
G1 X111.622 Y101.668 E6.10915
G1 X112.023 Y101.756 E6.12963
G1 X112.317 Y101.832 E6.14478
G1 X112.727 Y101.962 E6.16624
G1 X113.04 Y102.075 E6.18284
G1 X113.335 Y102.193 E6.19869
G1 X113.484 Y102.261 E6.20686
G1 X113.873 Y102.447 E6.22837
G1 X114.168 Y102.603 E6.24502
G1 X114.417 Y102.751 E6.25947
G1 X114.8 Y103 E6.28226
G1 X115.07 Y103.193 E6.29882
G1 X115.272 Y103.347 E6.31149
G1 X115.467 Y103.506 E6.32405
G1 X115.773 Y103.776 E6.34441
G1 X115.942 Y103.938 E6.35609
G1 X116.221 Y104.223 E6.37598
G1 X116.289 Y104.296 E6.38096
G1 X116.521 Y104.569 E6.39883
G1 X116.858 Y105.003 E6.42625
G1 X117.033 Y105.245 E6.44115
G1 X117.171 Y105.459 E6.45385
G1 X117.389 Y105.821 E6.47493
G1 X117.498 Y106.018 E6.48617
G1 X117.628 Y106.274 E6.50049
G1 X117.766 Y106.572 E6.51687
G1 X117.939 Y106.992 E6.53954
G1 X118.096 Y107.446 E6.5635
G1 X118.163 Y107.673 E6.57531
G1 X118.245 Y107.983 E6.59131
G1 X118.305 Y108.243 E6.60462
G1 X118.36 Y108.526 E6.619
G1 X118.433 Y109.25 E6.65531
G1 X118.438 Y109.842 E6.68484
G1 X118.433 Y110.374 E6.71139
G1 X118.433 Y110.669 E6.7261
G1 X118.374 Y111.352 E6.76031
G1 X118.309 Y111.727 E6.77929
G1 X118.207 Y112.169 E6.80192
G1 X118.088 Y112.575 E6.82303
G1 X117.967 Y112.933 E6.84189
G1 X117.842 Y113.254 E6.85907
G1 X117.702 Y113.567 E6.87618
G1 X117.471 Y114.029 E6.90195
G1 X117.235 Y114.437 E6.92546
G1 X116.951 Y114.869 E6.95126
G1 X116.693 Y115.22 E6.97299
G1 X116.427 Y115.542 E6.99383
G1 X116.11 Y115.892 E7.01739
G1 X115.928 Y116.075 E7.03026
G1 X115.73 Y116.262 E7.04385
G1 X115.38 Y116.565 E7.06695
G1 X115.225 Y116.689 E7.07685
G1 X115.003 Y116.857 E7.09074
G1 X114.67 Y117.088 E7.11096
G1 X114.447 Y117.229 E7.12412
G1 X114.079 Y117.443 E7.14536
G1 X113.986 Y117.495 E7.15067
G1 X113.649 Y117.663 E7.16946
G1 X113.239 Y117.844 E7.19182
G1 X112.978 Y117.949 E7.20586
G1 X112.725 Y118.04 E7.21927
G1 X112.388 Y118.146 E7.23689
G1 X112.231 Y118.189 E7.24502
G1 X111.825 Y118.29 E7.26589
G1 X111.508 Y118.355 E7.28203
G1 X111.214 Y118.401 E7.29688
G1 X110.763 Y118.453 E7.31953
G1 X110.451 Y118.476 E7.33514
G1 X110.033 Y118.489 E7.356
G1 X109.809 Y118.485 E7.36718
G1 X109.447 Y118.469 E7.38526
G1 X109.193 Y118.45 E7.39796
G1 X108.779 Y118.4 E7.41877
G1 X108.4 Y118.336 E7.43794
G1 X108.209 Y118.298 E7.44766
G1 X107.893 Y118.222 E7.46387
G1 X107.444 Y118.094 E7.48717
G1 X107.126 Y117.988 E7.50389
G1 X106.888 Y117.898 E7.51659
G1 X106.57 Y117.762 E7.53384
G1 X106.081 Y117.527 E7.56091
G1 X105.829 Y117.395 E7.5751
G1 X105.636 Y117.28 E7.58631
G1 X105.329 Y117.087 E7.6044
G1 X105.07 Y116.91 E7.62005
G1 X104.781 Y116.695 E7.63802
G1 X104.577 Y116.533 E7.65102
G1 X104.431 Y116.407 E7.66064
G1 X104.227 Y116.224 E7.67431
G1 X104.033 Y116.038 E7.68772
G1 X103.841 Y115.841 E7.70145
G1 X103.682 Y115.67 E7.71309
G1 X103.471 Y115.421 E7.72938
G1 X103.144 Y115.002 E7.75589
G1 X102.919 Y114.683 E7.77537
G1 X102.763 Y114.437 E7.7899
G1 X102.608 Y114.171 E7.80526
G1 X102.394 Y113.768 E7.82803
G1 X102.249 Y113.465 E7.84478
G1 X102.101 Y113.11 E7.86397
G1 X101.961 Y112.727 E7.88432
G1 X101.84 Y112.339 E7.90459
G1 X101.753 Y112.009 E7.92162
G1 X101.695 Y111.755 E7.93462
G1 X101.64 Y111.473 E7.94895
G1 X101.566 Y110.736 E7.98591
G1 X101.562 Y110.115 E8.01689
G1 X101.567 Y109.615 E8.04184
G1 X101.567 Y109.317 E8.0567
G1 X101.624 Y108.645 E8.09035
G1 X101.676 Y108.34 E8.10579
G1 X101.741 Y108.03 E8.12159
G1 X101.823 Y107.722 E8.13749
G1 X101.908 Y107.436 E8.15238
G1 X101.996 Y107.174 E8.16616
G1 X102.124 Y106.832 E8.18438
G1 X102.253 Y106.525 E8.201
G1 X102.331 Y106.363 E8.20997
G1 X102.484 Y106.055 E8.22712
G1 X102.617 Y105.81 E8.24103
G1 X102.812 Y105.485 E8.25994
G1 X103.036 Y105.143 E8.28034
G1 X103.096 Y105.057 E8.28557
G1 X103.302 Y104.787 E8.30251
G1 X103.654 Y104.364 E8.32997
G1 X103.873 Y104.122 E8.34625
G1 X104.008 Y103.987 E8.35578
G0 F6000 X104.285 Y104.276
G1 F1200 X104.492 Y104.077 E8.3701
G1 X104.669 Y103.918 E8.38197
G1 X104.884 Y103.737 E8.39599
G1 X105.186 Y103.5 E8.41514
G1 X105.367 Y103.37 E8.42626
G1 X105.591 Y103.219 E8.43974
G1 X105.975 Y102.984 E8.4622
G1 X106.269 Y102.822 E8.47895
G1 X106.521 Y102.698 E8.49296
G1 X106.929 Y102.517 E8.51523
G1 X107.168 Y102.422 E8.52806
G1 X107.441 Y102.327 E8.54248
G1 X107.743 Y102.233 E8.55826
G1 X107.966 Y102.171 E8.56981
G1 X108.222 Y102.109 E8.58295
G1 X108.443 Y102.063 E8.59421
G1 X108.749 Y102.009 E8.60971
G1 X109.177 Y101.953 E8.63125
G1 X109.581 Y101.922 E8.65146
G1 X109.779 Y101.914 E8.66135
G1 X110.055 Y101.911 E8.67512
G1 X110.288 Y101.916 E8.68675
G1 X110.548 Y101.93 E8.69974
G1 X110.943 Y101.966 E8.71953
G1 X111.293 Y102.014 E8.73715
G1 X111.537 Y102.059 E8.74953
G1 X111.938 Y102.147 E8.77001
G1 X112.202 Y102.215 E8.78361
G1 X112.591 Y102.338 E8.80397
G1 X112.904 Y102.451 E8.82057
G1 X113.177 Y102.561 E8.83525
G1 X113.312 Y102.622 E8.84264
G1 X113.701 Y102.808 E8.86416
G1 X113.966 Y102.949 E8.87913
G1 X114.205 Y103.09 E8.89298
G1 X114.567 Y103.325 E8.91451
G1 X114.837 Y103.518 E8.93107
G1 X115.019 Y103.657 E8.94249
G1 X115.214 Y103.816 E8.95504
G1 X115.505 Y104.073 E8.97441
G1 X115.657 Y104.218 E8.98489
