;FLAVOR:Marlin
;TIME:271
;Filament used: 0.0749776m
;Layer height: 0.2
;MINX:99.478
;MINY:99.456
;MINZ:0.3
;MAXX:120.515
;MAXY:120.555
;MAXZ:3.9
;Generated with Cura_SteamEngine 4.8.0
M140 S60
M105
M190 S60
M104 S200
M105
M109 S200
M82 ;absolute extrusion mode
G21 
G90
M107
G28 X0 Y0
G28 Z0
G1 Z15.0 F{travel_xy_speed}
G29
G92 E0
G1 F200 E10
G92 E0
G1 F{travel_xy_speed}
M117 Printing...
G92 E0
G92 E0
G1 F1500 E-6.5
;LAYER_COUNT:19
;LAYER:0
M107
M204 S1000
G0 F6000 X102.4 Y102.589 Z0.3
;TYPE:SKIRT
G1 F1500 E0
G1 F1200 X102.539 Y102.46 E0.00946
G1 X103.071 Y102.032 E0.04353
G1 X103.987 Y101.398 E0.0991
G1 X104.9 Y100.772 E0.15433
G1 X105.621 Y100.362 E0.19571
G1 X105.909 Y100.23 E0.21152
G1 X106.475 Y100.013 E0.24176
G1 X106.737 Y99.931 E0.25546
G1 X107.567 Y99.75 E0.29784
G1 X108.417 Y99.643 E0.34058
G1 X109.8 Y99.481 E0.41005
G1 X110.636 Y99.456 E0.45178
G1 X110.998 Y99.477 E0.46987
G1 X111.709 Y99.572 E0.50565
G1 X111.88 Y99.608 E0.51437
G1 X112.581 Y99.813 E0.55081
G1 X113.58 Y100.188 E0.60405
G1 X114.709 Y100.621 E0.66437
G1 X115.451 Y100.982 E0.70554
G1 X115.667 Y101.111 E0.71809
G1 X116.151 Y101.441 E0.74732
G1 X116.402 Y101.636 E0.76317
G1 X117.03 Y102.222 E0.80603
G1 X117.422 Y102.659 E0.83532
G1 X118.148 Y103.491 E0.89041
G1 X118.512 Y103.898 E0.91765
G1 X118.894 Y104.385 E0.94853
G1 X119.074 Y104.669 E0.9653
G1 X119.206 Y104.894 E0.97832
G1 X119.433 Y105.33 E1.00284
G1 X119.538 Y105.56 E1.01545
G1 X119.823 Y106.37 E1.05829
G1 X120.035 Y107.204 E1.10122
G1 X120.06 Y107.337 E1.10798
G1 X120.362 Y108.562 E1.17092
G1 X120.491 Y109.392 E1.21283
G1 X120.515 Y109.752 E1.23083
G1 X120.51 Y110.465 E1.2664
G1 X120.495 Y110.647 E1.27551
G1 X120.372 Y111.399 E1.31353
G1 X120.067 Y112.637 E1.37714
G1 X120.02 Y112.818 E1.38647
G1 X119.833 Y113.581 E1.42566
G1 X119.558 Y114.385 E1.46805
G1 X119.424 Y114.687 E1.48454
G1 X119.1 Y115.295 E1.51891
G1 X119 Y115.454 E1.52828
G1 X118.52 Y116.093 E1.56815
G1 X117.741 Y116.967 E1.62656
G1 X117.092 Y117.706 E1.67563
G1 X116.457 Y118.312 E1.71942
G1 X116.113 Y118.585 E1.74133
G1 X115.409 Y119.049 E1.7834
G1 X115.283 Y119.117 E1.79054
G1 X114.71 Y119.379 E1.82197
G1 X113.431 Y119.865 E1.89024
G1 X112.643 Y120.163 E1.93227
G1 X111.824 Y120.394 E1.97472
G1 X111.414 Y120.471 E1.99553
G1 X110.625 Y120.552 E2.0351
G1 X110.477 Y120.555 E2.04249
G1 X109.826 Y120.524 E2.075
G1 X109.006 Y120.428 E2.11619
G1 X108.568 Y120.37 E2.13824
G1 X107.576 Y120.249 E2.18809
G1 X106.749 Y120.074 E2.23027
G1 X106.416 Y119.972 E2.24764
G1 X105.72 Y119.697 E2.28498
G1 X105.564 Y119.621 E2.29363
G1 X104.934 Y119.253 E2.33003
G1 X103.117 Y117.998 E2.44021
G1 X102.464 Y117.457 E2.48251
G1 X102.174 Y117.17 E2.50287
G1 X101.696 Y116.619 E2.53926
G1 X101.601 Y116.491 E2.54721
G1 X101.219 Y115.887 E2.58287
G1 X100.79 Y115.082 E2.62838
G1 X100.167 Y113.885 E2.6957
G1 X99.839 Y113.086 E2.73879
G1 X99.738 Y112.759 E2.75586
G1 X99.608 Y112.235 E2.7828
G1 X99.565 Y112.008 E2.79433
G1 X99.481 Y111.153 E2.83719
G1 X99.478 Y110.692 E2.86019
G1 X99.482 Y110.229 E2.88329
G1 X99.483 Y108.904 E2.94939
G1 X99.556 Y108.074 E2.99096
G1 X99.622 Y107.7 E3.00991
G1 X99.804 Y106.99 E3.04647
G1 X99.858 Y106.831 E3.05485
G1 X100.142 Y106.166 E3.09093
G1 X100.539 Y105.401 E3.13393
G1 X101.203 Y104.145 E3.20481
G1 X101.66 Y103.437 E3.24685
G1 X101.879 Y103.156 E3.26462
G1 X102.4 Y102.589 E3.30304
G0 F6000 X102.672 Y102.882
G1 F1200 X102.811 Y102.753 E3.3125
G1 X103.299 Y102.361 E3.34373
G1 X104.21 Y101.73 E3.39902
G1 X104.351 Y101.635 E3.4075
G1 X105.127 Y101.101 E3.45449
G1 X105.788 Y100.726 E3.49241
G1 X106.076 Y100.594 E3.50821
G1 X106.595 Y100.395 E3.53595
G1 X106.857 Y100.313 E3.54964
G1 X107.617 Y100.147 E3.58845
G1 X108.463 Y100.04 E3.631
G1 X109.846 Y99.878 E3.70047
G1 X110.613 Y99.855 E3.73875
G1 X110.975 Y99.876 E3.75684
G1 X111.626 Y99.963 E3.78961
G1 X111.797 Y99.999 E3.79833
G1 X112.441 Y100.187 E3.8318
G1 X113.437 Y100.562 E3.88489
G1 X114.566 Y100.995 E3.94522
G1 X115.246 Y101.325 E3.98293
G1 X115.462 Y101.454 E3.99548
G1 X115.905 Y101.757 E4.02226
G1 X116.156 Y101.952 E4.03811
G1 X116.732 Y102.489 E4.0774
G1 X117.12 Y102.922 E4.10641
G1 X117.85 Y103.758 E4.16178
G1 X118.214 Y104.165 E4.18902
G1 X118.729 Y104.872 E4.23266
G1 X118.861 Y105.097 E4.24567
G1 X119.069 Y105.496 E4.26812
G1 X119.174 Y105.726 E4.28074
G1 X119.435 Y106.469 E4.32002
G1 X119.647 Y107.303 E4.36296
G1 X119.668 Y107.416 E4.36869
G1 X119.974 Y108.658 E4.43251
G1 X120.092 Y109.418 E4.47088
G1 X120.116 Y109.778 E4.48888
G1 X120.111 Y110.432 E4.52151
G1 X120.096 Y110.614 E4.53062
G1 X119.984 Y111.304 E4.56549
G1 X119.68 Y112.536 E4.6288
G1 X119.632 Y112.722 E4.63838
G1 X119.445 Y113.485 E4.67758
G1 X119.193 Y114.223 E4.71648
G1 X119.059 Y114.525 E4.73297
G1 X118.762 Y115.083 E4.7645
G1 X118.662 Y115.242 E4.77387
G1 X118.222 Y115.827 E4.81039
G1 X117.442 Y116.7 E4.8688
G1 X116.79 Y117.443 E4.91812
G1 X116.208 Y117.999 E4.95827
G1 X115.864 Y118.272 E4.98018
G1 X115.219 Y118.697 E5.01872
G1 X115.093 Y118.765 E5.02586
G1 X114.568 Y119.005 E5.05466
G1 X113.294 Y119.489 E5.12266
G1 X112.501 Y119.789 E5.16496
G1 X111.75 Y120 E5.20387
G1 X111.34 Y120.077 E5.22469
G1 X110.617 Y120.152 E5.26095
G1 X110.469 Y120.155 E5.26834
G1 X109.872 Y120.127 E5.29815
G1 X109.058 Y120.031 E5.33904
G1 X108.644 Y119.976 E5.35988
G1 X107.624 Y119.852 E5.41114
G1 X106.866 Y119.691 E5.4498
G1 X106.533 Y119.589 E5.46718
G1 X105.895 Y119.338 E5.50138
G1 X105.739 Y119.262 E5.51004
G1 X105.162 Y118.924 E5.5434
G1 X103.344 Y117.668 E5.65364
G1 X102.745 Y117.172 E5.69244
G1 X102.455 Y116.885 E5.7128
G1 X102.017 Y116.38 E5.74615
G1 X101.922 Y116.252 E5.7541
G1 X101.572 Y115.699 E5.78675
G1 X101.145 Y114.897 E5.83208
G1 X100.522 Y113.7 E5.89941
G1 X100.221 Y112.967 E5.93894
G1 X100.12 Y112.64 E5.95601
G1 X100.001 Y112.161 E5.98064
G1 X99.958 Y111.934 E5.99216
G1 X99.881 Y111.15 E6.03147
G1 X99.878 Y110.695 E6.05417
G1 X99.882 Y110.232 E6.07727
G1 X99.883 Y108.905 E6.14347
G1 X99.95 Y108.143 E6.18163
G1 X100.016 Y107.769 E6.20058
G1 X100.183 Y107.119 E6.23406
G1 X100.237 Y106.96 E6.24244
G1 X100.497 Y106.35 E6.27552
G1 X100.892 Y105.588 E6.31834
G1 X101.556 Y104.332 E6.38922
G1 X101.976 Y103.683 E6.42779
G1 X102.195 Y103.402 E6.44556
G1 X102.672 Y102.882 E6.48077
G0 F6000 X102.944 Y103.175
G1 F1200 X103.083 Y103.046 E6.49023
G1 X103.527 Y102.69 E6.51862
G1 X104.434 Y102.062 E6.57366
G1 X105.354 Y101.431 E6.62932
G1 X105.954 Y101.09 E6.66375
G1 X106.242 Y100.958 E6.67955
G1 X106.714 Y100.777 E6.70477
G1 X106.976 Y100.695 E6.71847
G1 X107.668 Y100.544 E6.75381
G1 X108.51 Y100.437 E6.79615
G1 X109.893 Y100.275 E6.86562
G1 X110.59 Y100.255 E6.90041
G1 X110.952 Y100.276 E6.9185
G1 X111.544 Y100.355 E6.9483
G1 X111.715 Y100.391 E6.95702
G1 X112.3 Y100.561 E6.98741
G1 X113.293 Y100.935 E7.04035
G1 X114.422 Y101.368 E7.10067
G1 X115.041 Y101.669 E7.13501
G1 X115.257 Y101.798 E7.14757
G1 X115.66 Y102.073 E7.17191
G1 X115.911 Y102.268 E7.18776
G1 X116.434 Y102.756 E7.22345
G1 X116.819 Y103.185 E7.25221
G1 X117.552 Y104.024 E7.30779
G1 X117.916 Y104.431 E7.33503
G1 X118.384 Y105.074 E7.37471
G1 X118.516 Y105.299 E7.38772
G1 X118.705 Y105.662 E7.40814
G1 X118.81 Y105.892 E7.42076
G1 X119.048 Y106.568 E7.45651
G1 X119.26 Y107.402 E7.49944
G1 X119.279 Y107.509 E7.50486
G1 X119.586 Y108.753 E7.56879
G1 X119.693 Y109.445 E7.60372
G1 X119.717 Y109.805 E7.62172
G1 X119.712 Y110.4 E7.65141
G1 X119.697 Y110.582 E7.66052
G1 X119.595 Y111.208 E7.69216
G1 X119.293 Y112.436 E7.75525
G1 X119.23 Y112.679 E7.76778
G1 X119.056 Y113.39 E7.8043
G1 X118.827 Y114.06 E7.83962
G1 X118.693 Y114.362 E7.85611
G1 X118.423 Y114.87 E7.88481
G1 X118.323 Y115.029 E7.89418
G1 X117.923 Y115.56 E7.92735
G1 X117.156 Y116.421 E7.98487
G1 X116.489 Y117.18 E8.03528
G1 X115.96 Y117.685 E8.07177
G1 X115.616 Y117.958 E8.09368
G1 X115.029 Y118.345 E8.12876
G1 X114.903 Y118.413 E8.1359
G1 X114.425 Y118.632 E8.16213
G1 X113.157 Y119.114 E8.22981
G1 X113.009 Y119.168 E8.23767
G1 X112.359 Y119.415 E8.27236
G1 X111.676 Y119.607 E8.30776
G1 X111.266 Y119.684 E8.32857
G1 X110.609 Y119.752 E8.36152
G1 X110.461 Y119.755 E8.36891
G1 X109.918 Y119.729 E8.39603
G1 X109.111 Y119.635 E8.43656
G1 X108.681 Y119.578 E8.4582
G1 X107.672 Y119.455 E8.50891
G1 X106.983 Y119.309 E8.54405
G1 X106.65 Y119.207 E8.56143
G1 X106.07 Y118.978 E8.59254
G1 X105.914 Y118.902 E8.6012
G1 X105.39 Y118.595 E8.63149
G1 X103.571 Y117.339 E8.74178
G1 X103.026 Y116.888 E8.77707
G1 X102.736 Y116.601 E8.79742
G1 X102.338 Y116.142 E8.82773
G1 X102.243 Y116.014 E8.83569
G1 X101.925 Y115.511 E8.86538
G1 X101.5 Y114.713 E8.91048
G1 X100.877 Y113.516 E8.97781
G1 X100.603 Y112.849 E9.01378
G1 X100.502 Y112.522 E9.03085
G1 X100.394 Y112.086 E9.05326
G1 X100.351 Y111.859 E9.06479
G1 X100.281 Y111.146 E9.10053
G1 X100.278 Y110.698 E9.12288
G1 X100.282 Y110.235 E9.14598
G1 X100.283 Y108.905 E9.21234
G1 X100.344 Y108.213 E9.247
G1 X100.41 Y107.839 E9.26594
G1 X100.561 Y107.248 E9.29638
G1 X100.615 Y107.089 E9.30475
G1 X100.852 Y106.534 E9.33486
G1 X101.246 Y105.775 E9.37753
G1 X101.91 Y104.519 E9.44841
G1 X102.291 Y103.929 E9.48345
G1 X102.51 Y103.648 E9.50122
G1 X102.944 Y103.175 E9.53325
G0 F6000 X103.216 Y103.468
G1 F1200 X103.355 Y103.339 E9.54271
G1 X103.754 Y103.018 E9.56826
G1 X104.657 Y102.393 E9.62304
G1 X105.58 Y101.76 E9.67888
G1 X106.121 Y101.453 E9.70992
G1 X106.409 Y101.321 E9.72572
G1 X106.834 Y101.158 E9.74843
G1 X107.096 Y101.076 E9.76213
G1 X107.718 Y100.941 E9.79388
G1 X108.556 Y100.834 E9.83603
G1 X109.939 Y100.672 E9.9055
G1 X110.566 Y100.654 E9.93679
G1 X110.928 Y100.675 E9.95488
G1 X111.462 Y100.746 E9.98176
G1 X111.633 Y100.782 E9.99048
G1 X112.159 Y100.936 E10.01782
G1 X113.15 Y101.309 E10.07065
G1 X114.279 Y101.742 E10.13097
G1 X114.836 Y102.012 E10.16186
G1 X115.052 Y102.141 E10.17441
G1 X115.415 Y102.389 E10.19634
G1 X115.666 Y102.584 E10.2122
G1 X116.137 Y103.023 E10.24432
G1 X116.518 Y103.448 E10.2728
G1 X117.282 Y104.323 E10.33075
G1 X117.617 Y104.698 E10.35584
G1 X118.039 Y105.276 E10.39154
G1 X118.171 Y105.501 E10.40456
G1 X118.341 Y105.828 E10.42294
G1 X118.446 Y106.058 E10.43556
G1 X118.66 Y106.666 E10.46771
G1 X118.872 Y107.5 E10.51065
G1 X118.891 Y107.609 E10.51617
G1 X119.197 Y108.849 E10.57989
G1 X119.294 Y109.472 E10.61134
G1 X119.318 Y109.832 E10.62934
G1 X119.314 Y110.367 E10.65603
G1 X119.299 Y110.549 E10.66514
G1 X119.207 Y111.113 E10.69365
G1 X118.906 Y112.335 E10.75644
G1 X118.855 Y112.532 E10.7666
G1 X118.668 Y113.295 E10.80579
G1 X118.462 Y113.898 E10.83758
G1 X118.328 Y114.2 E10.85406
G1 X118.084 Y114.657 E10.87991
G1 X117.984 Y114.816 E10.88928
G1 X117.624 Y115.294 E10.91913
G1 X116.857 Y116.156 E10.9767
G1 X116.187 Y116.917 E11.02728
G1 X115.711 Y117.372 E11.06013
G1 X115.367 Y117.645 E11.08204
G1 X114.839 Y117.993 E11.11359
G1 X114.713 Y118.061 E11.12074
G1 X114.283 Y118.258 E11.14433
G1 X113.02 Y118.738 E11.21174
G1 X112.872 Y118.792 E11.2196
G1 X112.217 Y119.041 E11.25456
G1 X111.602 Y119.214 E11.28644
G1 X111.192 Y119.291 E11.30725
G1 X110.601 Y119.352 E11.33689
G1 X110.453 Y119.355 E11.34427
G1 X109.964 Y119.332 E11.3687
G1 X109.224 Y119.246 E11.40587
G1 X108.741 Y119.182 E11.43017
G1 X107.721 Y119.058 E11.48144
G1 X107.101 Y118.926 E11.51306
G1 X106.768 Y118.824 E11.53044
G1 X106.245 Y118.618 E11.55848
G1 X106.089 Y118.542 E11.56714
G1 X105.617 Y118.266 E11.59442
G1 X103.798 Y117.01 E11.7047
G1 X103.308 Y116.604 E11.73645
G1 X103.018 Y116.317 E11.7568
G1 X102.659 Y115.904 E11.7841
G1 X102.564 Y115.776 E11.79205
G1 X102.278 Y115.323 E11.81878
G1 X101.855 Y114.528 E11.86371
G1 X101.232 Y113.331 E11.93103
G1 X100.985 Y112.731 E11.9634
G1 X100.884 Y112.404 E11.98048
G1 X100.787 Y112.012 E12.00063
G1 X100.744 Y111.785 E12.01215
G1 X100.681 Y111.143 E12.04434
G1 X100.678 Y110.702 E12.06634
G1 X100.682 Y110.239 E12.08944
G1 X100.683 Y108.905 E12.15599
G1 X100.738 Y108.282 E12.18719
G1 X100.804 Y107.908 E12.20614
G1 X100.94 Y107.376 E12.23354
G1 X100.994 Y107.217 E12.24191
G1 X101.207 Y106.718 E12.26898
G1 X101.599 Y105.961 E12.31151
G1 X102.263 Y104.705 E12.38239
G1 X102.607 Y104.175 E12.41391
G1 X102.826 Y103.894 E12.43169
G1 X103.216 Y103.468 E12.4605
G0 F6000 X103.488 Y103.761
G1 F1200 X103.627 Y103.632 E12.46996
G1 X103.982 Y103.347 E12.49268
G1 X104.881 Y102.725 E12.54722
G1 X105.807 Y102.09 E12.60323
G1 X106.288 Y101.817 E12.63083
G1 X106.576 Y101.685 E12.64663
G1 X106.953 Y101.54 E12.66678
G1 X107.215 Y101.458 E12.68048
G1 X107.768 Y101.337 E12.70872
G1 X108.603 Y101.232 E12.75071
G1 X109.986 Y101.07 E12.82018
G1 X110.543 Y101.053 E12.84798
G1 X110.905 Y101.074 E12.86607
G1 X111.379 Y101.138 E12.88993
G1 X111.55 Y101.174 E12.89865
G1 X112.018 Y101.31 E12.92297
G1 X113.007 Y101.682 E12.97568
G1 X114.136 Y102.115 E13.03601
G1 X114.631 Y102.356 E13.06348
G1 X114.847 Y102.485 E13.07603
G1 X115.169 Y102.705 E13.09548
G1 X115.42 Y102.9 E13.11134
G1 X115.839 Y103.29 E13.1399
G1 X116.216 Y103.711 E13.16809
G1 X116.978 Y104.584 E13.22591
G1 X117.319 Y104.965 E13.25142
G1 X117.694 Y105.479 E13.28316
G1 X117.826 Y105.704 E13.29617
G1 X117.977 Y105.994 E13.31248
G1 X118.082 Y106.224 E13.3251
G1 X118.272 Y106.765 E13.35371
G1 X118.484 Y107.599 E13.39664
G1 X118.5 Y107.693 E13.40139
G1 X118.809 Y108.945 E13.46573
G1 X118.895 Y109.498 E13.49365
G1 X118.919 Y109.858 E13.51165
G1 X118.915 Y110.334 E13.5354
G1 X118.9 Y110.516 E13.54451
G1 X118.818 Y111.017 E13.56984
G1 X118.519 Y112.235 E13.63241
G1 X118.456 Y112.478 E13.64493
G1 X118.279 Y113.2 E13.68202
G1 X118.096 Y113.736 E13.71028
G1 X117.962 Y114.038 E13.72676
G1 X117.746 Y114.444 E13.74971
G1 X117.646 Y114.603 E13.75908
G1 X117.326 Y115.028 E13.78562
G1 X116.547 Y115.902 E13.84403
G1 X115.885 Y116.654 E13.89401
G1 X115.462 Y117.059 E13.92323
G1 X115.118 Y117.332 E13.94514
G1 X114.649 Y117.641 E13.97316
G1 X114.523 Y117.709 E13.9803
G1 X114.141 Y117.884 E14.00126
G1 X112.883 Y118.362 E14.0684
G1 X112.748 Y118.411 E14.07557
G1 X112.075 Y118.667 E14.11149
G1 X111.529 Y118.821 E14.1398
G1 X111.119 Y118.898 E14.16061
G1 X110.593 Y118.952 E14.18699
G1 X110.445 Y118.955 E14.19437
G1 X110.011 Y118.935 E14.21605
G1 X109.217 Y118.842 E14.25593
G1 X108.789 Y118.785 E14.27747
G1 X107.769 Y118.661 E14.32874
G1 X107.218 Y118.544 E14.35684
G1 X106.885 Y118.442 E14.37421
G1 X106.42 Y118.259 E14.39915
G1 X106.264 Y118.183 E14.4078
G1 X105.845 Y117.937 E14.43204
G1 X104.025 Y116.68 E14.54239
G1 X103.589 Y116.319 E14.57064
G1 X103.299 Y116.032 E14.59099
G1 X102.98 Y115.665 E14.61525
G1 X102.885 Y115.537 E14.6232
G1 X102.631 Y115.135 E14.64693
G1 X102.209 Y114.343 E14.6917
G1 X101.586 Y113.146 E14.75902
G1 X101.368 Y112.613 E14.78775
G1 X101.267 Y112.286 E14.80483
G1 X101.18 Y111.938 E14.82272
G1 X101.137 Y111.711 E14.83425
G1 X101.081 Y111.14 E14.86287
G1 X101.078 Y110.705 E14.88458
G1 X101.082 Y110.242 E14.90768
G1 X101.083 Y108.906 E14.97433
G1 X101.132 Y108.352 E15.00208
G1 X101.198 Y107.978 E15.02102
G1 X101.319 Y107.505 E15.04538
G1 X101.373 Y107.346 E15.05376
G1 X101.562 Y106.902 E15.07783
G1 X101.953 Y106.148 E15.12021
G1 X102.617 Y104.892 E15.19109
G1 X102.922 Y104.421 E15.21908
G1 X103.141 Y104.14 E15.23686
G1 X103.488 Y103.761 E15.26249
G1 F1500 E8.76249
;MESH:motor_gear.stl
G0 F6000 X105.209 Y105.611
G0 X105.891 Y106.325
G0 X106.296 Y106.757
;TYPE:WALL-INNER
G1 F1500 E15.26249
G1 F1200 X106.457 Y106.865 E15.27216
G1 X106.473 Y106.884 E15.2734
G1 X106.628 Y107.063 E15.28522
G1 X106.425 Y106.926 E15.28644
G1 X106.408 Y106.903
G1 X106.296 Y106.757 E15.28706
G0 F6000 X107.303 Y107.23
G0 X107.592 Y107.135
G0 X107.915 Y106.903
G0 X108.261 Y106.644
G0 X108.204 Y105.413
G1 F1200 X108.307 Y105.592 E15.29736
G1 X108.313 Y105.603 E15.29799
G1 X108.374 Y105.862 E15.31126
G1 X108.252 Y105.637 E15.3122
G1 X108.247 Y105.627
G1 X108.245 Y105.617
G1 X108.204 Y105.413 E15.31322
G0 F6000 X108.976 Y106.372
G0 X109.82 Y106.295
G0 X110.053 Y106.176
G0 X110.474 Y105.339
G1 F1200 X110.477 Y105.328 E15.31379
G1 X110.534 Y105.13 E15.32407
G1 X110.541 Y105.336 E15.32501
G1 X110.542 Y105.346
G1 X110.477 Y105.603 E15.33372
G1 X110.474 Y105.339 E15.33491
G0 F6000 X110.71 Y106.242
G0 X110.965 Y106.438
