;FLAVOR:Marlin
;TIME:226
;Filament used: 0.0873223m
;Layer height: 0.3
;MINX:101.336
;MINY:101.337
;MINZ:0.3
;MAXX:118.663
;MAXY:118.663
;MAXZ:10.2
;Generated with Cura_SteamEngine 4.8.0
M140 S60
M105
M190 S60
M104 S200
M105
M109 S200
M82 ;absolute extrusion mode
G21 
G90
M107
G28 X0 Y0
G28 Z0
G1 Z15.0 F{travel_xy_speed}
G29
G92 E0
G1 F200 E10
G92 E0
G1 F{travel_xy_speed}
M117 Printing...
G92 E0
G92 E0
G1 F1500 E-6.5
;LAYER_COUNT:34
;LAYER:0
M107
M204 S1000
G0 F6000 X103.397 Y104.328 Z0.3
;TYPE:SKIRT
G1 F1500 E0
G1 F1200 X103.854 Y103.929 E0.03027
G1 X104.14 Y103.709 E0.04827
G1 X105.091 Y102.999 E0.10748
G1 X105.78 Y102.475 E0.15066
G1 X106.316 Y102.117 E0.18282
G1 X106.892 Y101.829 E0.21495
G1 X107.451 Y101.628 E0.24459
G1 X107.576 Y101.591 E0.25109
G1 X108.166 Y101.453 E0.28132
G1 X108.432 Y101.407 E0.29479
G1 X109.073 Y101.337 E0.32696
G1 X109.951 Y101.37 E0.37079
G1 X110.141 Y101.394 E0.38035
G1 X111.7 Y101.611 E0.45888
G1 X112.311 Y101.691 E0.48962
G1 X112.944 Y101.814 E0.52179
G1 X113.557 Y102.015 E0.55397
G1 X114.096 Y102.266 E0.58364
G1 X114.204 Y102.324 E0.58975
G1 X114.462 Y102.472 E0.60459
G1 X114.674 Y102.602 E0.617
G1 X115.202 Y102.972 E0.64917
G1 X115.68 Y103.405 E0.68134
G1 X116.055 Y103.836 E0.70985
G1 X116.282 Y104.128 E0.7283
G1 X116.975 Y105.056 E0.78608
G1 X117.523 Y105.776 E0.83122
G1 X117.881 Y106.312 E0.86338
G1 X118.17 Y106.888 E0.89553
G1 X118.367 Y107.434 E0.92449
G1 X118.405 Y107.561 E0.9311
G1 X118.547 Y108.166 E0.96211
G1 X118.593 Y108.432 E0.97558
G1 X118.663 Y109.073 E1.00774
G1 X118.63 Y109.951 E1.05158
G1 X118.606 Y110.141 E1.06113
G1 X118.389 Y111.7 E1.13966
G1 X118.309 Y112.311 E1.17041
G1 X118.186 Y112.944 E1.20258
G1 X117.985 Y113.557 E1.23476
G1 X117.742 Y114.081 E1.26358
G1 X117.685 Y114.188 E1.26963
G1 X117.531 Y114.458 E1.28513
G1 X117.4 Y114.672 E1.29765
G1 X117.03 Y115.2 E1.32982
G1 X116.598 Y115.678 E1.36196
G1 X116.145 Y116.072 E1.39191
G1 X115.882 Y116.274 E1.40846
G1 X114.91 Y117.001 E1.46902
G1 X114.22 Y117.525 E1.51224
G1 X113.684 Y117.883 E1.5444
G1 X113.108 Y118.171 E1.57653
G1 X112.549 Y118.372 E1.60616
G1 X112.424 Y118.409 E1.61267
G1 X111.834 Y118.547 E1.6429
G1 X111.568 Y118.593 E1.65637
G1 X110.927 Y118.663 E1.68854
G1 X110.049 Y118.63 E1.73237
G1 X109.859 Y118.606 E1.74192
G1 X108.3 Y118.389 E1.82045
G1 X107.689 Y118.309 E1.8512
G1 X107.056 Y118.186 E1.88337
G1 X106.443 Y117.985 E1.91555
G1 X105.904 Y117.734 E1.94522
G1 X105.796 Y117.676 E1.95133
G1 X105.556 Y117.539 E1.96512
G1 X105.347 Y117.412 E1.97732
G1 X104.818 Y117.044 E2.00947
G1 X104.338 Y116.613 E2.04165
G1 X103.954 Y116.175 E2.07071
G1 X103.718 Y115.872 E2.08988
G1 X102.997 Y114.907 E2.14997
G1 X102.482 Y114.232 E2.19233
G1 X102.123 Y113.696 E2.22452
G1 X101.834 Y113.12 E2.25667
G1 X101.633 Y112.565 E2.28612
G1 X101.593 Y112.431 E2.29309
G1 X101.45 Y111.821 E2.32435
G1 X101.405 Y111.558 E2.33766
G1 X101.336 Y110.917 E2.36983
G1 X101.38 Y109.969 E2.41717
G1 X101.616 Y108.262 E2.50315
G1 X101.691 Y107.688 E2.53203
G1 X101.815 Y107.055 E2.56421
G1 X102.015 Y106.442 E2.59638
G1 X102.248 Y105.938 E2.62408
G1 X102.305 Y105.83 E2.63017
G1 X102.465 Y105.548 E2.64635
G1 X102.595 Y105.335 E2.6588
G1 X102.965 Y104.807 E2.69096
G1 X103.397 Y104.328 E2.72314
G0 F6000 X103.711 Y104.58
G1 F1200 X104.099 Y104.246 E2.74869
G1 X104.38 Y104.03 E2.76637
G1 X105.3 Y103.342 E2.82368
G1 X106.022 Y102.793 E2.86893
G1 X106.538 Y102.451 E2.89982
G1 X107.094 Y102.178 E2.93072
G1 X107.565 Y102.011 E2.95565
G1 X107.69 Y101.974 E2.96216
G1 X108.234 Y101.847 E2.99003
G1 X108.5 Y101.801 E3.00349
G1 X109.116 Y101.735 E3.0344
G1 X109.902 Y101.767 E3.07365
G1 X110.086 Y101.79 E3.0829
G1 X111.687 Y102.013 E3.16354
G1 X112.259 Y102.088 E3.19233
G1 X112.867 Y102.207 E3.22323
G1 X113.454 Y102.405 E3.25414
G1 X113.907 Y102.618 E3.27912
G1 X114.015 Y102.676 E3.28523
G1 X114.253 Y102.813 E3.29893
G1 X114.465 Y102.943 E3.31134
G1 X114.971 Y103.3 E3.34223
G1 X115.427 Y103.72 E3.37316
G1 X115.74 Y104.082 E3.39704
G1 X115.961 Y104.367 E3.41503
G1 X116.657 Y105.298 E3.47302
G1 X117.205 Y106.018 E3.51817
G1 X117.547 Y106.534 E3.54905
G1 X117.82 Y107.09 E3.57995
G1 X117.984 Y107.549 E3.60427
G1 X118.022 Y107.676 E3.61088
G1 X118.153 Y108.234 E3.63948
G1 X118.199 Y108.5 E3.65295
G1 X118.265 Y109.116 E3.68385
G1 X118.233 Y109.902 E3.7231
G1 X118.21 Y110.086 E3.73235
G1 X117.987 Y111.687 E3.813
G1 X117.912 Y112.259 E3.84178
G1 X117.793 Y112.867 E3.87269
G1 X117.595 Y113.454 E3.90359
G1 X117.389 Y113.893 E3.92779
G1 X117.332 Y114 E3.93384
G1 X117.19 Y114.249 E3.94814
G1 X117.059 Y114.463 E3.96065
G1 X116.702 Y114.969 E3.99155
G1 X116.283 Y115.425 E4.02245
G1 X115.9 Y115.755 E4.04767
G1 X115.642 Y115.954 E4.06392
G1 X114.67 Y116.681 E4.12448
G1 X113.978 Y117.207 E4.16785
G1 X113.462 Y117.549 E4.19873
G1 X112.906 Y117.822 E4.22963
G1 X112.435 Y117.989 E4.25456
G1 X112.31 Y118.026 E4.26107
G1 X111.766 Y118.153 E4.28894
G1 X111.5 Y118.199 E4.30241
G1 X110.884 Y118.265 E4.33331
G1 X110.098 Y118.233 E4.37256
G1 X109.914 Y118.21 E4.38181
G1 X108.313 Y117.987 E4.46246
G1 X107.741 Y117.912 E4.49124
G1 X107.133 Y117.793 E4.52215
G1 X106.546 Y117.595 E4.55305
G1 X106.093 Y117.382 E4.57803
G1 X105.985 Y117.324 E4.58414
G1 X105.763 Y117.197 E4.5969
G1 X105.554 Y117.07 E4.6091
G1 X105.047 Y116.715 E4.63998
G1 X104.589 Y116.297 E4.67092
G1 X104.269 Y115.929 E4.69525
G1 X104.039 Y115.633 E4.71395
G1 X103.318 Y114.668 E4.77405
G1 X102.8 Y113.989 E4.81666
G1 X102.457 Y113.474 E4.84753
G1 X102.183 Y112.918 E4.87845
G1 X102.017 Y112.451 E4.90318
G1 X101.977 Y112.317 E4.91015
G1 X101.845 Y111.754 E4.939
G1 X101.8 Y111.491 E4.95232
G1 X101.735 Y110.875 E4.98322
G1 X101.776 Y110.024 E5.02572
G1 X102.012 Y108.317 E5.1117
G1 X102.088 Y107.74 E5.14073
G1 X102.208 Y107.132 E5.17165
G1 X102.405 Y106.545 E5.20254
G1 X102.602 Y106.125 E5.22569
G1 X102.659 Y106.017 E5.23178
G1 X102.807 Y105.756 E5.24675
G1 X102.937 Y105.543 E5.2592
G1 X103.293 Y105.037 E5.29006
G1 X103.711 Y104.58 E5.32096
G0 F6000 X104.025 Y104.834
G1 F1200 X104.344 Y104.562 E5.34188
G1 X104.619 Y104.35 E5.3592
G1 X105.57 Y103.639 E5.41844
G1 X106.264 Y103.112 E5.46192
G1 X106.759 Y102.785 E5.49151
G1 X107.293 Y102.529 E5.52106
G1 X107.678 Y102.395 E5.5414
G1 X107.803 Y102.358 E5.5479
G1 X108.302 Y102.241 E5.57347
G1 X108.568 Y102.195 E5.58694
G1 X109.158 Y102.134 E5.61653
G1 X109.854 Y102.164 E5.65129
G1 X110.031 Y102.186 E5.66018
G1 X111.596 Y102.404 E5.73902
G1 X112.207 Y102.484 E5.76976
G1 X112.789 Y102.601 E5.79938
G1 X113.349 Y102.794 E5.82893
G1 X113.718 Y102.971 E5.84935
G1 X113.826 Y103.029 E5.85546
G1 X114.044 Y103.154 E5.868
G1 X114.256 Y103.284 E5.88041
G1 X114.74 Y103.627 E5.91
G1 X115.172 Y104.033 E5.93958
G1 X115.425 Y104.328 E5.95897
G1 X115.641 Y104.606 E5.97653
G1 X116.362 Y105.571 E6.03663
G1 X116.886 Y106.26 E6.07981
G1 X117.213 Y106.755 E6.10941
G1 X117.47 Y107.29 E6.13902
G1 X117.6 Y107.664 E6.15878
G1 X117.638 Y107.791 E6.16539
G1 X117.759 Y108.302 E6.19159
G1 X117.805 Y108.568 E6.20506
G1 X117.866 Y109.158 E6.23465
G1 X117.836 Y109.854 E6.26941
G1 X117.814 Y110.031 E6.2783
G1 X117.591 Y111.632 E6.35895
G1 X117.516 Y112.207 E6.38788
G1 X117.399 Y112.789 E6.4175
G1 X117.206 Y113.349 E6.44705
G1 X117.036 Y113.705 E6.46673
G1 X116.979 Y113.812 E6.47278
G1 X116.849 Y114.04 E6.48587
G1 X116.718 Y114.254 E6.49839
G1 X116.375 Y114.738 E6.52799
G1 X115.97 Y115.171 E6.55756
G1 X115.655 Y115.439 E6.5782
G1 X115.402 Y115.633 E6.5941
G1 X114.43 Y116.36 E6.65466
G1 X113.736 Y116.888 E6.69817
G1 X113.241 Y117.215 E6.72776
G1 X112.707 Y117.471 E6.75731
G1 X112.322 Y117.605 E6.77765
G1 X112.197 Y117.642 E6.78415
G1 X111.698 Y117.759 E6.80972
G1 X111.432 Y117.805 E6.82319
G1 X110.842 Y117.866 E6.85278
G1 X110.146 Y117.836 E6.88754
G1 X109.969 Y117.814 E6.89644
G1 X108.404 Y117.596 E6.97527
G1 X107.793 Y117.516 E7.00601
G1 X107.211 Y117.399 E7.03563
G1 X106.651 Y117.206 E7.06518
G1 X106.282 Y117.029 E7.0856
G1 X105.971 Y116.855 E7.10338
G1 X105.762 Y116.728 E7.11558
G1 X105.277 Y116.387 E7.14516
G1 X104.843 Y115.983 E7.17474
G1 X104.584 Y115.682 E7.19455
G1 X104.359 Y115.394 E7.21278
G1 X103.638 Y114.429 E7.27288
G1 X103.118 Y113.747 E7.31567
G1 X102.791 Y113.252 E7.34526
G1 X102.533 Y112.718 E7.37485
G1 X102.4 Y112.337 E7.39499
G1 X102.36 Y112.203 E7.40196
G1 X102.239 Y111.686 E7.42845
G1 X102.194 Y111.423 E7.44176
G1 X102.134 Y110.833 E7.47135
G1 X102.172 Y110.078 E7.50907
G1 X102.408 Y108.371 E7.59504
G1 X102.484 Y107.792 E7.62417
G1 X102.601 Y107.211 E7.65374
G1 X102.795 Y106.65 E7.68336
G1 X102.956 Y106.311 E7.70208
G1 X103.013 Y106.203 E7.70817
G1 X103.148 Y105.965 E7.72182
G1 X103.278 Y105.752 E7.73427
G1 X103.621 Y105.268 E7.76387
G1 X104.025 Y104.834 E7.79345
G0 F6000 X104.337 Y105.09
G1 F1200 X104.588 Y104.879 E7.80981
G1 X104.859 Y104.67 E7.82688
G1 X105.81 Y103.959 E7.88612
G1 X106.506 Y103.43 E7.92974
G1 X106.979 Y103.12 E7.95795
G1 X107.491 Y102.881 E7.98614
G1 X107.792 Y102.778 E8.00201
G1 X107.917 Y102.741 E8.00852
G1 X108.37 Y102.636 E8.03172
G1 X108.636 Y102.59 E8.04518
G1 X109.199 Y102.533 E8.07342
G1 X109.805 Y102.561 E8.10368
G1 X109.976 Y102.582 E8.11228
G1 X111.577 Y102.805 E8.19292
G1 X112.155 Y102.881 E8.22201
G1 X112.709 Y102.994 E8.25022
G1 X113.242 Y103.183 E8.27843
G1 X113.529 Y103.323 E8.29436
G1 X113.835 Y103.495 E8.31187
G1 X114.047 Y103.625 E8.32428
G1 X114.507 Y103.954 E8.3525
G1 X114.916 Y104.344 E8.38069
G1 X115.109 Y104.574 E8.39567
G1 X115.32 Y104.846 E8.41284
G1 X116.02 Y105.782 E8.47116
G1 X116.568 Y106.502 E8.5163
G1 X116.878 Y106.975 E8.54451
G1 X117.118 Y107.487 E8.57272
G1 X117.217 Y107.778 E8.58806
G1 X117.255 Y107.905 E8.59467
G1 X117.364 Y108.37 E8.6185
G1 X117.41 Y108.636 E8.63197
G1 X117.467 Y109.199 E8.6602
G1 X117.439 Y109.805 E8.69046
G1 X117.418 Y109.976 E8.69906
G1 X117.195 Y111.577 E8.77971
G1 X117.119 Y112.155 E8.80879
G1 X117.006 Y112.709 E8.837
G1 X116.817 Y113.242 E8.86521
G1 X116.683 Y113.517 E8.88047
G1 X116.508 Y113.831 E8.89841
G1 X116.377 Y114.045 E8.91093
G1 X116.048 Y114.505 E8.93914
G1 X115.658 Y114.915 E8.96737
G1 X115.411 Y115.122 E8.98345
G1 X115.163 Y115.313 E8.99907
G1 X114.191 Y116.04 E9.05962
G1 X113.494 Y116.57 E9.10331
G1 X113.021 Y116.88 E9.13152
G1 X112.509 Y117.119 E9.15971
G1 X112.208 Y117.222 E9.17559
G1 X112.083 Y117.259 E9.18209
G1 X111.63 Y117.364 E9.20529
G1 X111.364 Y117.41 E9.21876
G1 X110.801 Y117.467 E9.24699
G1 X110.195 Y117.439 E9.27725
G1 X110.024 Y117.418 E9.28585
G1 X108.423 Y117.195 E9.36649
G1 X107.845 Y117.119 E9.39558
G1 X107.291 Y117.006 E9.42379
G1 X106.758 Y116.817 E9.452
G1 X106.471 Y116.677 E9.46793
G1 X106.179 Y116.513 E9.48464
G1 X105.97 Y116.386 E9.49684
G1 X105.509 Y116.059 E9.52504
G1 X105.098 Y115.671 E9.55324
G1 X104.899 Y115.435 E9.56864
G1 X104.68 Y115.154 E9.58641
G1 X103.959 Y114.189 E9.64651
G1 X103.436 Y113.504 E9.68951
G1 X103.126 Y113.032 E9.71768
G1 X102.885 Y112.52 E9.74591
G1 X102.783 Y112.222 E9.76163
G1 X102.743 Y112.088 E9.7686
G1 X102.633 Y111.619 E9.79264
G1 X102.588 Y111.356 E9.80595
G1 X102.533 Y110.793 E9.83417
G1 X102.569 Y110.133 E9.86715
G1 X102.805 Y108.426 E9.95312
G1 X102.881 Y107.844 E9.9824
G1 X102.994 Y107.29 E10.01061
G1 X103.184 Y106.758 E10.03879
G1 X103.309 Y106.498 E10.05319
G1 X103.49 Y106.173 E10.07175
G1 X103.62 Y105.96 E10.0842
G1 X103.948 Y105.5 E10.11238
G1 X104.337 Y105.09 E10.14058
G0 F6000 X104.274 Y105.733
G1 F1200 X104.833 Y105.195 E10.17929
G1 X105.098 Y104.991 E10.19597
G1 X106.026 Y104.297 E10.25378
G1 X106.748 Y103.748 E10.29903
G1 X107.198 Y103.456 E10.3258
G1 X107.905 Y103.162 E10.364
G1 X108.03 Y103.125 E10.3705
G1 X108.439 Y103.03 E10.39145
G1 X108.705 Y102.984 E10.40492
G1 X109.238 Y102.932 E10.43164
G1 X109.756 Y102.958 E10.45751
G1 X109.921 Y102.978 E10.4658
G1 X111.513 Y103.2 E10.546
G1 X112.103 Y103.277 E10.57568
G1 X112.628 Y103.387 E10.60244
G1 X113.339 Y103.675 E10.64071
G1 X113.626 Y103.836 E10.65713
G1 X113.838 Y103.966 E10.66954
G1 X114.273 Y104.28 E10.6963
G1 X114.794 Y104.82 E10.73374
G1 X115 Y105.085 E10.75049
G1 X115.702 Y106.025 E10.80902
G1 X116.25 Y106.745 E10.85416
G1 X116.542 Y107.194 E10.88088
G1 X116.834 Y107.893 E10.91867
G1 X116.872 Y108.02 E10.92529
G1 X116.97 Y108.439 E10.94676
G1 X117.016 Y108.705 E10.96022
G1 X117.068 Y109.238 E10.98694
G1 X117.042 Y109.756 E11.01282
G1 X117.022 Y109.921 E11.02111
G1 X116.799 Y111.522 E11.10175
G1 X116.723 Y112.103 E11.13099
G1 X116.613 Y112.628 E11.15775
G1 X116.33 Y113.329 E11.19546
G1 X116.166 Y113.623 E11.21226
G1 X116.035 Y113.837 E11.22478
G1 X115.722 Y114.272 E11.25151
G1 X115.166 Y114.806 E11.28997
G1 X114.923 Y114.993 E11.30527
G1 X113.974 Y115.703 E11.3644
G1 X113.252 Y116.252 E11.40965
G1 X112.802 Y116.544 E11.43642
G1 X112.095 Y116.838 E11.47462
G1 X111.97 Y116.875 E11.48112
G1 X111.561 Y116.97 E11.50207
G1 X111.295 Y117.016 E11.51554
G1 X110.762 Y117.068 E11.54225
G1 X110.244 Y117.042 E11.56813
G1 X110.079 Y117.022 E11.57642
G1 X108.487 Y116.8 E11.65662
G1 X107.897 Y116.723 E11.6863
G1 X107.372 Y116.613 E11.71306
G1 X106.661 Y116.325 E11.75133
G1 X106.387 Y116.172 E11.76699
G1 X106.178 Y116.045 E11.77919
G1 X105.741 Y115.733 E11.80598
G1 X105.213 Y115.189 E11.8438
G1 X105 Y114.915 E11.86112
G1 X104.279 Y113.95 E11.92121
G1 X103.754 Y113.262 E11.96439
G1 X103.461 Y112.812 E11.99118
G1 X103.166 Y112.108 E12.02926
G1 X103.126 Y111.974 E12.03624
G1 X103.028 Y111.551 E12.0579
G1 X102.983 Y111.288 E12.07121
G1 X102.932 Y110.754 E12.09798
G1 X102.965 Y110.188 E12.12626
G1 X103.201 Y108.481 E12.21223
G1 X103.278 Y107.896 E12.24167
G1 X103.387 Y107.371 E12.26842
G1 X103.663 Y106.685 E12.30531
G1 X103.831 Y106.382 E12.3226
G1 X103.961 Y106.169 E12.33505
G1 X104.274 Y105.733 E12.36182
G0 F6000 X104.599 Y105.968
G1 F1200 X105.077 Y105.512 E12.39478
G1 X105.338 Y105.311 E12.41122
G1 X106.289 Y104.6 E12.47046
G1 X106.99 Y104.067 E12.51439
G1 X107.415 Y103.793 E12.53962
G1 X108.019 Y103.546 E12.57218
G1 X108.144 Y103.509 E12.57868
G1 X108.507 Y103.424 E12.59728
G1 X108.773 Y103.378 E12.61075
G1 X109.276 Y103.331 E12.63595
G1 X109.708 Y103.355 E12.65754
G1 X109.865 Y103.375 E12.66543
G1 X111.44 Y103.594 E12.74477
G1 X112.051 Y103.674 E12.77551
G1 X112.546 Y103.779 E12.80076
G1 X113.15 Y104.028 E12.83335
G1 X113.417 Y104.177 E12.8486
G1 X113.629 Y104.307 E12.86101
G1 X114.038 Y104.605 E12.88626
G1 X114.479 Y105.066 E12.91809
G1 X114.68 Y105.325 E12.93444
G1 X115.401 Y106.29 E12.99454
G1 X115.931 Y106.987 E13.03822
G1 X116.205 Y107.412 E13.06345
G1 X116.451 Y108.008 E13.09562
G1 X116.489 Y108.135 E13.10223
G1 X116.576 Y108.507 E13.12129
G1 X116.622 Y108.773 E13.13476
G1 X116.669 Y109.276 E13.15997
G1 X116.645 Y109.708 E13.18155
G1 X116.625 Y109.865 E13.18945
G1 X116.406 Y111.44 E13.26878
G1 X116.326 Y112.051 E13.29952
G1 X116.221 Y112.546 E13.32477
G1 X115.977 Y113.141 E13.35685
G1 X115.825 Y113.414 E13.37244
G1 X115.694 Y113.628 E13.38496
G1 X115.397 Y114.037 E13.41018
G1 X114.922 Y114.489 E13.44289
G1 X114.684 Y114.673 E13.4579
G1 X113.712 Y115.399 E13.51842
G1 X113.01 Y115.933 E13.56243
G1 X112.585 Y116.207 E13.58766
G1 X111.981 Y116.454 E13.62021
G1 X111.856 Y116.491 E13.62672
G1 X111.493 Y116.576 E13.64532
G1 X111.227 Y116.622 E13.65878
G1 X110.724 Y116.669 E13.68399
G1 X110.292 Y116.645 E13.70557
G1 X110.135 Y116.625 E13.71347
G1 X108.56 Y116.406 E13.7928
G1 X107.949 Y116.326 E13.82355
G1 X107.454 Y116.221 E13.84879
G1 X106.85 Y115.972 E13.88139
G1 X106.594 Y115.83 E13.89599
G1 X106.385 Y115.703 E13.90819
G1 X105.975 Y115.407 E13.93342
G1 X105.528 Y114.942 E13.9656
G1 X105.32 Y114.675 E13.98249
G1 X104.599 Y113.71 E14.04258
G1 X104.072 Y113.019 E14.08594
G1 X103.798 Y112.594 E14.11117
G1 X103.55 Y111.993 E14.1436
G1 X103.51 Y111.859 E14.15058
G1 X103.422 Y111.484 E14.1698
G1 X103.377 Y111.221 E14.18311
G1 X103.331 Y110.717 E14.20836
G1 X103.361 Y110.243 E14.23205
G1 X103.597 Y108.536 E14.31803
G1 X103.674 Y107.948 E14.34761
G1 X103.779 Y107.454 E14.37281
G1 X104.017 Y106.871 E14.40423
G1 X104.173 Y106.59 E14.42026
G1 X104.303 Y106.377 E14.43271
G1 X104.599 Y105.968 E14.4579
G1 F1500 E7.9579
;MESH:encoder_gear.stl
G0 F6000 X106.355 Y107.869
G0 X107.316 Y108.43
