;FLAVOR:Marlin
;TIME:7023
;Filament used: 5.51054m
;Layer height: 0.3
;MINX:82.11
;MINY:75.879
;MINZ:0.3
;MAXX:136.921
;MAXY:144.121
;MAXZ:23.4
;Generated with Cura_SteamEngine 4.10.0
M140 S60
M105
M190 S60
M104 S200
M105
M109 S200
M82 ;absolute extrusion mode
G21
G90
M107
G28 X0 Y0
G28 Z0
G1 Z15.0 F{travel_xy_speed}
G29
G92 E0
G1 F200 E10
G92 E0
G1 F{travel_xy_speed}
M117 Printing...
G92 E0
G92 E0
G1 F1500 E-6.5
;LAYER_COUNT:78
;LAYER:0
M107
M204 S1000
G0 F6000 X84.465 Y87.281 Z0.3
;TYPE:SKIRT
G1 F1500 E0
G1 F1200 X94.373 Y77.372 E0.6991
G1 X94.86 Y76.901 E0.7329
G1 X95.272 Y76.558 E0.75964
G1 X95.731 Y76.28 E0.78642
G1 X96.226 Y76.073 E0.81318
G1 X96.746 Y75.942 E0.83994
G1 X97.241 Y75.891 E0.86476
G1 X97.467 Y75.884 E0.87605
G1 X97.876 Y75.879 E0.89645
G1 X121.986 Y75.879 E2.0993
G1 X122.687 Y75.889 E2.13428
G1 X123.222 Y75.937 E2.16108
G1 X123.743 Y76.063 E2.18782
G1 X124.239 Y76.266 E2.21456
G1 X124.7 Y76.54 E2.24131
G1 X125.076 Y76.842 E2.26538
G1 X125.303 Y77.053 E2.28084
G1 X125.499 Y77.244 E2.29449
G1 X135.428 Y87.174 E2.99507
G1 X135.899 Y87.661 E3.02887
G1 X136.242 Y88.073 E3.05562
G1 X136.52 Y88.532 E3.08239
G1 X136.727 Y89.027 E3.10916
G1 X136.858 Y89.547 E3.13591
G1 X136.909 Y90.042 E3.16074
G1 X136.916 Y90.268 E3.17202
G1 X136.921 Y90.677 E3.19242
G1 X136.921 Y129.186 E5.11365
G1 X136.911 Y129.888 E5.14867
G1 X136.863 Y130.422 E5.17542
G1 X136.737 Y130.944 E5.20221
G1 X136.534 Y131.44 E5.22895
G1 X136.26 Y131.901 E5.25571
G1 X135.95 Y132.285 E5.28033
G1 X135.744 Y132.506 E5.2954
G1 X135.537 Y132.718 E5.31018
G1 X125.637 Y142.617 E6.00865
G1 X125.143 Y143.096 E6.04297
G1 X124.731 Y143.439 E6.06972
G1 X124.273 Y143.718 E6.09648
G1 X123.779 Y143.925 E6.1232
G1 X123.259 Y144.057 E6.14996
G1 X122.759 Y144.109 E6.17504
G1 X122.533 Y144.116 E6.18632
G1 X122.124 Y144.121 E6.20673
G1 X98.014 Y144.121 E7.40958
G1 X97.312 Y144.111 E7.44461
G1 X96.778 Y144.063 E7.47136
G1 X96.256 Y143.937 E7.49815
G1 X95.76 Y143.734 E7.52489
G1 X95.299 Y143.46 E7.55164
G1 X94.911 Y143.147 E7.57651
G1 X94.282 Y142.562 E7.61937
G1 X93.072 Y141.412 E7.70265
G1 X91.045 Y139.592 E7.83856
G1 X88.962 Y137.827 E7.97477
G1 X86.832 Y136.121 E8.11092
G1 X84.891 Y134.651 E8.23239
G1 X84.076 Y134.049 E8.28294
G1 X83.67 Y133.699 E8.30969
G1 X83.32 Y133.292 E8.33647
G1 X82.928 Y132.622 E8.3752
G1 X82.599 Y131.886 E8.41542
G1 X82.551 Y131.773 E8.42154
G1 X82.383 Y131.36 E8.44379
G1 X82.219 Y130.85 E8.47051
G1 X82.118 Y130.056 E8.51045
G1 X82.11 Y129.403 E8.54303
G1 X82.116 Y128.963 E8.56498
G1 X82.145 Y128.56 E8.58514
G1 X82.293 Y127.39 E8.64397
G1 X82.606 Y124.629 E8.7826
G1 X82.838 Y121.907 E8.9189
G1 X82.991 Y119.204 E9.05397
G1 X83.079 Y115.074 E9.26006
G1 X83.079 Y90.814 E10.4704
G1 X83.089 Y90.112 E10.50542
G1 X83.137 Y89.578 E10.53217
G1 X83.263 Y89.056 E10.55896
G1 X83.466 Y88.56 E10.5857
G1 X83.74 Y88.099 E10.61245
G1 X84.05 Y87.715 E10.63708
G1 X84.257 Y87.493 E10.65222
G1 X84.465 Y87.281 E10.66704
G0 F6000 X84.748 Y87.563
G1 F1200 X94.651 Y77.66 E11.36575
G1 X95.138 Y77.189 E11.39955
G1 X95.528 Y76.867 E11.42478
G1 X95.964 Y76.611 E11.45
G1 X96.435 Y76.427 E11.47523
G1 X96.929 Y76.319 E11.50046
G1 X97.255 Y76.291 E11.51678
G1 X97.472 Y76.284 E11.52762
G1 X97.881 Y76.279 E11.54802
G1 X121.981 Y76.279 E12.75038
G1 X122.682 Y76.289 E12.78535
G1 X123.185 Y76.336 E12.81056
G1 X123.675 Y76.462 E12.8358
G1 X124.138 Y76.664 E12.861
G1 X124.565 Y76.936 E12.88626
G1 X124.805 Y77.136 E12.90184
G1 X125.024 Y77.339 E12.91674
G1 X125.188 Y77.499 E12.92817
G1 X135.14 Y87.452 E13.63038
G1 X135.611 Y87.939 E13.66418
G1 X135.933 Y88.329 E13.68941
G1 X136.189 Y88.765 E13.71463
G1 X136.373 Y89.236 E13.73986
G1 X136.481 Y89.73 E13.76509
G1 X136.509 Y90.056 E13.78141
G1 X136.516 Y90.273 E13.79224
G1 X136.521 Y90.682 E13.81265
G1 X136.521 Y129.181 E15.73337
G1 X136.511 Y129.883 E15.7684
G1 X136.464 Y130.386 E15.7936
G1 X136.338 Y130.876 E15.81885
G1 X136.136 Y131.339 E15.84405
G1 X135.865 Y131.766 E15.86928
G1 X135.657 Y132.013 E15.88539
G1 X135.458 Y132.227 E15.89997
G1 X135.279 Y132.41 E15.91274
G1 X125.359 Y142.329 E16.61261
G1 X124.865 Y142.808 E16.64694
G1 X124.475 Y143.131 E16.67221
G1 X124.039 Y143.387 E16.69743
G1 X123.569 Y143.572 E16.72263
G1 X123.075 Y143.681 E16.74787
G1 X122.745 Y143.709 E16.76439
G1 X122.528 Y143.716 E16.77522
G1 X122.119 Y143.721 E16.79563
G1 X98.019 Y143.721 E17.99798
G1 X97.317 Y143.711 E18.03301
G1 X96.814 Y143.664 E18.05822
G1 X96.324 Y143.538 E18.08346
G1 X95.861 Y143.336 E18.10866
G1 X95.434 Y143.065 E18.13389
G1 X95.184 Y142.854 E18.15021
G1 X94.558 Y142.272 E18.19286
G1 X93.349 Y141.124 E18.27603
G1 X91.307 Y139.29 E18.41297
G1 X89.225 Y137.526 E18.54911
G1 X87.078 Y135.806 E18.68635
G1 X85.097 Y134.305 E18.81035
G1 X84.314 Y133.727 E18.85891
G1 X83.932 Y133.395 E18.88416
G1 X83.607 Y133.008 E18.90937
G1 X83.294 Y132.459 E18.9409
G1 X82.922 Y131.623 E18.98655
G1 X82.754 Y131.21 E19.00879
G1 X82.601 Y130.728 E19.03402
G1 X82.518 Y130.05 E19.0681
G1 X82.51 Y129.408 E19.10013
G1 X82.516 Y128.968 E19.12209
G1 X82.541 Y128.61 E19.13999
G1 X82.695 Y127.394 E19.20114
G1 X83.009 Y124.625 E19.34017
G1 X83.235 Y121.963 E19.47346
G1 X83.391 Y119.208 E19.61113
G1 X83.479 Y115.103 E19.81597
G1 X83.479 Y90.819 E21.02751
G1 X83.489 Y90.117 E21.06253
G1 X83.536 Y89.614 E21.08774
G1 X83.662 Y89.124 E21.11298
G1 X83.864 Y88.661 E21.13818
G1 X84.135 Y88.234 E21.16341
G1 X84.343 Y87.987 E21.17952
G1 X84.543 Y87.773 E21.19414
G1 X84.748 Y87.563 E21.20878
G1 F1500 E14.70878
G0 F6000 X85.042 Y130.134
G0 X85.391 Y130.96
G0 X86.186 Y130.623
;TYPE:SUPPORT
G1 F1500 E21.20878
G1 F1200 X86.406 Y130.842 E21.22426
G1 X86.298 Y130.887 E21.2301
G1 X86.186 Y130.623 E21.24441
G1 F1500 E14.74441
;MESH:chassis_a.stl
G0 F6000 X87.489 Y129.508
G0 X87.453 Y90.477
G0 X97.677 Y80.253
G0 X107.739 Y80.28
G0 X105.308 Y83.488
G0 X106.148 Y87.625
G0 X108.133 Y88.77
G0 X109.743 Y89.484
;TYPE:WALL-INNER
G1 F1500 E21.24441
G1 F1200 X110.01 Y89.486 E21.25773
G1 X110.303 Y89.479 E21.27235
G1 X110.582 Y89.452 E21.28634
G1 X111.106 Y89.351 E21.31296
G1 X111.422 Y89.256 E21.32942
G1 X111.6 Y89.193 E21.33884
G1 X111.92 Y89.059 E21.35615
G1 X112.339 Y88.832 E21.37993
G1 X112.694 Y88.606 E21.40092
G1 X113.066 Y88.348 E21.42351
G1 X113.117 Y88.299 E21.42703
G1 X113.401 Y88.055 E21.44571
G1 X113.719 Y87.718 E21.46883
G1 X114.006 Y87.346 E21.49227
G1 X114.253 Y86.943 E21.51585
G1 X114.46 Y86.517 E21.53948
G1 X114.624 Y86.068 E21.56333
G1 X114.677 Y85.858 E21.57414
G1 X114.759 Y85.51 E21.59197
G1 X114.792 Y85.283 E21.60342
G1 X114.824 Y84.939 E21.62065
G1 X114.834 Y84.703 E21.63244
G1 X114.809 Y84.134 E21.66085
G1 X114.765 Y83.871 E21.67416
G1 X114.712 Y83.577 E21.68906
G1 X114.641 Y83.307 E21.70299
G1 X114.556 Y83.036 E21.71716
G1 X114.452 Y82.763 E21.73173
G1 X114.341 Y82.526 E21.74479
G1 X114.204 Y82.255 E21.75994
G1 X113.912 Y81.788 E21.78742
G1 X113.678 Y81.492 E21.80624
G1 X113.569 Y81.36 E21.81478
G1 X113.289 Y81.074 E21.83475
G1 X113.196 Y80.986 E21.84114
G1 X112.856 Y80.702 E21.86324
G1 X112.568 Y80.503 E21.88071
G1 X112.513 Y80.471 E21.88388
G1 X112.361 Y80.383 E21.89264
G1 X111.866 Y80.161 E21.91971
G1 X111.613 Y80.079 E21.93298
G1 X111.866 Y80.079 E21.93414
G1 X112.361 Y80.079 E21.94578
G1 X112.537 Y80.079 E21.95355
G1 X122.394 Y80.079 E22.44532
G1 X132.721 Y90.406 E23.17394
G1 X132.721 Y129.594 E25.12904
G1 X122.394 Y139.921 E25.85767
G1 X97.606 Y139.921 E27.09435
G1 X87.279 Y129.594 E27.82297
G1 X87.279 Y90.406 E29.77807
G1 X97.606 Y80.079 E30.50669
G1 X107.771 Y80.079 E31.01383
G1 X108.124 Y80.079 E31.03144
G1 X108.214 Y80.079 E31.03593
G1 X108.622 Y80.079 E31.05629
G1 X108.667 Y80.079 E31.05853
G1 X108.622 Y80.095 E31.05865
G1 X108.214 Y80.26 E31.06497
G1 X108.124 Y80.304 E31.0677
G1 X107.812 Y80.468 E31.08156
G1 X107.758 Y80.496 E31.0846
G1 X107.655 Y80.561 E31.09067
G1 X107.333 Y80.775 E31.10996
G1 X107.22 Y80.863 E31.11711
G1 X106.94 Y81.095 E31.13525
G1 X106.822 Y81.209 E31.14343
G1 X106.586 Y81.449 E31.16023
G1 X106.466 Y81.591 E31.1695
G1 X106.241 Y81.875 E31.18758
G1 X106.134 Y82.036 E31.19722
G1 X105.951 Y82.332 E31.21458
G1 X105.855 Y82.513 E31.22481
G1 X105.716 Y82.814 E31.24135
G1 X105.635 Y83.013 E31.25207
G1 X105.538 Y83.315 E31.26789
G1 X105.474 Y83.529 E31.27904
G1 X105.376 Y84.051 E31.30553
G1 X105.339 Y84.57 E31.33149
G1 X105.344 Y84.849 E31.34541
G1 X105.36 Y85.086 E31.35726
G1 X105.396 Y85.378 E31.37194
G1 X105.434 Y85.581 E31.38225
G1 X105.504 Y85.887 E31.39791
G1 X105.662 Y86.359 E31.42274
G1 X105.859 Y86.784 E31.44611
G1 X106.063 Y87.158 E31.46736
G1 X106.289 Y87.529 E31.48904
G1 X106.564 Y87.891 E31.51172
G1 X106.873 Y88.223 E31.53434
G1 X107.216 Y88.524 E31.55711
G1 X107.588 Y88.787 E31.57984
G1 X107.982 Y89.011 E31.60245
G1 X108.398 Y89.194 E31.62513
G1 X108.61 Y89.264 E31.63626
G1 X108.953 Y89.363 E31.65408
G1 X109.182 Y89.414 E31.66578
G1 X109.743 Y89.484 E31.69399
G0 F6000 X109.77 Y89.084
;TYPE:WALL-OUTER
G1 F1200 X110.007 Y89.086 E31.70581
G1 X110.279 Y89.079 E31.71938
G1 X110.525 Y89.056 E31.73171
G1 X111.01 Y88.962 E31.75636
G1 X111.298 Y88.876 E31.77135
G1 X111.456 Y88.82 E31.77972
G1 X111.747 Y88.698 E31.79546
G1 X112.136 Y88.487 E31.81754
G1 X112.473 Y88.273 E31.83745
G1 X112.811 Y88.038 E31.85799
G1 X112.839 Y88.011 E31.85993
G1 X113.124 Y87.765 E31.87872
G1 X113.415 Y87.458 E31.89982
G1 X113.676 Y87.119 E31.92116
G1 X113.902 Y86.751 E31.94271
G1 X114.091 Y86.361 E31.96433
G1 X114.241 Y85.95 E31.98616
G1 X114.288 Y85.763 E31.99578
G1 X114.366 Y85.435 E32.0126
G1 X114.395 Y85.236 E32.02263
G1 X114.425 Y84.912 E32.03887
G1 X114.434 Y84.703 E32.0493
G1 X114.41 Y84.176 E32.07562
G1 X114.371 Y83.939 E32.0876
G1 X114.321 Y83.663 E32.1016
G1 X114.257 Y83.418 E32.11423
G1 X114.178 Y83.168 E32.12731
G1 X114.083 Y82.919 E32.14061
G1 X113.981 Y82.701 E32.15262
G1 X113.855 Y82.451 E32.16658
G1 X113.585 Y82.019 E32.192
G1 X113.367 Y81.744 E32.20951
G1 X113.271 Y81.628 E32.21702
G1 X113.008 Y81.359 E32.23579
G1 X112.93 Y81.285 E32.24115
G1 X112.613 Y81.021 E32.26173
G1 X112.354 Y80.841 E32.27747
G1 X112.179 Y80.74 E32.28755
G1 X111.722 Y80.535 E32.31254
G1 X111.247 Y80.381 E32.33745
G1 X111.034 Y80.333 E32.34834
G1 X110.756 Y80.274 E32.36252
G1 X110.259 Y80.222 E32.38745
G1 X109.944 Y80.221 E32.40317
G1 X109.749 Y80.235 E32.41292
G1 X109.246 Y80.327 E32.43843
G1 X108.82 Y80.449 E32.46054
G1 X108.764 Y80.469 E32.46351
G1 X108.378 Y80.625 E32.48428
G1 X108.305 Y80.661 E32.48834
G1 X107.958 Y80.843 E32.50789
G1 X107.873 Y80.897 E32.51291
G1 X107.567 Y81.1 E32.53123
G1 X107.471 Y81.175 E32.53731
G1 X107.207 Y81.393 E32.55439
G1 X107.104 Y81.493 E32.56155
G1 X106.882 Y81.719 E32.57736
G1 X106.776 Y81.844 E32.58553
G1 X106.565 Y82.111 E32.60251
G1 X106.47 Y82.253 E32.61104
G1 X106.298 Y82.531 E32.62735
G1 X106.214 Y82.69 E32.63632
G1 X106.083 Y82.974 E32.65192
G1 X106.011 Y83.15 E32.66141
G1 X105.92 Y83.434 E32.67629
G1 X105.863 Y83.624 E32.68618
G1 X105.773 Y84.102 E32.71045
G1 X105.739 Y84.58 E32.73436
G1 X105.744 Y84.832 E32.74693
G1 X105.758 Y85.049 E32.75778
G1 X105.791 Y85.316 E32.7712
G1 X105.826 Y85.499 E32.7805
G1 X105.89 Y85.779 E32.79483
G1 X106.034 Y86.211 E32.81755
G1 X106.216 Y86.604 E32.83915
G1 X106.409 Y86.958 E32.85927
G1 X106.62 Y87.303 E32.87944
G1 X106.871 Y87.633 E32.90013
G1 X107.152 Y87.936 E32.92075
G1 X107.464 Y88.209 E32.94143
G1 X107.803 Y88.449 E32.96215
G1 X108.162 Y88.653 E32.98275
G1 X108.542 Y88.82 E33.00346
G1 X108.728 Y88.882 E33.01324
G1 X109.052 Y88.975 E33.03006
G1 X109.25 Y89.019 E33.04018
G1 X109.77 Y89.084 E33.06632
G0 F6000 X109.97 Y89.085
G0 X109.966 Y89.525
G1 F1500 E26.56632
G0 F6000 X109.743 Y139.711
G0 X109.743 Y139.484
;TYPE:WALL-INNER
G1 F1500 E33.06632
G1 F1200 X110.01 Y139.486 E33.07964
G1 X110.303 Y139.479 E33.09427
G1 X110.582 Y139.452 E33.10825
G1 X111.106 Y139.351 E33.13487
G1 X111.422 Y139.256 E33.15134
G1 X111.6 Y139.193 E33.16076
G1 X111.92 Y139.059 E33.17806
G1 X112.339 Y138.832 E33.20184
G1 X112.694 Y138.606 E33.22283
G1 X113.066 Y138.348 E33.24542
G1 X113.117 Y138.299 E33.24895
G1 X113.401 Y138.055 E33.26763
G1 X113.719 Y137.718 E33.29075
G1 X114.006 Y137.346 E33.31419
G1 X114.253 Y136.943 E33.33777
G1 X114.46 Y136.517 E33.3614
G1 X114.624 Y136.068 E33.38525
G1 X114.677 Y135.858 E33.39605
G1 X114.759 Y135.51 E33.41389
G1 X114.792 Y135.283 E33.42533
G1 X114.824 Y134.939 E33.44257
G1 X114.834 Y134.703 E33.45435
G1 X114.809 Y134.134 E33.48277
G1 X114.765 Y133.871 E33.49607
G1 X114.712 Y133.577 E33.51098
G1 X114.641 Y133.307 E33.5249
G1 X114.556 Y133.036 E33.53907
G1 X114.452 Y132.763 E33.55365
G1 X114.341 Y132.526 E33.56671
G1 X114.204 Y132.255 E33.58185
G1 X113.912 Y131.788 E33.60933
G1 X113.678 Y131.492 E33.62816
G1 X113.569 Y131.36 E33.6367
G1 X113.289 Y131.074 E33.65667
G1 X113.196 Y130.986 E33.66305
G1 X112.856 Y130.702 E33.68516
G1 X112.568 Y130.503 E33.70262
G1 X112.361 Y130.383 E33.71456
G1 X111.866 Y130.161 E33.74162
G1 X111.353 Y129.995 E33.76852
G1 X111.119 Y129.942 E33.78049
G1 X110.819 Y129.878 E33.7958
G1 X110.281 Y129.822 E33.82278
G1 X109.93 Y129.821 E33.8403
G1 X109.699 Y129.838 E33.85185
G1 X109.155 Y129.937 E33.87944
G1 X108.698 Y130.068 E33.90316
G1 X108.622 Y130.095 E33.90718
G1 X108.214 Y130.26 E33.92914
G1 X108.124 Y130.304 E33.93413
G1 X107.758 Y130.496 E33.95475
G1 X107.655 Y130.561 E33.96083
G1 X107.333 Y130.775 E33.98012
G1 X107.22 Y130.863 E33.98726
G1 X106.94 Y131.095 E34.00541
G1 X106.822 Y131.209 E34.01359
G1 X106.586 Y131.449 E34.03038
G1 X106.466 Y131.591 E34.03966
G1 X106.241 Y131.875 E34.05774
G1 X106.134 Y132.036 E34.06738
G1 X105.951 Y132.332 E34.08474
G1 X105.855 Y132.513 E34.09496
G1 X105.716 Y132.814 E34.1115
G1 X105.635 Y133.013 E34.12222
G1 X105.538 Y133.315 E34.13805
G1 X105.474 Y133.529 E34.14919
G1 X105.376 Y134.051 E34.17569
G1 X105.339 Y134.57 E34.20165
G1 X105.344 Y134.849 E34.21557
G1 X105.36 Y135.086 E34.22742
G1 X105.396 Y135.378 E34.2421
G1 X105.434 Y135.581 E34.2524
G1 X105.504 Y135.887 E34.26806
G1 X105.662 Y136.359 E34.2929
G1 X105.859 Y136.784 E34.31627
G1 X106.063 Y137.158 E34.33752
G1 X106.289 Y137.529 E34.35919
G1 X106.564 Y137.891 E34.38187
G1 X106.873 Y138.223 E34.4045
G1 X107.216 Y138.524 E34.42727
G1 X107.588 Y138.787 E34.45
G1 X107.982 Y139.011 E34.47261
G1 X108.398 Y139.194 E34.49528
G1 X108.61 Y139.264 E34.50642
G1 X108.953 Y139.363 E34.52423
G1 X109.182 Y139.414 E34.53594
G1 X109.743 Y139.484 E34.56414
G0 F6000 X109.77 Y139.084
;TYPE:WALL-OUTER
G1 F1200 X110.007 Y139.086 E34.57597
G1 X110.279 Y139.079 E34.58954
G1 X110.525 Y139.056 E34.60187
G1 X111.01 Y138.962 E34.62652
G1 X111.298 Y138.876 E34.64151
G1 X111.456 Y138.82 E34.64987
G1 X111.747 Y138.698 E34.66562
G1 X112.136 Y138.487 E34.68769
G1 X112.473 Y138.273 E34.70761
G1 X112.811 Y138.038 E34.72815
G1 X112.839 Y138.011 E34.73009
G1 X113.124 Y137.765 E34.74887
G1 X113.415 Y137.458 E34.76998
G1 X113.676 Y137.119 E34.79132
G1 X113.902 Y136.751 E34.81287
G1 X114.091 Y136.361 E34.83449
G1 X114.241 Y135.95 E34.85632
G1 X114.288 Y135.763 E34.86594
G1 X114.366 Y135.435 E34.88276
G1 X114.395 Y135.236 E34.89279
G1 X114.425 Y134.912 E34.90902
G1 X114.434 Y134.703 E34.91946
G1 X114.41 Y134.176 E34.94578
G1 X114.371 Y133.939 E34.95776
G1 X114.321 Y133.663 E34.97176
G1 X114.257 Y133.418 E34.98439
G1 X114.178 Y133.168 E34.99747
G1 X114.083 Y132.919 E35.01076
G1 X113.981 Y132.701 E35.02277
G1 X113.855 Y132.451 E35.03674
G1 X113.585 Y132.019 E35.06216
G1 X113.367 Y131.744 E35.07966
G1 X113.271 Y131.628 E35.08718
G1 X113.008 Y131.359 E35.10594
G1 X112.93 Y131.285 E35.11131
G1 X112.613 Y131.021 E35.13189
G1 X112.354 Y130.841 E35.14763
G1 X112.179 Y130.74 E35.15771
G1 X111.722 Y130.535 E35.18269
G1 X111.247 Y130.381 E35.20761
G1 X111.034 Y130.333 E35.2185
G1 X110.756 Y130.274 E35.23268
G1 X110.259 Y130.222 E35.25761
G1 X109.944 Y130.221 E35.27332
G1 X109.749 Y130.235 E35.28308
G1 X109.246 Y130.327 E35.30859
G1 X108.82 Y130.449 E35.3307
G1 X108.764 Y130.469 E35.33366
G1 X108.378 Y130.625 E35.35443
G1 X108.305 Y130.661 E35.3585
G1 X107.958 Y130.843 E35.37804
G1 X107.873 Y130.897 E35.38307
G1 X107.567 Y131.1 E35.40139
G1 X107.471 Y131.175 E35.40747
