;FLAVOR:Marlin
;TIME:10757
;Filament used: 7.54545m
;Layer height: 0.3
;MINX:73.079
;MINY:72.079
;MINZ:0.3
;MAXX:146.921
;MAXY:147.921
;MAXZ:55.5
;Generated with Cura_SteamEngine 4.8.0
M140 S60
M105
M190 S60
M104 S200
M105
M109 S200
M82 ;absolute extrusion mode
G21 
G90
M107
G28 X0 Y0
G28 Z0
G1 Z15.0 F{travel_xy_speed}
G29
G92 E0
G1 F200 E10
G92 E0
G1 F{travel_xy_speed}
M117 Printing...
G92 E0
G92 E0
G1 F1500 E-6.5
;LAYER_COUNT:185
;LAYER:0
M107
M204 S1000
G0 F6000 X87.096 Y76.656 Z0.3
;TYPE:SKIRT
G1 F1500 E0
G1 F1200 X87.294 Y76.454 E0.01411
G1 X88.02 Y75.766 E0.06401
G1 X88.616 Y75.223 E0.10424
G1 X89.167 Y74.735 E0.14096
G1 X89.324 Y74.604 E0.15116
G1 X89.623 Y74.37 E0.1701
G1 X90.536 Y73.691 E0.22687
G1 X91.123 Y73.267 E0.26299
G1 X91.58 Y72.986 E0.28976
G1 X92.074 Y72.776 E0.31654
G1 X92.593 Y72.642 E0.34328
G1 X93.117 Y72.587 E0.36957
G1 X93.836 Y72.564 E0.40546
G1 X96.565 Y72.442 E0.54174
G1 X99.263 Y72.244 E0.67671
G1 X99.758 Y72.198 E0.70151
G1 X100.679 Y72.13 E0.74758
G1 X100.938 Y72.118 E0.76052
G1 X102.057 Y72.081 E0.81638
G1 X102.267 Y72.079 E0.82686
G1 X117.559 Y72.079 E1.58978
G1 X118.546 Y72.094 E1.63902
G1 X119.082 Y72.118 E1.66579
G1 X120.601 Y72.216 E1.74173
G1 X121.724 Y72.305 E1.79793
G1 X124.401 Y72.44 E1.93166
G1 X125.931 Y72.485 E2.00803
G1 X126.616 Y72.499 E2.04221
G1 X127.15 Y72.55 E2.06897
G1 X127.67 Y72.68 E2.09571
G1 X128.165 Y72.886 E2.12246
G1 X128.706 Y73.222 E2.15423
G1 X129.392 Y73.74 E2.19712
G1 X129.824 Y74.076 E2.22442
G1 X130.413 Y74.55 E2.26214
G1 X130.663 Y74.765 E2.27859
G1 X130.849 Y74.933 E2.2911
G1 X131.307 Y75.363 E2.32244
G1 X131.651 Y75.735 E2.34772
G1 X132.123 Y76.324 E2.38537
G1 X132.476 Y76.779 E2.4141
G1 X132.963 Y77.426 E2.4545
G1 X133.41 Y78.055 E2.493
G1 X134.213 Y79.216 E2.56343
G1 X135.859 Y81.458 E2.70219
G1 X137.515 Y83.584 E2.83664
G1 X139.255 Y85.693 E2.97304
G1 X141.063 Y87.76 E3.11005
G1 X142.145 Y88.944 E3.19007
G1 X142.373 Y89.192 E3.20688
G1 X142.723 Y89.589 E3.23328
G1 X142.976 Y89.895 E3.25309
G1 X143.301 Y90.306 E3.27923
G1 X143.733 Y90.87 E3.31468
G1 X143.913 Y91.127 E3.33033
G1 X144.401 Y91.895 E3.37573
G1 X144.558 Y92.151 E3.39071
G1 X144.869 Y92.673 E3.42102
G1 X145.024 Y92.963 E3.43743
G1 X145.399 Y93.747 E3.48079
G1 X145.591 Y94.183 E3.50455
G1 X145.673 Y94.386 E3.51548
G1 X145.959 Y95.168 E3.55702
G1 X145.997 Y95.277 E3.56278
G1 X146.16 Y95.771 E3.58873
G1 X146.21 Y95.935 E3.59728
G1 X146.384 Y96.561 E3.6297
G1 X146.427 Y96.732 E3.6385
G1 X146.532 Y97.197 E3.66228
G1 X146.654 Y97.814 E3.69366
G1 X146.708 Y98.144 E3.71034
G1 X146.764 Y98.558 E3.73118
G1 X146.779 Y98.687 E3.73766
G1 X146.859 Y99.496 E3.77822
G1 X146.903 Y100.118 E3.80933
G1 X146.915 Y100.425 E3.82466
G1 X146.921 Y100.923 E3.8495
G1 X146.921 Y116.956 E4.64939
G1 X146.908 Y117.764 E4.68971
G1 X146.894 Y118.069 E4.70494
G1 X146.879 Y118.283 E4.71565
G1 X146.803 Y119.103 E4.75673
G1 X146.744 Y119.599 E4.78165
G1 X146.69 Y119.97 E4.80036
G1 X146.653 Y120.18 E4.81099
G1 X146.47 Y121.065 E4.85608
G1 X146.412 Y121.307 E4.8685
G1 X146.148 Y122.25 E4.91735
G1 X146.104 Y122.393 E4.92482
G1 X145.993 Y122.733 E4.94266
G1 X145.771 Y123.382 E4.97688
G1 X145.628 Y123.746 E4.99639
G1 X145.508 Y124.024 E5.0115
G1 X145.21 Y124.66 E5.04654
G1 X145.024 Y125.024 E5.06693
G1 X144.77 Y125.477 E5.09284
G1 X144.116 Y126.572 E5.15647
G1 X143.963 Y126.807 E5.17046
G1 X143.848 Y126.967 E5.18029
G1 X143.47 Y127.471 E5.21173
G1 X142.995 Y128.074 E5.25002
G1 X142.862 Y128.233 E5.26036
G1 X142.309 Y128.857 E5.30196
G1 X142.125 Y129.057 E5.31552
G1 X141.519 Y129.702 E5.35967
G1 X141.419 Y129.804 E5.3668
G1 X140.914 Y130.301 E5.40215
G1 X128.886 Y142.327 E6.25072
G1 X128.227 Y142.966 E6.29651
G1 X127.785 Y143.373 E6.32649
G1 X127.386 Y143.723 E6.35297
G1 X127.215 Y143.864 E6.36403
G1 X126.371 Y144.517 E6.41727
G1 X126.264 Y144.597 E6.42393
G1 X126 Y144.786 E6.44013
G1 X125.822 Y144.906 E6.45084
G1 X124.945 Y145.458 E6.50254
G1 X124.824 Y145.531 E6.50959
G1 X124.383 Y145.785 E6.53498
G1 X124.212 Y145.877 E6.54467
G1 X123.886 Y146.042 E6.5629
G1 X123.453 Y146.247 E6.5868
G1 X123.024 Y146.442 E6.61031
G1 X122.816 Y146.529 E6.62156
G1 X121.774 Y146.926 E6.67719
G1 X121.646 Y146.972 E6.68397
G1 X121.377 Y147.063 E6.69814
G1 X121.168 Y147.127 E6.70905
G1 X120.165 Y147.4 E6.76091
G1 X119.714 Y147.509 E6.78405
G1 X119.482 Y147.556 E6.79586
G1 X118.48 Y147.725 E6.84656
G1 X118.041 Y147.786 E6.86867
G1 X117.81 Y147.81 E6.88026
G1 X116.731 Y147.886 E6.93422
G1 X116.598 Y147.893 E6.94087
G1 X115.86 Y147.917 E6.97771
G1 X115.508 Y147.921 E6.99527
G1 X104.646 Y147.921 E7.53718
G1 X103.79 Y147.909 E7.57989
G1 X103.18 Y147.885 E7.61034
G1 X102.582 Y147.848 E7.64023
G1 X102.357 Y147.826 E7.65151
G1 X101.148 Y147.671 E7.71232
G1 X100.88 Y147.628 E7.72587
G1 X100.64 Y147.581 E7.73807
G1 X99.597 Y147.34 E7.79147
G1 X99.48 Y147.311 E7.79749
G1 X98.54 Y147.06 E7.84603
G1 X96.643 Y146.527 E7.94433
G1 X93.101 Y145.655 E8.12632
G1 X92.831 Y145.593 E8.14014
G1 X92.318 Y145.435 E8.16692
G1 X91.835 Y145.203 E8.19365
G1 X91.391 Y144.901 E8.22044
G1 X91.134 Y144.676 E8.23749
G1 X90.357 Y143.925 E8.2914
G1 X87.569 Y141.129 E8.48839
G1 X87.069 Y140.613 E8.52424
G1 X86.69 Y140.152 E8.55401
G1 X86.61 Y140.036 E8.56104
G1 X85.023 Y137.787 E8.69837
G1 X83.404 Y135.622 E8.83324
G1 X81.695 Y133.47 E8.97034
G1 X79.955 Y131.4 E9.10525
G1 X78.014 Y129.224 E9.25073
G1 X77.454 Y128.613 E9.29207
G1 X76.996 Y128.084 E9.32698
G1 X76.762 Y127.797 E9.34546
G1 X76.64 Y127.639 E9.35542
G1 X76.192 Y127.041 E9.3927
G1 X76.018 Y126.79 E9.40793
G1 X75.743 Y126.355 E9.43361
G1 X75.6 Y126.121 E9.44729
G1 X75.21 Y125.461 E9.48554
G1 X75.124 Y125.304 E9.49447
G1 X74.893 Y124.86 E9.51944
G1 X74.563 Y124.185 E9.55692
G1 X74.442 Y123.91 E9.57191
G1 X74.328 Y123.614 E9.58774
G1 X74.217 Y123.302 E9.60426
G1 X74.087 Y122.929 E9.62396
G1 X73.884 Y122.319 E9.65604
G1 X73.798 Y122.034 E9.67089
G1 X73.761 Y121.902 E9.67773
G1 X73.494 Y120.878 E9.73052
G1 X73.432 Y120.604 E9.74454
G1 X73.356 Y120.2 E9.76505
G1 X73.268 Y119.601 E9.79525
G1 X73.245 Y119.407 E9.805
G1 X73.186 Y118.766 E9.83712
G1 X73.146 Y118.253 E9.86279
G1 X73.092 Y117.407 E9.90508
G1 X73.084 Y117.18 E9.91641
G1 X73.079 Y116.745 E9.93812
G1 X73.079 Y101.109 E10.7182
G1 X73.089 Y100.402 E10.75348
G1 X73.112 Y99.876 E10.77974
G1 X73.138 Y99.489 E10.79909
G1 X73.195 Y98.831 E10.83204
G1 X73.234 Y98.531 E10.84714
G1 X73.357 Y97.817 E10.88328
G1 X73.555 Y96.847 E10.93267
G1 X73.61 Y96.616 E10.94452
G1 X73.874 Y95.656 E10.99419
G1 X73.974 Y95.333 E11.01106
G1 X74.084 Y95.019 E11.02766
G1 X74.253 Y94.58 E11.05113
G1 X74.346 Y94.359 E11.06309
G1 X74.744 Y93.472 E11.1116
G1 X74.978 Y92.986 E11.13851
G1 X75.162 Y92.643 E11.15793
G1 X75.212 Y92.555 E11.16298
G1 X75.577 Y91.94 E11.19866
G1 X75.974 Y91.299 E11.23627
G1 X76.101 Y91.11 E11.24763
G1 X76.397 Y90.696 E11.27302
G1 X76.799 Y90.168 E11.30613
G1 X76.949 Y89.984 E11.31797
G1 X78.091 Y88.674 E11.40468
G1 X79.882 Y86.559 E11.54295
G1 X81.595 Y84.416 E11.67982
G1 X83.212 Y82.27 E11.81388
G1 X84.809 Y80.022 E11.95145
G1 X86.013 Y78.226 E12.05932
G1 X86.309 Y77.781 E12.08599
G1 X86.405 Y77.629 E12.09496
G1 X86.768 Y77.08 E12.12779
G1 X87.096 Y76.656 E12.15454
G0 F6000 X87.569 Y76.744
G1 F1200 X88.29 Y76.062 E12.20405
G1 X88.881 Y75.522 E12.24399
G1 X89.432 Y75.034 E12.28071
G1 X89.572 Y74.918 E12.28978
G1 X89.861 Y74.691 E12.30811
G1 X90.77 Y74.015 E12.36463
G1 X91.357 Y73.591 E12.40076
G1 X91.789 Y73.328 E12.42599
G1 X92.257 Y73.137 E12.45121
G1 X92.749 Y73.021 E12.47643
G1 X93.129 Y72.987 E12.49546
G1 X93.811 Y72.965 E12.5295
G1 X96.612 Y72.84 E12.66938
G1 X99.33 Y72.641 E12.80535
G1 X99.788 Y72.597 E12.8283
G1 X100.698 Y72.53 E12.87383
G1 X100.951 Y72.518 E12.88646
G1 X102.061 Y72.481 E12.94187
G1 X102.271 Y72.479 E12.95235
G1 X117.554 Y72.479 E13.71482
G1 X118.434 Y72.491 E13.75873
G1 X118.99 Y72.514 E13.78649
G1 X120.569 Y72.615 E13.86543
G1 X121.671 Y72.702 E13.92058
G1 X124.415 Y72.841 E14.05765
G1 X125.92 Y72.885 E14.13277
G1 X126.607 Y72.899 E14.16705
G1 X127.11 Y72.949 E14.19227
G1 X127.599 Y73.078 E14.2175
G1 X128.062 Y73.283 E14.24276
G1 X128.465 Y73.542 E14.26666
G1 X129.147 Y74.056 E14.30927
G1 X129.573 Y74.387 E14.33619
G1 X130.154 Y74.855 E14.37341
G1 X130.396 Y75.062 E14.38929
G1 X130.575 Y75.225 E14.40137
G1 X131.033 Y75.655 E14.43271
G1 X131.339 Y75.985 E14.45517
G1 X131.808 Y76.57 E14.49257
G1 X132.157 Y77.019 E14.52095
G1 X132.588 Y77.591 E14.55668
G1 X133.082 Y78.282 E14.59905
G1 X133.923 Y79.498 E14.67282
G1 X135.52 Y81.672 E14.8074
G1 X137.224 Y83.861 E14.94579
G1 X138.922 Y85.919 E15.07891
G1 X140.784 Y88.048 E15.22001
G1 X141.852 Y89.217 E15.29901
G1 X142.074 Y89.457 E15.31532
G1 X142.415 Y89.845 E15.34109
G1 X142.663 Y90.144 E15.36047
G1 X142.983 Y90.549 E15.38622
G1 X143.415 Y91.113 E15.42167
G1 X143.575 Y91.341 E15.43556
G1 X144.06 Y92.105 E15.48071
G1 X144.214 Y92.356 E15.4954
G1 X144.525 Y92.878 E15.52572
G1 X144.663 Y93.135 E15.54027
G1 X145.038 Y93.919 E15.58363
G1 X145.225 Y94.343 E15.60675
G1 X145.297 Y94.524 E15.61647
G1 X145.617 Y95.402 E15.66309
G1 X145.78 Y95.896 E15.68904
G1 X145.824 Y96.042 E15.69665
G1 X145.998 Y96.668 E15.72906
G1 X146.036 Y96.82 E15.73688
G1 X146.159 Y97.368 E15.7649
G1 X146.259 Y97.881 E15.79098
G1 X146.311 Y98.198 E15.807
G1 X146.367 Y98.612 E15.82785
G1 X146.38 Y98.726 E15.83357
G1 X146.469 Y99.632 E15.87899
G1 X146.509 Y100.241 E15.90944
G1 X146.515 Y100.429 E15.91882
G1 X146.521 Y100.927 E15.94367
G1 X146.521 Y116.95 E16.74306
G1 X146.511 Y117.655 E16.77823
G1 X146.495 Y118.044 E16.79766
G1 X146.481 Y118.247 E16.80781
G1 X146.406 Y119.057 E16.84839
G1 X146.349 Y119.541 E16.87271
G1 X146.295 Y119.912 E16.89141
G1 X146.262 Y120.099 E16.90089
G1 X146.079 Y120.984 E16.94597
G1 X146.027 Y121.199 E16.95701
G1 X145.763 Y122.142 E17.00586
G1 X145.724 Y122.269 E17.01249
G1 X145.615 Y122.604 E17.03007
G1 X145.393 Y123.253 E17.06429
G1 X145.259 Y123.592 E17.08247
G1 X145.141 Y123.864 E17.09727
G1 X144.852 Y124.482 E17.1313
G1 X144.675 Y124.828 E17.15069
G1 X144.376 Y125.359 E17.1811
G1 X143.773 Y126.367 E17.2397
G1 X143.576 Y126.661 E17.25735
G1 X143.204 Y127.16 E17.2884
G1 X142.681 Y127.826 E17.33065
G1 X142.562 Y127.968 E17.33989
G1 X142.014 Y128.586 E17.3811
G1 X141.833 Y128.783 E17.39445
G1 X141.227 Y129.428 E17.4386
G1 X141.138 Y129.519 E17.44495
G1 X140.631 Y130.018 E17.48044
G1 X128.608 Y142.04 E18.3287
G1 X127.956 Y142.672 E18.374
G1 X127.521 Y143.073 E18.40352
G1 X127.122 Y143.423 E18.42999
G1 X126.97 Y143.548 E18.43981
G1 X126.126 Y144.201 E18.49305
G1 X126.031 Y144.272 E18.49897
G1 X125.767 Y144.461 E18.51517
G1 X125.609 Y144.567 E18.52466
G1 X124.732 Y145.119 E18.57636
G1 X124.624 Y145.184 E18.58265
G1 X124.183 Y145.438 E18.60804
G1 X124.031 Y145.52 E18.61665
G1 X123.624 Y145.725 E18.63939
G1 X123.287 Y145.883 E18.65796
G1 X122.858 Y146.078 E18.68147
G1 X122.673 Y146.155 E18.69147
G1 X121.631 Y146.552 E18.7471
G1 X121.517 Y146.593 E18.75314
G1 X121.248 Y146.684 E18.76731
G1 X121.063 Y146.741 E18.77697
G1 X120.06 Y147.014 E18.82883
G1 X119.622 Y147.119 E18.8513
G1 X119.415 Y147.161 E18.86184
G1 X118.312 Y147.346 E18.91763
G1 X117.988 Y147.39 E18.93395
G1 X117.782 Y147.411 E18.94428
G1 X116.703 Y147.487 E18.99824
G1 X116.585 Y147.493 E19.00414
G1 X115.855 Y147.517 E19.04058
G1 X115.503 Y147.521 E19.05814
G1 X104.651 Y147.521 E19.59955
G1 X103.795 Y147.509 E19.64226
G1 X103.124 Y147.482 E19.67576
G1 X102.607 Y147.449 E19.70161
G1 X102.407 Y147.429 E19.71163
G1 X101.211 Y147.276 E19.77179
G1 X100.943 Y147.233 E19.78533
G1 X100.73 Y147.191 E19.79616
G1 X99.687 Y146.95 E19.84957
G1 X99.583 Y146.924 E19.85492
G1 X98.648 Y146.675 E19.90319
G1 X96.728 Y146.135 E20.00269
G1 X93.196 Y145.266 E20.18416
G1 X92.92 Y145.203 E20.19829
G1 X92.437 Y145.052 E20.22353
G1 X91.985 Y144.827 E20.24872
G1 X91.412 Y144.388 E20.28474
G1 X90.64 Y143.643 E20.33826
G1 X87.856 Y140.851 E20.53497
G1 X87.356 Y140.335 E20.57082
G1 X87.02 Y139.925 E20.59726
G1 X85.342 Y137.546 E20.7425
G1 X83.721 Y135.379 E20.87752
G1 X82.013 Y133.226 E21.01463
G1 X80.244 Y131.123 E21.15173
G1 X78.344 Y128.993 E21.29413
G1 X77.756 Y128.351 E21.33756
G1 X77.305 Y127.83 E21.37194
G1 X77.077 Y127.551 E21.38992
G1 X76.96 Y127.4 E21.39945
G1 X76.512 Y126.802 E21.43673
G1 X76.35 Y126.568 E21.45092
G1 X76.062 Y126.11 E21.47792
G1 X75.944 Y125.917 E21.4892
G1 X75.56 Y125.267 E21.52687
G1 X75.479 Y125.119 E21.53528
G1 X75.211 Y124.602 E21.56434
G1 X74.922 Y124.01 E21.5972
G1 X74.815 Y123.765 E21.61054
G1 X74.705 Y123.478 E21.62588
G1 X74.594 Y123.17 E21.64221
G1 X74.466 Y122.803 E21.6616
G1 X74.296 Y122.295 E21.68833
G1 X74.181 Y121.918 E21.70799
G1 X73.882 Y120.777 E21.76684
G1 X73.824 Y120.526 E21.77969
G1 X73.752 Y120.142 E21.79918
G1 X73.664 Y119.543 E21.82939
G1 X73.643 Y119.371 E21.83803
G1 X73.585 Y118.734 E21.86994
G1 X73.545 Y118.227 E21.89532
G1 X73.491 Y117.392 E21.93706
G1 X73.484 Y117.176 E21.94784
G1 X73.479 Y116.741 E21.96955
G1 X73.479 Y101.115 E22.74913
G1 X73.492 Y100.305 E22.78955
G1 X73.516 Y99.818 E22.81387
G1 X73.537 Y99.524 E22.82858
G1 X73.594 Y98.866 E22.86153
G1 X73.628 Y98.599 E22.87496
G1 X73.77 Y97.784 E22.91623
G1 X73.946 Y96.927 E22.95988
G1 X73.996 Y96.722 E22.97041
G1 X74.29 Y95.658 E23.02548
G1 X74.421 Y95.262 E23.04629
G1 X74.586 Y94.826 E23.06955
G1 X74.711 Y94.523 E23.0859
G1 X75.109 Y93.636 E23.1344
G1 X75.338 Y93.16 E23.16075
G1 X75.512 Y92.837 E23.17906
G1 X75.556 Y92.759 E23.18353
G1 X75.918 Y92.151 E23.21883
G1 X76.315 Y91.51 E23.25645
G1 X76.427 Y91.341 E23.26656
G1 X76.653 Y91.023 E23.28602
G1 X77.117 Y90.411 E23.32434
G1 X77.25 Y90.247 E23.33487
G1 X78.421 Y88.903 E23.42381
G1 X80.202 Y86.801 E23.56126
G1 X81.881 Y84.7 E23.69544
G1 X83.554 Y82.48 E23.83412
G1 X85.134 Y80.255 E23.97027
G1 X86.345 Y78.449 E24.07875
G1 X86.659 Y77.976 E24.10708
G1 X86.739 Y77.85 E24.11452
G1 X87.102 Y77.301 E24.14736
G1 X87.569 Y76.744 E24.18362
G1 F1500 E17.68362
G0 F6000 X89.48 Y78.408
G0 X90.063 Y79.047
;TYPE:SUPPORT
G1 F1500 E24.18362
G1 F1200 X91.665 Y77.585 E24.29182
G1 X93.196 Y76.449 E24.38694
G1 X93.809 Y77.193 E24.43503
G1 X92.658 Y78.044 E24.50645
G1 X91.625 Y78.978 E24.57592
G1 X90.77 Y79.834 E24.63628
G1 X90.063 Y79.047 E24.68906
G0 F6000 X90.678 Y78.594
G1 F1200 X90.678 Y79.611 E24.7398
G0 F6000 X92.126 Y77.343
G1 F1200 X93.47 Y77.343 E24.80686
G0 F6000 X93.345 Y77.436
G1 F1200 X93.345 Y76.756 E24.84078
G1 F1500 E18.34078
G0 F6000 X94.073 Y76.156
G0 X83.772 Y91.403
G0 X82.907 Y91.665
G1 F1500 E24.84078
G1 F1200 X82.979 Y91.838 E24.85013
G1 X83.23 Y92.042 E24.86627
G1 X82.583 Y92.687 E24.91184
G1 X79.079 Y96.194 E25.15918
G1 X79.079 Y121.577 E26.42554
G1 X79.261 Y122.018 E26.44934
G1 X83.069 Y125.823 E26.71791
G1 X82.912 Y126.041 E26.73131
G1 X82.714 Y126.517 E26.75703
G1 X81.039 Y126.516 E26.8406
G1 X80.93 Y126.78 E26.85485
G1 X80.741 Y126.591 E26.86818
G1 X80.459 Y126.242 E26.89057
G1 X79.929 Y125.683 E26.929
G1 X79.248 Y124.799 E26.98467
G1 X78.519 Y123.611 E27.05421
G1 X77.977 Y122.543 E27.11396
G1 X77.474 Y121.106 E27.18992
G1 X77.294 Y120.472 E27.2228
G1 X77.152 Y119.88 E27.25317
G1 X77.025 Y119.111 E27.29206
G1 X76.879 Y117.279 E27.38375
G1 X76.879 Y100.453 E28.2232
G1 X76.972 Y99.142 E28.28877
G1 X77.219 Y97.833 E28.35523
G1 X77.328 Y97.344 E28.38022
G1 X77.569 Y96.533 E28.42243
G1 X77.745 Y96.083 E28.44654
G1 X77.748 Y96.058 E28.4478
G1 X77.988 Y95.496 E28.47829
G1 X78.383 Y94.648 E28.52496
G1 X79.188 Y93.307 E28.60299
G1 X79.91 Y92.339 E28.66324
G1 X80.753 Y91.41 E28.72582
G1 X80.858 Y91.665 E28.73958
G1 X82.907 Y91.665 E28.8418
G0 F6000 X82.677 Y91.745
G1 F1200 X82.677 Y92.481 E28.87852
G0 F6000 X81.812 Y93.345
G1 F1200 X79.26 Y93.345 E29.00584
G0 F6000 X80.01 Y92.347
G1 F1200 X80.01 Y95.15 E29.14569
G0 F6000 X79.147 Y96.012
G1 F1200 X77.855 Y96.012 E29.21014
G0 F6000 X77.343 Y97.644
G1 F1200 X77.343 Y120.334 E30.34215
G0 F6000 X77.264 Y120.015
G1 F1200 X78.998 Y120.015 E30.42866
G0 F6000 X78.999 Y117.348
G1 F1200 X76.964 Y117.348 E30.53019
G0 F6000 X76.959 Y114.681
G1 F1200 X78.999 Y114.681 E30.63197
G0 F6000 X78.999 Y112.014
G1 F1200 X76.959 Y112.014 E30.73374
G0 F6000 X76.959 Y109.347
