;FLAVOR:Marlin
;TIME:4602
;Filament used: 2.40464m
;Layer height: 0.2
;MINX:86.451
;MINY:86.451
;MINZ:0.3
;MAXX:133.549
;MAXY:133.549
;MAXZ:9.9
;Generated with Cura_SteamEngine 4.8.0
M140 S60
M105
M190 S60
M104 S200
M105
M109 S200
M82 ;absolute extrusion mode
G21 
G90
M107
G28 X0 Y0
G28 Z0
G1 Z15.0 F{travel_xy_speed}
G29
G92 E0
G1 F200 E10
G92 E0
G1 F{travel_xy_speed}
M117 Printing...
G92 E0
G92 E0
G1 F1500 E-6.5
;LAYER_COUNT:49
;LAYER:0
M107
M204 S1000
G0 F6000 X93.434 Y93.257 Z0.3
;TYPE:SKIRT
G1 F1500 E0
G1 F1200 X94.068 Y92.655 E0.04362
G1 X94.414 Y92.344 E0.06683
G1 X94.903 Y91.923 E0.09902
G1 X95.238 Y91.648 E0.12064
G1 X95.991 Y91.066 E0.16812
G1 X96.22 Y90.899 E0.18226
G1 X96.907 Y90.421 E0.22402
G1 X97.129 Y90.274 E0.2373
G1 X97.847 Y89.826 E0.27952
G1 X98.152 Y89.645 E0.29722
G1 X98.915 Y89.219 E0.34082
G1 X99.178 Y89.08 E0.35566
G1 X99.846 Y88.75 E0.39283
G1 X100.428 Y88.482 E0.4248
G1 X101.081 Y88.202 E0.46024
G1 X101.481 Y88.043 E0.48172
G1 X102.24 Y87.763 E0.52208
G1 X102.585 Y87.646 E0.54025
G1 X103.335 Y87.41 E0.57948
G1 X103.675 Y87.313 E0.59712
G1 X104.389 Y87.126 E0.63394
G1 X104.937 Y86.999 E0.66201
G1 X105.755 Y86.832 E0.70366
G1 X106.019 Y86.787 E0.71702
G1 X106.886 Y86.655 E0.76077
G1 X107.222 Y86.612 E0.77767
G1 X107.914 Y86.54 E0.81238
G1 X108.37 Y86.505 E0.8352
G1 X109.268 Y86.459 E0.88006
G1 X109.618 Y86.451 E0.89753
G1 X110.391 Y86.451 E0.93609
G1 X110.69 Y86.457 E0.95101
G1 X111.627 Y86.504 E0.99782
G1 X112.021 Y86.535 E1.01754
G1 X112.645 Y86.598 E1.04882
G1 X113.215 Y86.671 E1.07749
G1 X113.854 Y86.766 E1.10972
G1 X114.398 Y86.862 E1.13728
G1 X114.987 Y86.982 E1.16727
G1 X115.615 Y87.129 E1.19945
G1 X116.239 Y87.289 E1.23159
G1 X116.741 Y87.434 E1.25766
G1 X117.5 Y87.673 E1.29736
G1 X117.825 Y87.785 E1.31451
G1 X118.598 Y88.073 E1.35566
G1 X118.94 Y88.21 E1.37404
G1 X119.685 Y88.531 E1.41452
G1 X120.037 Y88.694 E1.43387
G1 X120.689 Y89.013 E1.47008
G1 X121.074 Y89.214 E1.49175
G1 X121.833 Y89.635 E1.53505
G1 X122.132 Y89.813 E1.55241
G1 X122.819 Y90.242 E1.59282
G1 X123.159 Y90.467 E1.61316
G1 X123.869 Y90.963 E1.65637
G1 X124.103 Y91.137 E1.67092
G1 X124.72 Y91.615 E1.70986
G1 X125.051 Y91.885 E1.73117
G1 X125.704 Y92.446 E1.77412
G1 X125.935 Y92.656 E1.78969
G1 X126.531 Y93.223 E1.83073
G1 X126.743 Y93.434 E1.84566
G1 X127.347 Y94.07 E1.88941
G1 X127.65 Y94.408 E1.91206
G1 X128.077 Y94.903 E1.94468
G1 X128.352 Y95.238 E1.9663
G1 X128.931 Y95.987 E2.01353
G1 X129.094 Y96.21 E2.02731
G1 X129.523 Y96.825 E2.06472
G1 X129.777 Y97.21 E2.08773
G1 X130.219 Y97.921 E2.1295
G1 X130.384 Y98.202 E2.14576
G1 X130.78 Y98.912 E2.18632
G1 X130.95 Y99.238 E2.20466
G1 X131.294 Y99.937 E2.24353
G1 X131.505 Y100.402 E2.269
G1 X131.783 Y101.044 E2.30391
G1 X131.957 Y101.481 E2.32737
G1 X132.236 Y102.236 E2.36753
G1 X132.325 Y102.495 E2.38119
G1 X132.59 Y103.337 E2.42523
G1 X132.668 Y103.608 E2.4393
G1 X132.898 Y104.487 E2.48463
G1 X133 Y104.934 E2.5075
G1 X133.165 Y105.736 E2.54835
G1 X133.213 Y106.019 E2.56267
G1 X133.344 Y106.877 E2.60598
G1 X133.388 Y107.22 E2.62323
G1 X133.46 Y107.916 E2.65814
G1 X133.495 Y108.371 E2.6809
G1 X133.541 Y109.268 E2.72572
G1 X133.549 Y109.617 E2.74313
G1 X133.548 Y110.475 E2.78594
G1 X133.539 Y110.788 E2.80156
G1 X133.496 Y111.628 E2.84352
G1 X133.465 Y112.021 E2.86319
G1 X133.402 Y112.645 E2.89448
G1 X133.329 Y113.215 E2.92315
G1 X133.234 Y113.854 E2.95538
G1 X133.138 Y114.398 E2.98294
G1 X133.018 Y114.987 E3.01293
G1 X132.871 Y115.615 E3.04511
G1 X132.711 Y116.239 E3.07724
G1 X132.566 Y116.741 E3.10331
G1 X132.329 Y117.496 E3.14279
G1 X132.216 Y117.822 E3.16001
G1 X131.928 Y118.594 E3.20111
G1 X131.796 Y118.924 E3.21885
G1 X131.469 Y119.685 E3.26017
G1 X131.306 Y120.037 E3.27952
G1 X130.987 Y120.689 E3.31574
G1 X130.786 Y121.074 E3.3374
G1 X130.365 Y121.833 E3.3807
G1 X130.233 Y122.057 E3.39368
G1 X129.759 Y122.817 E3.43836
G1 X129.534 Y123.158 E3.45875
G1 X129.095 Y123.788 E3.49705
G1 X128.863 Y124.104 E3.51661
G1 X128.376 Y124.732 E3.55626
G1 X128.114 Y125.052 E3.57689
G1 X127.553 Y125.703 E3.61977
G1 X127.346 Y125.931 E3.63513
G1 X126.777 Y126.531 E3.67639
G1 X126.566 Y126.743 E3.69131
G1 X125.93 Y127.347 E3.73507
G1 X125.592 Y127.65 E3.75771
G1 X125.097 Y128.077 E3.79033
G1 X124.762 Y128.352 E3.81195
G1 X124.009 Y128.934 E3.85943
G1 X123.78 Y129.101 E3.87357
G1 X123.188 Y129.514 E3.90958
G1 X122.767 Y129.792 E3.93475
G1 X122.141 Y130.182 E3.97155
G1 X121.851 Y130.353 E3.98835
G1 X121.016 Y130.817 E4.036
G1 X120.746 Y130.958 E4.0512
G1 X120.08 Y131.285 E4.08822
G1 X119.569 Y131.518 E4.11624
G1 X119.02 Y131.756 E4.14609
G1 X118.605 Y131.923 E4.16841
G1 X117.847 Y132.206 E4.20877
G1 X117.5 Y132.326 E4.22709
G1 X117.413 Y132.355 E4.23167
G1 X116.668 Y132.589 E4.27062
G1 X116.325 Y132.687 E4.28842
G1 X115.611 Y132.874 E4.32524
G1 X115.063 Y133.001 E4.35331
G1 X114.245 Y133.168 E4.39496
G1 X113.981 Y133.213 E4.40832
G1 X113.114 Y133.345 E4.45208
G1 X112.778 Y133.388 E4.46898
G1 X112.086 Y133.46 E4.50369
G1 X111.63 Y133.495 E4.5265
G1 X110.732 Y133.541 E4.57136
G1 X110.382 Y133.549 E4.58883
G1 X109.525 Y133.548 E4.63158
G1 X109.212 Y133.539 E4.64721
G1 X108.372 Y133.496 E4.68917
G1 X107.98 Y133.465 E4.70879
G1 X107.177 Y133.383 E4.74906
G1 X106.824 Y133.337 E4.76682
G1 X106.021 Y133.212 E4.80736
G1 X105.622 Y133.14 E4.82759
G1 X105.015 Y133.017 E4.85849
G1 X104.31 Y132.852 E4.89461
G1 X103.868 Y132.74 E4.91736
G1 X103.346 Y132.592 E4.94443
G1 X102.593 Y132.358 E4.98377
G1 X102.255 Y132.243 E5.00158
G1 X101.477 Y131.956 E5.04295
G1 X101.06 Y131.79 E5.06534
G1 X100.315 Y131.469 E5.10582
G1 X99.963 Y131.306 E5.12517
G1 X99.311 Y130.987 E5.16138
G1 X98.926 Y130.786 E5.18305
G1 X98.169 Y130.366 E5.22624
G1 X97.943 Y130.233 E5.23932
G1 X97.183 Y129.759 E5.28401
G1 X96.843 Y129.535 E5.30432
G1 X96.198 Y129.086 E5.34353
G1 X95.896 Y128.863 E5.36226
G1 X95.268 Y128.376 E5.40191
G1 X94.948 Y128.114 E5.42254
G1 X94.296 Y127.552 E5.46549
G1 X94.068 Y127.345 E5.48085
G1 X93.469 Y126.777 E5.52203
G1 X93.257 Y126.566 E5.53696
G1 X92.653 Y125.93 E5.58071
G1 X92.35 Y125.593 E5.60332
G1 X91.981 Y125.166 E5.63148
G1 X91.581 Y124.678 E5.66296
G1 X91.117 Y124.077 E5.70084
G1 X90.899 Y123.78 E5.71922
G1 X90.423 Y123.096 E5.7608
G1 X90.275 Y122.873 E5.77415
G1 X89.773 Y122.066 E5.82156
G1 X89.601 Y121.771 E5.8386
G1 X89.17 Y120.994 E5.88293
G1 X89.044 Y120.751 E5.89659
G1 X88.75 Y120.154 E5.92979
G1 X88.481 Y119.569 E5.96191
G1 X88.243 Y119.018 E5.99185
G1 X88.037 Y118.504 E6.01948
G1 X87.754 Y117.734 E6.06041
G1 X87.646 Y117.414 E6.07726
G1 X87.376 Y116.552 E6.12232
G1 X87.314 Y116.325 E6.13406
G1 X87.102 Y115.513 E6.17593
G1 X86.999 Y115.063 E6.19896
G1 X86.832 Y114.247 E6.24052
G1 X86.784 Y113.969 E6.25459
G1 X86.662 Y113.172 E6.29482
G1 X86.61 Y112.758 E6.31563
G1 X86.531 Y111.98 E6.35465
G1 X86.497 Y111.517 E6.37781
G1 X86.458 Y110.705 E6.41837
G1 X86.451 Y110.382 E6.43449
G1 X86.452 Y109.515 E6.47774
G1 X86.461 Y109.205 E6.49321
G1 X86.504 Y108.373 E6.53478
G1 X86.535 Y107.983 E6.5543
G1 X86.61 Y107.25 E6.59106
G1 X86.671 Y106.785 E6.61445
G1 X86.766 Y106.146 E6.64668
G1 X86.862 Y105.602 E6.67424
G1 X86.982 Y105.013 E6.70423
G1 X87.129 Y104.385 E6.73641
G1 X87.289 Y103.761 E6.76855
G1 X87.434 Y103.259 E6.79462
G1 X87.673 Y102.5 E6.83432
G1 X87.785 Y102.175 E6.85147
G1 X88.072 Y101.404 E6.89251
G1 X88.209 Y101.062 E6.91089
G1 X88.529 Y100.319 E6.95125
G1 X88.695 Y99.96 E6.97098
G1 X89.014 Y99.309 E7.00715
G1 X89.213 Y98.928 E7.0286
G1 X89.636 Y98.165 E7.07212
G1 X89.821 Y97.855 E7.09013
G1 X90.245 Y97.176 E7.13007
G1 X90.467 Y96.841 E7.15012
G1 X90.957 Y96.139 E7.19283
G1 X91.137 Y95.896 E7.20792
G1 X91.624 Y95.268 E7.24757
G1 X91.884 Y94.951 E7.26802
G1 X92.448 Y94.294 E7.31122
G1 X92.668 Y94.052 E7.32754
G1 X93.224 Y93.468 E7.36777
G1 X93.434 Y93.257 E7.38262
G0 F6000 X93.78 Y93.479
G1 F1200 X94.336 Y92.952 E7.42084
G1 X94.675 Y92.647 E7.44359
G1 X95.157 Y92.233 E7.47529
G1 X95.567 Y91.898 E7.5017
G1 X96.228 Y91.389 E7.54332
G1 X96.449 Y91.227 E7.55699
G1 X97.128 Y90.755 E7.59825
G1 X97.425 Y90.56 E7.61598
G1 X98.126 Y90.124 E7.65716
G1 X98.423 Y89.95 E7.67433
G1 X99.189 Y89.525 E7.71804
G1 X99.425 Y89.403 E7.73129
G1 X100.1 Y89.072 E7.7688
G1 X100.587 Y88.85 E7.7955
G1 X101.23 Y88.573 E7.83043
G1 X101.62 Y88.418 E7.85137
G1 X102.37 Y88.141 E7.89126
G1 X102.705 Y88.028 E7.9089
G1 X103.551 Y87.763 E7.95312
G1 X103.776 Y87.7 E7.96478
G1 X104.58 Y87.491 E8.00623
G1 X105.018 Y87.391 E8.02864
G1 X105.824 Y87.226 E8.06969
G1 X106.08 Y87.182 E8.08265
G1 X106.937 Y87.051 E8.1259
G1 X107.264 Y87.01 E8.14234
G1 X107.956 Y86.938 E8.17705
G1 X108.476 Y86.899 E8.20307
G1 X109.28 Y86.859 E8.24323
G1 X109.618 Y86.851 E8.26009
G1 X110.391 Y86.851 E8.29866
G1 X110.768 Y86.86 E8.31747
G1 X111.596 Y86.903 E8.35884
G1 X111.98 Y86.933 E8.37805
G1 X112.693 Y87.006 E8.41381
G1 X113.157 Y87.067 E8.43716
G1 X113.886 Y87.177 E8.47394
G1 X114.318 Y87.254 E8.49583
G1 X114.998 Y87.394 E8.53047
G1 X115.516 Y87.516 E8.55702
G1 X116.129 Y87.673 E8.58859
G1 X116.622 Y87.815 E8.61419
G1 X117.37 Y88.051 E8.65332
G1 X117.686 Y88.16 E8.67
G1 X118.451 Y88.445 E8.71072
G1 X118.782 Y88.577 E8.7285
G1 X119.518 Y88.895 E8.7685
G1 X119.861 Y89.054 E8.78736
G1 X120.593 Y89.413 E8.82804
G1 X120.88 Y89.564 E8.84422
G1 X121.63 Y89.98 E8.88701
G1 X121.921 Y90.153 E8.9039
G1 X122.6 Y90.577 E8.94383
G1 X122.93 Y90.795 E8.96357
G1 X123.632 Y91.285 E9.00628
G1 X123.858 Y91.453 E9.02033
G1 X124.468 Y91.926 E9.05884
G1 X124.791 Y92.189 E9.07962
G1 X125.436 Y92.743 E9.12204
G1 X125.659 Y92.946 E9.13708
G1 X126.248 Y93.507 E9.17766
G1 X126.521 Y93.78 E9.19692
G1 X127.05 Y94.337 E9.23525
G1 X127.348 Y94.669 E9.25751
G1 X127.716 Y95.095 E9.28559
G1 X128.102 Y95.567 E9.31601
G1 X128.609 Y96.224 E9.35741
G1 X128.766 Y96.439 E9.3707
G1 X129.236 Y97.115 E9.41177
G1 X129.438 Y97.421 E9.43006
G1 X129.875 Y98.124 E9.47136
G1 X130.035 Y98.397 E9.48715
G1 X130.474 Y99.187 E9.53224
G1 X130.592 Y99.415 E9.54505
G1 X130.89 Y100.019 E9.57865
G1 X131.113 Y100.504 E9.60528
G1 X131.412 Y101.194 E9.6428
G1 X131.582 Y101.62 E9.66568
G1 X131.857 Y102.366 E9.70535
G1 X131.973 Y102.706 E9.72327
G1 X132.209 Y103.457 E9.76254
G1 X132.283 Y103.716 E9.77598
G1 X132.508 Y104.578 E9.82043
G1 X132.609 Y105.015 E9.8428
G1 X132.753 Y105.711 E9.87826
G1 X132.807 Y106.011 E9.89347
G1 X132.948 Y106.929 E9.93981
G1 X132.99 Y107.261 E9.9565
G1 X133.062 Y107.957 E9.99141
G1 X133.101 Y108.476 E10.01738
G1 X133.141 Y109.279 E10.05749
G1 X133.149 Y109.617 E10.07436
G1 X133.148 Y110.465 E10.11666
G1 X133.14 Y110.768 E10.13179
G1 X133.097 Y111.598 E10.17325
G1 X133.067 Y111.98 E10.19237
G1 X132.994 Y112.693 E10.22813
G1 X132.933 Y113.157 E10.25147
G1 X132.823 Y113.886 E10.28825
G1 X132.746 Y114.318 E10.31015
G1 X132.606 Y114.998 E10.34478
G1 X132.484 Y115.516 E10.37133
G1 X132.327 Y116.129 E10.4029
G1 X132.185 Y116.622 E10.4285
G1 X131.95 Y117.367 E10.46747
G1 X131.841 Y117.683 E10.48415
G1 X131.556 Y118.447 E10.52483
G1 X131.429 Y118.767 E10.54201
G1 X131.139 Y119.443 E10.57871
G1 X130.946 Y119.861 E10.60168
G1 X130.587 Y120.593 E10.64235
G1 X130.436 Y120.88 E10.65853
G1 X130.02 Y121.63 E10.70132
G1 X129.847 Y121.922 E10.71825
G1 X129.424 Y122.598 E10.75804
G1 X129.257 Y122.853 E10.77324
G1 X128.722 Y123.621 E10.81994
G1 X128.546 Y123.86 E10.83475
G1 X128.066 Y124.479 E10.87383
G1 X127.811 Y124.791 E10.89393
G1 X127.256 Y125.436 E10.93638
G1 X127.056 Y125.656 E10.95122
G1 X126.493 Y126.248 E10.99197
G1 X126.22 Y126.521 E11.01124
G1 X125.663 Y127.05 E11.04956
G1 X125.331 Y127.348 E11.07182
G1 X124.905 Y127.716 E11.0999
G1 X124.433 Y128.102 E11.13032
G1 X123.772 Y128.611 E11.17194
G1 X123.551 Y128.772 E11.18559
G1 X122.891 Y129.231 E11.22569
G1 X122.555 Y129.452 E11.24576
G1 X121.854 Y129.888 E11.28694
G1 X121.587 Y130.043 E11.30235
G1 X120.829 Y130.463 E11.34558
G1 X120.569 Y130.599 E11.36022
G1 X119.913 Y130.921 E11.39668
G1 X119.41 Y131.151 E11.42427
G1 X118.775 Y131.425 E11.45877
G1 X118.384 Y131.58 E11.47976
G1 X117.63 Y131.859 E11.51987
G1 X117.293 Y131.973 E11.53762
G1 X116.548 Y132.207 E11.57657
G1 X116.224 Y132.3 E11.59339
G1 X115.42 Y132.509 E11.63484
G1 X114.982 Y132.609 E11.65725
G1 X114.176 Y132.774 E11.6983
G1 X113.92 Y132.818 E11.71126
G1 X113.063 Y132.949 E11.75451
G1 X112.736 Y132.99 E11.77095
G1 X112.044 Y133.062 E11.80566
G1 X111.524 Y133.101 E11.83168
G1 X110.72 Y133.141 E11.87184
G1 X110.382 Y133.149 E11.8887
G1 X109.535 Y133.148 E11.93096
G1 X109.232 Y133.14 E11.94608
G1 X108.402 Y133.097 E11.98755
G1 X108.02 Y133.067 E12.00667
G1 X107.227 Y132.986 E12.04643
G1 X106.885 Y132.942 E12.06364
G1 X106.165 Y132.831 E12.09998
G1 X105.7 Y132.748 E12.12355
G1 X105.205 Y132.649 E12.14873
G1 X104.408 Y132.464 E12.18955
G1 X103.872 Y132.327 E12.21715
G1 X103.38 Y132.185 E12.2427
G1 X102.626 Y131.948 E12.28213
G1 X102.315 Y131.84 E12.29856
G1 X101.546 Y131.554 E12.33949
G1 X101.218 Y131.422 E12.35713
G1 X100.482 Y131.105 E12.39711
G1 X100.139 Y130.946 E12.41597
G1 X99.407 Y130.587 E12.45665
G1 X99.12 Y130.436 E12.47283
G1 X98.372 Y130.021 E12.5155
G1 X98.075 Y129.845 E12.53273
G1 X97.402 Y129.424 E12.57233
G1 X97.072 Y129.206 E12.59206
G1 X96.353 Y128.705 E12.63578
G1 X96.14 Y128.546 E12.64904
G1 X95.521 Y128.066 E12.68812
G1 X95.209 Y127.811 E12.70823
G1 X94.564 Y127.255 E12.75071
G1 X94.343 Y127.055 E12.76558
G1 X93.752 Y126.493 E12.80627
G1 X93.479 Y126.22 E12.82553
G1 X92.95 Y125.663 E12.86386
G1 X92.653 Y125.331 E12.88608
G1 X92.231 Y124.842 E12.9183
G1 X91.898 Y124.434 E12.94458
G1 X91.385 Y123.768 E12.98652
G1 X91.227 Y123.551 E12.99991
G1 X90.757 Y122.875 E13.04099
G1 X90.558 Y122.573 E13.05903
G1 X90.159 Y121.932 E13.0967
G1 X89.95 Y121.576 E13.1173
G1 X89.524 Y120.809 E13.16107
G1 X89.403 Y120.575 E13.17421
G1 X89.071 Y119.898 E13.21183
G1 X88.848 Y119.41 E13.2386
G1 X88.578 Y118.782 E13.2727
G1 X88.444 Y118.448 E13.29066
G1 X88.132 Y117.604 E13.33555
G1 X88.027 Y117.294 E13.35188
G1 X87.791 Y116.543 E13.39115
G1 X87.701 Y116.224 E13.40769
G1 X87.492 Y115.422 E13.44904
G1 X87.391 Y114.982 E13.47156
G1 X87.226 Y114.177 E13.51255
G1 X87.18 Y113.908 E13.52617
G1 X87.047 Y113.031 E13.57042
G1 X87.008 Y112.717 E13.58621
G1 X86.93 Y111.95 E13.62467
G1 X86.897 Y111.497 E13.64733
G1 X86.858 Y110.695 E13.68739
G1 X86.851 Y110.382 E13.70301
G1 X86.852 Y109.524 E13.74582
G1 X86.86 Y109.226 E13.76069
G1 X86.903 Y108.403 E13.80181
G1 X86.933 Y108.023 E13.82082
G1 X87.007 Y107.301 E13.85703
G1 X87.067 Y106.843 E13.88008
G1 X87.177 Y106.114 E13.91686
G1 X87.254 Y105.682 E13.93875
G1 X87.394 Y105.002 E13.97339
G1 X87.516 Y104.484 E13.99994
G1 X87.673 Y103.871 E14.03151
G1 X87.815 Y103.378 E14.0571
G1 X88.051 Y102.63 E14.09624
G1 X88.16 Y102.314 E14.11291
G1 X88.444 Y101.551 E14.15353
G1 X88.576 Y101.22 E14.17131
G1 X88.893 Y100.486 E14.2112
G1 X89.054 Y100.136 E14.23042
G1 X89.373 Y99.485 E14.26659
G1 X89.564 Y99.121 E14.28709
G1 X89.981 Y98.368 E14.33004
G1 X90.16 Y98.067 E14.34751
G1 X90.579 Y97.396 E14.38698
G1 X90.795 Y97.07 E14.40649
G1 X91.28 Y96.376 E14.44873
G1 X91.454 Y96.14 E14.46336
G1 X91.934 Y95.521 E14.50243
G1 X92.187 Y95.211 E14.5224
G1 X92.745 Y94.562 E14.5651
G1 X92.958 Y94.328 E14.58088
G1 X93.508 Y93.751 E14.62065
G1 X93.78 Y93.479 E14.63985
G1 F1500 E8.13985
;MESH:wheel.stl
G0 F6000 X106.16 Y107.78
G0 X104.897 Y107.055
G0 X104.491 Y109.421
G0 X104.494 Y110.598
G0 X104.732 Y111.712
G0 X105.203 Y112.77
G0 X105.883 Y113.707
G0 X106.743 Y114.482
G0 X107.766 Y115.068
G0 X108.378 Y115.266
G0 X110 Y115.701
;TYPE:WALL-INNER
G1 F1500 E14.63985
G1 F1200 X110.596 Y115.669 E14.66962
G1 X111.185 Y115.577 E14.69936
G1 X111.762 Y115.421 E14.72918
G1 X112.336 Y115.2 E14.75987
G1 X112.85 Y114.937 E14.78868
G1 X113.351 Y114.612 E14.81847
G1 X113.815 Y114.237 E14.84823
G1 X114.237 Y113.815 E14.87801
G1 X114.612 Y113.352 E14.90773
G1 X114.938 Y112.849 E14.93764
G1 X115.215 Y112.299 E14.96836
G1 X115.421 Y111.762 E14.99706
G1 X115.577 Y111.185 E15.02688
G1 X115.669 Y110.596 E15.05662
G1 X115.701 Y110 E15.08639
G1 X115.669 Y109.404 E15.11617
G1 X115.577 Y108.815 E15.14591
G1 X115.421 Y108.238 E15.17573
G1 X115.2 Y107.664 E15.20642
